% data_collection_48well_8cols_s0-s49.nc
; Generated by generate_nc_files.py
; Geometry: 2D cross-hatch grid | 3+3 strands | 2x2 open pores | single layer
; CSV: lhs_bioprint_samples_semicolon.csv
; Temperature: set manually in Architect UI (not in G-code)
;
; Col   SampleID   P(kPa)     F(mm/s)    Z(mm)   
; 1     BO-iter1   96.717     9.685      0.100  
;
; REGENHU
; http://www.regenhu.com/
; Translator 1.0.0.0
; Date 2026-04-13
; ESTIMATED_PRINTING_TIME 0:03:19.061356

; INITIALIZATION
T1
M200=967 ; Set pressure to 96.717kPa
T0
G803 ; Move to safe height
; INITIALIZATION

M110=0 ; Set printing progress to 0%
T1
G801 ; Measure tool

#CONTOUR MODE ON [DEV PATH_DEV=0.08]

M312 ; Wait for work zone temperature

; -- Col 1 | BO iteration 1 | P=96.717kPa  F=9.7mm/s  Z=0.100mm --
G805[-45.785, 32.720, 2.620] ; G55 origin: A1
G55

; Changing tool to 'PSD 1'
#FLUSH WAIT
T1
G807[1, 0.002, 0.002] ; time-based start/stop delays [s]
M200=967 ; pressure 96.717kPa
F9.685
G00 X-2.000 Y-2.500
M151 ; Engage tool for printing
Z0.100
M110=40
G807[2, 0.300, 0.300]
M160                      ; H1 ON
G01 X2.300      ; H-strand 1
M161                      ; H1 OFF
G00 X2.000 Y0.000  ; → H-strand 2 start
G807[2, 0.300, 0.300]
M160                      ; H2 ON
G01 X-2.300      ; H-strand 2
M161                      ; H2 OFF
G00 X-2.000 Y2.500  ; → H-strand 3 start
G807[2, 0.300, 0.300]
M160                      ; H3 ON
G01 X2.300      ; H-strand 3
M161                      ; H3 OFF
G00 X2.600          ; tail-eq 0.3mm — match H1/H2 residual
G00 Z1.100                   ; lift 1.0mm — clear H-strands
G00 X-2.500 Y-2.000  ; → V-strand 1 start
G00 Z0.100                    ; lower to print height
G807[2, 0.300, 0.300]
M160                      ; V1 ON
G01 Y2.300      ; V-strand 1
M161                      ; V1 OFF
G00 X0.000 Y2.000  ; → V-strand 2 start
G807[2, 0.300, 0.300]
M160                      ; V2 ON
G01 Y-2.300      ; V-strand 2
M161                      ; V2 OFF
G00 X2.500 Y-2.000  ; → V-strand 3 start
G807[2, 0.300, 0.300]
M160                      ; V3 ON
G01 Y2.300      ; V-strand 3
M161                      ; V3 OFF
G00 Y2.600          ; tail-eq 0.3mm — match V1/V2 residual
G00 Z18.400 ; lift after well A1
G805[-45.785, 19.640, 2.620] ; G55 origin: B1
G55
G00 Z18.400
M200=967
F9.685
X-2.000 Y-2.500
Z0.100
M110=50
G807[2, 0.300, 0.300]
M160                      ; H1 ON
G01 X2.300      ; H-strand 1
M161                      ; H1 OFF
G00 X2.000 Y0.000  ; → H-strand 2 start
G807[2, 0.300, 0.300]
M160                      ; H2 ON
G01 X-2.300      ; H-strand 2
M161                      ; H2 OFF
G00 X-2.000 Y2.500  ; → H-strand 3 start
G807[2, 0.300, 0.300]
M160                      ; H3 ON
G01 X2.300      ; H-strand 3
M161                      ; H3 OFF
G00 X2.600          ; tail-eq 0.3mm — match H1/H2 residual
G00 Z1.100                   ; lift 1.0mm — clear H-strands
G00 X-2.500 Y-2.000  ; → V-strand 1 start
G00 Z0.100                    ; lower to print height
G807[2, 0.300, 0.300]
M160                      ; V1 ON
G01 Y2.300      ; V-strand 1
M161                      ; V1 OFF
G00 X0.000 Y2.000  ; → V-strand 2 start
G807[2, 0.300, 0.300]
M160                      ; V2 ON
G01 Y-2.300      ; V-strand 2
M161                      ; V2 OFF
G00 X2.500 Y-2.000  ; → V-strand 3 start
G807[2, 0.300, 0.300]
M160                      ; V3 ON
G01 Y2.300      ; V-strand 3
M161                      ; V3 OFF
G00 Y2.600          ; tail-eq 0.3mm — match V1/V2 residual
G00 Z18.400 ; lift after well B1
G805[-45.785, 6.560, 2.620] ; G55 origin: C1
G55
G00 Z18.400
M200=967
F9.685
X-2.000 Y-2.500
Z0.100
M110=60
G807[2, 0.300, 0.300]
M160                      ; H1 ON
G01 X2.300      ; H-strand 1
M161                      ; H1 OFF
G00 X2.000 Y0.000  ; → H-strand 2 start
G807[2, 0.300, 0.300]
M160                      ; H2 ON
G01 X-2.300      ; H-strand 2
M161                      ; H2 OFF
G00 X-2.000 Y2.500  ; → H-strand 3 start
G807[2, 0.300, 0.300]
M160                      ; H3 ON
G01 X2.300      ; H-strand 3
M161                      ; H3 OFF
G00 X2.600          ; tail-eq 0.3mm — match H1/H2 residual
G00 Z1.100                   ; lift 1.0mm — clear H-strands
G00 X-2.500 Y-2.000  ; → V-strand 1 start
G00 Z0.100                    ; lower to print height
G807[2, 0.300, 0.300]
M160                      ; V1 ON
G01 Y2.300      ; V-strand 1
M161                      ; V1 OFF
G00 X0.000 Y2.000  ; → V-strand 2 start
G807[2, 0.300, 0.300]
M160                      ; V2 ON
G01 Y-2.300      ; V-strand 2
M161                      ; V2 OFF
G00 X2.500 Y-2.000  ; → V-strand 3 start
G807[2, 0.300, 0.300]
M160                      ; V3 ON
G01 Y2.300      ; V-strand 3
M161                      ; V3 OFF
G00 Y2.600          ; tail-eq 0.3mm — match V1/V2 residual
G00 Z18.400 ; lift after well C1
G805[-45.785, -6.520, 2.620] ; G55 origin: D1
G55
G00 Z18.400
M200=967
F9.685
X-2.000 Y-2.500
Z0.100
M110=70
G807[2, 0.300, 0.300]
M160                      ; H1 ON
G01 X2.300      ; H-strand 1
M161                      ; H1 OFF
G00 X2.000 Y0.000  ; → H-strand 2 start
G807[2, 0.300, 0.300]
M160                      ; H2 ON
G01 X-2.300      ; H-strand 2
M161                      ; H2 OFF
G00 X-2.000 Y2.500  ; → H-strand 3 start
G807[2, 0.300, 0.300]
M160                      ; H3 ON
G01 X2.300      ; H-strand 3
M161                      ; H3 OFF
G00 X2.600          ; tail-eq 0.3mm — match H1/H2 residual
G00 Z1.100                   ; lift 1.0mm — clear H-strands
G00 X-2.500 Y-2.000  ; → V-strand 1 start
G00 Z0.100                    ; lower to print height
G807[2, 0.300, 0.300]
M160                      ; V1 ON
G01 Y2.300      ; V-strand 1
M161                      ; V1 OFF
G00 X0.000 Y2.000  ; → V-strand 2 start
G807[2, 0.300, 0.300]
M160                      ; V2 ON
G01 Y-2.300      ; V-strand 2
M161                      ; V2 OFF
G00 X2.500 Y-2.000  ; → V-strand 3 start
G807[2, 0.300, 0.300]
M160                      ; V3 ON
G01 Y2.300      ; V-strand 3
M161                      ; V3 OFF
G00 Y2.600          ; tail-eq 0.3mm — match V1/V2 residual
G00 Z18.400 ; lift after well D1
G805[-45.785, -19.600, 2.620] ; G55 origin: E1
G55
G00 Z18.400
M200=967
F9.685
X-2.000 Y-2.500
Z0.100
M110=80
G807[2, 0.300, 0.300]
M160                      ; H1 ON
G01 X2.300      ; H-strand 1
M161                      ; H1 OFF
G00 X2.000 Y0.000  ; → H-strand 2 start
G807[2, 0.300, 0.300]
M160                      ; H2 ON
G01 X-2.300      ; H-strand 2
M161                      ; H2 OFF
G00 X-2.000 Y2.500  ; → H-strand 3 start
G807[2, 0.300, 0.300]
M160                      ; H3 ON
G01 X2.300      ; H-strand 3
M161                      ; H3 OFF
G00 X2.600          ; tail-eq 0.3mm — match H1/H2 residual
G00 Z1.100                   ; lift 1.0mm — clear H-strands
G00 X-2.500 Y-2.000  ; → V-strand 1 start
G00 Z0.100                    ; lower to print height
G807[2, 0.300, 0.300]
M160                      ; V1 ON
G01 Y2.300      ; V-strand 1
M161                      ; V1 OFF
G00 X0.000 Y2.000  ; → V-strand 2 start
G807[2, 0.300, 0.300]
M160                      ; V2 ON
G01 Y-2.300      ; V-strand 2
M161                      ; V2 OFF
G00 X2.500 Y-2.000  ; → V-strand 3 start
G807[2, 0.300, 0.300]
M160                      ; V3 ON
G01 Y2.300      ; V-strand 3
M161                      ; V3 OFF
G00 Y2.600          ; tail-eq 0.3mm — match V1/V2 residual
G00 Z18.400 ; lift after well E1
G805[-45.785, -32.680, 2.620] ; G55 origin: F1
G55
G00 Z18.400
M200=967
F9.685
X-2.000 Y-2.500
Z0.100
M110=90
G807[2, 0.300, 0.300]
M160                      ; H1 ON
G01 X2.300      ; H-strand 1
M161                      ; H1 OFF
G00 X2.000 Y0.000  ; → H-strand 2 start
G807[2, 0.300, 0.300]
M160                      ; H2 ON
G01 X-2.300      ; H-strand 2
M161                      ; H2 OFF
G00 X-2.000 Y2.500  ; → H-strand 3 start
G807[2, 0.300, 0.300]
M160                      ; H3 ON
G01 X2.300      ; H-strand 3
M161                      ; H3 OFF
G00 X2.600          ; tail-eq 0.3mm — match H1/H2 residual
G00 Z1.100                   ; lift 1.0mm — clear H-strands
G00 X-2.500 Y-2.000  ; → V-strand 1 start
G00 Z0.100                    ; lower to print height
G807[2, 0.300, 0.300]
M160                      ; V1 ON
G01 Y2.300      ; V-strand 1
M161                      ; V1 OFF
G00 X0.000 Y2.000  ; → V-strand 2 start
G807[2, 0.300, 0.300]
M160                      ; V2 ON
G01 Y-2.300      ; V-strand 2
M161                      ; V2 OFF
G00 X2.500 Y-2.000  ; → V-strand 3 start
G807[2, 0.300, 0.300]
M160                      ; V3 ON
G01 Y2.300      ; V-strand 3
M161                      ; V3 OFF
G00 Y2.600          ; tail-eq 0.3mm — match V1/V2 residual
G00 Z18.400 ; lift after well F1



; ============================================================
; CAMERA IMAGING POSITIONS
; Wells: A1, B1, C1, D1, E1, F1
; Single column: A1 -> B1 -> C1 -> D1 -> E1 -> F1
; Slot 1 selected (T1) -- camera physically at slot 5.
; Z safe = 40.0 mm  |  Z imaging = 20.0 mm
; ============================================================

#FLUSH WAIT
#CONTOUR MODE OFF          ; Exit tracking mode from printing
#FLUSH WAIT

T1                         ; Select slot 1
G803                       ; Move to system safe height

; --- Well A1 ---
G00 G54 G90 Z40.000          ; Raise to safe Z first
G00 X-250.160 Y53.250              ; Move XY to A1
G00 Z20.000                ; Lower to imaging height
V.E.UserInteraction.Message = "Camera at A1 - trigger imaging, then click OK"
M121                       ; Pause for manual camera trigger

; --- Well B1 ---
G00 G54 G90 Z40.000          ; Raise to safe Z first
G00 X-250.160 Y40.242              ; Move XY to B1
G00 Z20.000                ; Lower to imaging height
V.E.UserInteraction.Message = "Camera at B1 - trigger imaging, then click OK"
M121                       ; Pause for manual camera trigger

; --- Well C1 ---
G00 G54 G90 Z40.000          ; Raise to safe Z first
G00 X-250.160 Y27.234              ; Move XY to C1
G00 Z20.000                ; Lower to imaging height
V.E.UserInteraction.Message = "Camera at C1 - trigger imaging, then click OK"
M121                       ; Pause for manual camera trigger

; --- Well D1 ---
G00 G54 G90 Z40.000          ; Raise to safe Z first
G00 X-250.160 Y14.226              ; Move XY to D1
G00 Z20.000                ; Lower to imaging height
V.E.UserInteraction.Message = "Camera at D1 - trigger imaging, then click OK"
M121                       ; Pause for manual camera trigger

; --- Well E1 ---
G00 G54 G90 Z40.000          ; Raise to safe Z first
G00 X-250.160 Y1.218              ; Move XY to E1
G00 Z20.000                ; Lower to imaging height
V.E.UserInteraction.Message = "Camera at E1 - trigger imaging, then click OK"
M121                       ; Pause for manual camera trigger

; --- Well F1 ---
G00 G54 G90 Z40.000          ; Raise to safe Z first
G00 X-250.160 Y-11.790              ; Move XY to F1
G00 Z20.000                ; Lower to imaging height
V.E.UserInteraction.Message = "Camera at F1 - trigger imaging, then click OK"
M121                       ; Pause for manual camera trigger

; --- Return home ---
G00 G54 G90 Z40.000          ; Safe Z before going home
G800                       ; Go home
M110=1000
M30