% data_collection_48well_8cols_s0-s49.nc
; Generated by generate_nc_files.py
; Geometry: 2D cross-hatch grid | 3+3 strands | 2x2 open pores | single layer
; CSV: lhs_bioprint_samples_semicolon.csv
; Temperature: set manually in Architect UI (not in G-code)
;
; Col   SampleID   P(kPa)     F(mm/s)    Z(mm)   
; 1     0          80         10.0       0.3     
; 2     7          85         12.0       0.3     
; 3     14         90         14.0       0.2     
; 4     21         95         13.0       0.1     
; 5     28         100        10.0       0.3     
; 6     35         105        13.0       0.6     
; 7     42         110        9.0        0.6     
; 8     49         115        7.0        0.5     
;
; REGENHU
; http://www.regenhu.com/
; Translator 1.0.0.0
; Date 2026-04-13
; ESTIMATED_PRINTING_TIME 0:03:19.061356

; INITIALIZATION
T1
M200=800 ; Set pressure to 80kPa
T0
G803 ; Move to safe height
; INITIALIZATION

M110=0 ; Set printing progress to 0%
T1
G801 ; Measure tool

#CONTOUR MODE ON [DEV PATH_DEV=0.08]

M312 ; Wait for work zone temperature

#FLUSH WAIT

; ============================================================
; CAMERA IMAGING POSITIONS
; Wells: A1, B1, C1, D1, E1, F1, A2, B2, C2, D2, E2, F2, A3, B3, C3, D3, E3, F3, A4, B4, C4, D4, E4, F4, A5, B5, C5, D5, E5, F5, A6, B6, C6, D6, E6, F6, A7, B7, C7, D7, E7, F7, A8, B8, C8, D8, E8, F8
; Column-major order: col1 (A1-F1) -> col2 (A2-F2) -> ...
; Slot 1 selected (T1) -- camera physically at slot 5.
; Z safe = 40.0 mm  |  Z imaging = 20.0 mm
; ============================================================

#FLUSH WAIT
#CONTOUR MODE OFF          ; Exit tracking mode from printing
#FLUSH WAIT

T1                         ; Select slot 1
G803                       ; Move to system safe height

; --- Well A1 ---
G00 G54 G90 Z40.000          ; Raise to safe Z first
G00 X-250.160 Y53.250              ; Move XY to A1
G00 Z20.000                ; Lower to imaging height
V.E.UserInteraction.Message = "Camera at A1 - trigger imaging, then click OK"
M121                       ; Pause for manual camera trigger

; --- Well B1 ---
G00 G54 G90 Z40.000          ; Raise to safe Z first
G00 X-250.160 Y40.242              ; Move XY to B1
G00 Z20.000                ; Lower to imaging height
V.E.UserInteraction.Message = "Camera at B1 - trigger imaging, then click OK"
M121                       ; Pause for manual camera trigger

; --- Well C1 ---
G00 G54 G90 Z40.000          ; Raise to safe Z first
G00 X-250.160 Y27.234              ; Move XY to C1
G00 Z20.000                ; Lower to imaging height
V.E.UserInteraction.Message = "Camera at C1 - trigger imaging, then click OK"
M121                       ; Pause for manual camera trigger

; --- Well D1 ---
G00 G54 G90 Z40.000          ; Raise to safe Z first
G00 X-250.160 Y14.226              ; Move XY to D1
G00 Z20.000                ; Lower to imaging height
V.E.UserInteraction.Message = "Camera at D1 - trigger imaging, then click OK"
M121                       ; Pause for manual camera trigger

; --- Well E1 ---
G00 G54 G90 Z40.000          ; Raise to safe Z first
G00 X-250.160 Y1.218              ; Move XY to E1
G00 Z20.000                ; Lower to imaging height
V.E.UserInteraction.Message = "Camera at E1 - trigger imaging, then click OK"
M121                       ; Pause for manual camera trigger

; --- Well F1 ---
G00 G54 G90 Z40.000          ; Raise to safe Z first
G00 X-250.160 Y-11.790              ; Move XY to F1
G00 Z20.000                ; Lower to imaging height
V.E.UserInteraction.Message = "Camera at F1 - trigger imaging, then click OK"
M121                       ; Pause for manual camera trigger

; --- Well A2 ---
G00 G54 G90 Z40.000          ; Raise to safe Z first
G00 X-237.023 Y53.250              ; Move XY to A2
G00 Z20.000                ; Lower to imaging height
V.E.UserInteraction.Message = "Camera at A2 - trigger imaging, then click OK"
M121                       ; Pause for manual camera trigger

; --- Well B2 ---
G00 G54 G90 Z40.000          ; Raise to safe Z first
G00 X-237.023 Y40.242              ; Move XY to B2
G00 Z20.000                ; Lower to imaging height
V.E.UserInteraction.Message = "Camera at B2 - trigger imaging, then click OK"
M121                       ; Pause for manual camera trigger

; --- Well C2 ---
G00 G54 G90 Z40.000          ; Raise to safe Z first
G00 X-237.023 Y27.234              ; Move XY to C2
G00 Z20.000                ; Lower to imaging height
V.E.UserInteraction.Message = "Camera at C2 - trigger imaging, then click OK"
M121                       ; Pause for manual camera trigger

; --- Well D2 ---
G00 G54 G90 Z40.000          ; Raise to safe Z first
G00 X-237.023 Y14.226              ; Move XY to D2
G00 Z20.000                ; Lower to imaging height
V.E.UserInteraction.Message = "Camera at D2 - trigger imaging, then click OK"
M121                       ; Pause for manual camera trigger

; --- Well E2 ---
G00 G54 G90 Z40.000          ; Raise to safe Z first
G00 X-237.023 Y1.218              ; Move XY to E2
G00 Z20.000                ; Lower to imaging height
V.E.UserInteraction.Message = "Camera at E2 - trigger imaging, then click OK"
M121                       ; Pause for manual camera trigger

; --- Well F2 ---
G00 G54 G90 Z40.000          ; Raise to safe Z first
G00 X-237.023 Y-11.790              ; Move XY to F2
G00 Z20.000                ; Lower to imaging height
V.E.UserInteraction.Message = "Camera at F2 - trigger imaging, then click OK"
M121                       ; Pause for manual camera trigger

; --- Well A3 ---
G00 G54 G90 Z40.000          ; Raise to safe Z first
G00 X-223.886 Y53.250              ; Move XY to A3
G00 Z20.000                ; Lower to imaging height
V.E.UserInteraction.Message = "Camera at A3 - trigger imaging, then click OK"
M121                       ; Pause for manual camera trigger

; --- Well B3 ---
G00 G54 G90 Z40.000          ; Raise to safe Z first
G00 X-223.886 Y40.242              ; Move XY to B3
G00 Z20.000                ; Lower to imaging height
V.E.UserInteraction.Message = "Camera at B3 - trigger imaging, then click OK"
M121                       ; Pause for manual camera trigger

; --- Well C3 ---
G00 G54 G90 Z40.000          ; Raise to safe Z first
G00 X-223.886 Y27.234              ; Move XY to C3
G00 Z20.000                ; Lower to imaging height
V.E.UserInteraction.Message = "Camera at C3 - trigger imaging, then click OK"
M121                       ; Pause for manual camera trigger

; --- Well D3 ---
G00 G54 G90 Z40.000          ; Raise to safe Z first
G00 X-223.886 Y14.226              ; Move XY to D3
G00 Z20.000                ; Lower to imaging height
V.E.UserInteraction.Message = "Camera at D3 - trigger imaging, then click OK"
M121                       ; Pause for manual camera trigger

; --- Well E3 ---
G00 G54 G90 Z40.000          ; Raise to safe Z first
G00 X-223.886 Y1.218              ; Move XY to E3
G00 Z20.000                ; Lower to imaging height
V.E.UserInteraction.Message = "Camera at E3 - trigger imaging, then click OK"
M121                       ; Pause for manual camera trigger

; --- Well F3 ---
G00 G54 G90 Z40.000          ; Raise to safe Z first
G00 X-223.886 Y-11.790              ; Move XY to F3
G00 Z20.000                ; Lower to imaging height
V.E.UserInteraction.Message = "Camera at F3 - trigger imaging, then click OK"
M121                       ; Pause for manual camera trigger

; --- Well A4 ---
G00 G54 G90 Z40.000          ; Raise to safe Z first
G00 X-210.749 Y53.250              ; Move XY to A4
G00 Z20.000                ; Lower to imaging height
V.E.UserInteraction.Message = "Camera at A4 - trigger imaging, then click OK"
M121                       ; Pause for manual camera trigger

; --- Well B4 ---
G00 G54 G90 Z40.000          ; Raise to safe Z first
G00 X-210.749 Y40.242              ; Move XY to B4
G00 Z20.000                ; Lower to imaging height
V.E.UserInteraction.Message = "Camera at B4 - trigger imaging, then click OK"
M121                       ; Pause for manual camera trigger

; --- Well C4 ---
G00 G54 G90 Z40.000          ; Raise to safe Z first
G00 X-210.749 Y27.234              ; Move XY to C4
G00 Z20.000                ; Lower to imaging height
V.E.UserInteraction.Message = "Camera at C4 - trigger imaging, then click OK"
M121                       ; Pause for manual camera trigger

; --- Well D4 ---
G00 G54 G90 Z40.000          ; Raise to safe Z first
G00 X-210.749 Y14.226              ; Move XY to D4
G00 Z20.000                ; Lower to imaging height
V.E.UserInteraction.Message = "Camera at D4 - trigger imaging, then click OK"
M121                       ; Pause for manual camera trigger

; --- Well E4 ---
G00 G54 G90 Z40.000          ; Raise to safe Z first
G00 X-210.749 Y1.218              ; Move XY to E4
G00 Z20.000                ; Lower to imaging height
V.E.UserInteraction.Message = "Camera at E4 - trigger imaging, then click OK"
M121                       ; Pause for manual camera trigger

; --- Well F4 ---
G00 G54 G90 Z40.000          ; Raise to safe Z first
G00 X-210.749 Y-11.790              ; Move XY to F4
G00 Z20.000                ; Lower to imaging height
V.E.UserInteraction.Message = "Camera at F4 - trigger imaging, then click OK"
M121                       ; Pause for manual camera trigger

; --- Well A5 ---
G00 G54 G90 Z40.000          ; Raise to safe Z first
G00 X-197.611 Y53.250              ; Move XY to A5
G00 Z20.000                ; Lower to imaging height
V.E.UserInteraction.Message = "Camera at A5 - trigger imaging, then click OK"
M121                       ; Pause for manual camera trigger

; --- Well B5 ---
G00 G54 G90 Z40.000          ; Raise to safe Z first
G00 X-197.611 Y40.242              ; Move XY to B5
G00 Z20.000                ; Lower to imaging height
V.E.UserInteraction.Message = "Camera at B5 - trigger imaging, then click OK"
M121                       ; Pause for manual camera trigger

; --- Well C5 ---
G00 G54 G90 Z40.000          ; Raise to safe Z first
G00 X-197.611 Y27.234              ; Move XY to C5
G00 Z20.000                ; Lower to imaging height
V.E.UserInteraction.Message = "Camera at C5 - trigger imaging, then click OK"
M121                       ; Pause for manual camera trigger

; --- Well D5 ---
G00 G54 G90 Z40.000          ; Raise to safe Z first
G00 X-197.611 Y14.226              ; Move XY to D5
G00 Z20.000                ; Lower to imaging height
V.E.UserInteraction.Message = "Camera at D5 - trigger imaging, then click OK"
M121                       ; Pause for manual camera trigger

; --- Well E5 ---
G00 G54 G90 Z40.000          ; Raise to safe Z first
G00 X-197.611 Y1.218              ; Move XY to E5
G00 Z20.000                ; Lower to imaging height
V.E.UserInteraction.Message = "Camera at E5 - trigger imaging, then click OK"
M121                       ; Pause for manual camera trigger

; --- Well F5 ---
G00 G54 G90 Z40.000          ; Raise to safe Z first
G00 X-197.611 Y-11.790              ; Move XY to F5
G00 Z20.000                ; Lower to imaging height
V.E.UserInteraction.Message = "Camera at F5 - trigger imaging, then click OK"
M121                       ; Pause for manual camera trigger

; --- Well A6 ---
G00 G54 G90 Z40.000          ; Raise to safe Z first
G00 X-184.474 Y53.250              ; Move XY to A6
G00 Z20.000                ; Lower to imaging height
V.E.UserInteraction.Message = "Camera at A6 - trigger imaging, then click OK"
M121                       ; Pause for manual camera trigger

; --- Well B6 ---
G00 G54 G90 Z40.000          ; Raise to safe Z first
G00 X-184.474 Y40.242              ; Move XY to B6
G00 Z20.000                ; Lower to imaging height
V.E.UserInteraction.Message = "Camera at B6 - trigger imaging, then click OK"
M121                       ; Pause for manual camera trigger

; --- Well C6 ---
G00 G54 G90 Z40.000          ; Raise to safe Z first
G00 X-184.474 Y27.234              ; Move XY to C6
G00 Z20.000                ; Lower to imaging height
V.E.UserInteraction.Message = "Camera at C6 - trigger imaging, then click OK"
M121                       ; Pause for manual camera trigger

; --- Well D6 ---
G00 G54 G90 Z40.000          ; Raise to safe Z first
G00 X-184.474 Y14.226              ; Move XY to D6
G00 Z20.000                ; Lower to imaging height
V.E.UserInteraction.Message = "Camera at D6 - trigger imaging, then click OK"
M121                       ; Pause for manual camera trigger

; --- Well E6 ---
G00 G54 G90 Z40.000          ; Raise to safe Z first
G00 X-184.474 Y1.218              ; Move XY to E6
G00 Z20.000                ; Lower to imaging height
V.E.UserInteraction.Message = "Camera at E6 - trigger imaging, then click OK"
M121                       ; Pause for manual camera trigger

; --- Well F6 ---
G00 G54 G90 Z40.000          ; Raise to safe Z first
G00 X-184.474 Y-11.790              ; Move XY to F6
G00 Z20.000                ; Lower to imaging height
V.E.UserInteraction.Message = "Camera at F6 - trigger imaging, then click OK"
M121                       ; Pause for manual camera trigger

; --- Well A7 ---
G00 G54 G90 Z40.000          ; Raise to safe Z first
G00 X-171.337 Y53.250              ; Move XY to A7
G00 Z20.000                ; Lower to imaging height
V.E.UserInteraction.Message = "Camera at A7 - trigger imaging, then click OK"
M121                       ; Pause for manual camera trigger

; --- Well B7 ---
G00 G54 G90 Z40.000          ; Raise to safe Z first
G00 X-171.337 Y40.242              ; Move XY to B7
G00 Z20.000                ; Lower to imaging height
V.E.UserInteraction.Message = "Camera at B7 - trigger imaging, then click OK"
M121                       ; Pause for manual camera trigger

; --- Well C7 ---
G00 G54 G90 Z40.000          ; Raise to safe Z first
G00 X-171.337 Y27.234              ; Move XY to C7
G00 Z20.000                ; Lower to imaging height
V.E.UserInteraction.Message = "Camera at C7 - trigger imaging, then click OK"
M121                       ; Pause for manual camera trigger

; --- Well D7 ---
G00 G54 G90 Z40.000          ; Raise to safe Z first
G00 X-171.337 Y14.226              ; Move XY to D7
G00 Z20.000                ; Lower to imaging height
V.E.UserInteraction.Message = "Camera at D7 - trigger imaging, then click OK"
M121                       ; Pause for manual camera trigger

; --- Well E7 ---
G00 G54 G90 Z40.000          ; Raise to safe Z first
G00 X-171.337 Y1.218              ; Move XY to E7
G00 Z20.000                ; Lower to imaging height
V.E.UserInteraction.Message = "Camera at E7 - trigger imaging, then click OK"
M121                       ; Pause for manual camera trigger

; --- Well F7 ---
G00 G54 G90 Z40.000          ; Raise to safe Z first
G00 X-171.337 Y-11.790              ; Move XY to F7
G00 Z20.000                ; Lower to imaging height
V.E.UserInteraction.Message = "Camera at F7 - trigger imaging, then click OK"
M121                       ; Pause for manual camera trigger

; --- Well A8 ---
G00 G54 G90 Z40.000          ; Raise to safe Z first
G00 X-158.200 Y53.250              ; Move XY to A8
G00 Z20.000                ; Lower to imaging height
V.E.UserInteraction.Message = "Camera at A8 - trigger imaging, then click OK"
M121                       ; Pause for manual camera trigger

; --- Well B8 ---
G00 G54 G90 Z40.000          ; Raise to safe Z first
G00 X-158.200 Y40.242              ; Move XY to B8
G00 Z20.000                ; Lower to imaging height
V.E.UserInteraction.Message = "Camera at B8 - trigger imaging, then click OK"
M121                       ; Pause for manual camera trigger

; --- Well C8 ---
G00 G54 G90 Z40.000          ; Raise to safe Z first
G00 X-158.200 Y27.234              ; Move XY to C8
G00 Z20.000                ; Lower to imaging height
V.E.UserInteraction.Message = "Camera at C8 - trigger imaging, then click OK"
M121                       ; Pause for manual camera trigger

; --- Well D8 ---
G00 G54 G90 Z40.000          ; Raise to safe Z first
G00 X-158.200 Y14.226              ; Move XY to D8
G00 Z20.000                ; Lower to imaging height
V.E.UserInteraction.Message = "Camera at D8 - trigger imaging, then click OK"
M121                       ; Pause for manual camera trigger

; --- Well E8 ---
G00 G54 G90 Z40.000          ; Raise to safe Z first
G00 X-158.200 Y1.218              ; Move XY to E8
G00 Z20.000                ; Lower to imaging height
V.E.UserInteraction.Message = "Camera at E8 - trigger imaging, then click OK"
M121                       ; Pause for manual camera trigger

; --- Well F8 ---
G00 G54 G90 Z40.000          ; Raise to safe Z first
G00 X-158.200 Y-11.790              ; Move XY to F8
G00 Z20.000                ; Lower to imaging height
V.E.UserInteraction.Message = "Camera at F8 - trigger imaging, then click OK"
M121                       ; Pause for manual camera trigger

; --- Return home ---
G00 G54 G90 Z40.000          ; Safe Z before going home
G800                       ; Go home
M110=1000
M30