% imaging_3wells.nc
; Generated by nc_imaging_only.py
; Camera imaging only -- no printing.
; Wells: A1, B3, C4
; Slot 1 selected (T1) -- camera physically at slot 5.
; Z safe = 40.0 mm  |  Z imaging = 20.0 mm
;
; REGENHU
; http://www.regenhu.com/
; Translator 1.0.0.0

; INITIALIZATION
T1
T0
G803 ; Move to safe height
; INITIALIZATION

M110=0 ; Set printing progress to 0%
T1
G801 ; Measure tool

#CONTOUR MODE ON [DEV PATH_DEV=0.08]

M312 ; Wait for work zone temperature

#FLUSH WAIT
#CONTOUR MODE OFF          ; Exit tracking mode
#FLUSH WAIT

T1                         ; Select slot 1
G803                       ; Move to system safe height

; --- Well A1 ---
G00 G54 G90 Z40.000          ; Raise to safe Z first
G00 X-250.160 Y53.250              ; Move XY to A1
G00 Z20.000                ; Lower to imaging height
V.E.UserInteraction.Message = "Camera at A1 - trigger imaging, then click OK"
M121                       ; Pause for manual camera trigger

; --- Well B3 ---
G00 G54 G90 Z40.000          ; Raise to safe Z first
G00 X-223.886 Y40.242              ; Move XY to B3
G00 Z20.000                ; Lower to imaging height
V.E.UserInteraction.Message = "Camera at B3 - trigger imaging, then click OK"
M121                       ; Pause for manual camera trigger

; --- Well C4 ---
G00 G54 G90 Z40.000          ; Raise to safe Z first
G00 X-210.749 Y27.234              ; Move XY to C4
G00 Z20.000                ; Lower to imaging height
V.E.UserInteraction.Message = "Camera at C4 - trigger imaging, then click OK"
M121                       ; Pause for manual camera trigger

; --- Return home ---
G00 G54 G90 Z40.000          ; Safe Z before going home
G800                       ; Go home
M110=1000
M30
