% data_collection_24well_4rows_imaging_72-75.nc
; Generated by generate_nc_files.py
; Samples 72–75 from C:\Users\hmo\hmo_workspace\data_procedure\data\lhs\lhs_bioprint_samples_semicolon.csv
;
; Row    SampleID   P(kPa)     F(mm/s)    T(°C)    Z(mm)   
; A      72         120        6.0        35       0.5     
; B      73         90         12.0       29       0.6     
; C      74         70         5.0        33       0.5     
; D      75         100        6.0        30       0.4     
;
; REGENHU
; http://www.regenhu.com/
; Translator 1.0.0.0
; Date 2026-03-31
; ESTIMATED_PRINTING_TIME 0:01:51.4461033

; INITIALIZATION
T1
M200=1200 ; Set pressure to 120kPa
T0
G803 ; Move to safe height
; INITIALIZATION

M110=0 ; Set printing progress to 0%
T1
G801 ; Measure tool

#CONTOUR MODE ON [DEV PATH_DEV=0.08]

M312 ; Wait for work zone temperature

; ── Row A │ Sample 72 │ P=120kPa  F=6.0mm/s  T=35°C  Z=0.500mm ──
G805[-46.420, 28.955, 2.870] ; Set G55 origin
G55

; Changing tool to 'PSD 1'
#FLUSH WAIT
T1
G807[1, 0.002, 0.002] ; Enable time-based start (0.002) / stop (0.002) delays [s]
M200=1200 ; Set pressure to 120.0kPa
F6.000
M300=350 ; Set tool temperature to 35.0°C
M302 ; Wait for tool temperature
G00 G55 X-2.900 Y2.900
M151 ; Engage tool for printing
Z0.500
M110=70 ; Set printing progress to 7%
M160 ; Turn on dispensing
G01 Y-2.900
M110=80 ; Set printing progress to 8%
X2.900
Y2.900
M110=90 ; Set printing progress to 9%
X-2.900
M161 ; Turn off dispensing
G805[-27.120, 28.955, 2.870] ; Set G55 origin
G55
G00 Z18.400
X-2.900
M110=100 ; Set printing progress to 10%
Z0.500
M160 ; Turn on dispensing
G01 Y-2.900
M110=110 ; Set printing progress to 11%
X2.900
Y2.900
M110=120 ; Set printing progress to 12%
X-2.900
M161 ; Turn off dispensing
G805[-7.820, 28.955, 2.870] ; Set G55 origin
G55
G00 Z18.400
X-2.900
M110=130 ; Set printing progress to 13%
Z0.500
M110=140 ; Set printing progress to 14%
M160 ; Turn on dispensing
G01 Y-2.900
X2.900
M110=150 ; Set printing progress to 15%
Y2.900
X-2.900
M161 ; Turn off dispensing
G805[11.480, 28.955, 2.870] ; Set G55 origin
G55
G00 Z18.400
M110=160 ; Set printing progress to 16%
X-2.900
Z0.500
M110=170 ; Set printing progress to 17%
M160 ; Turn on dispensing
G01 Y-2.900
X2.900
M110=180 ; Set printing progress to 18%
Y2.900
X-2.900
M161 ; Turn off dispensing
G805[30.780, 28.955, 2.870] ; Set G55 origin
G55
G00 Z18.400
M110=190 ; Set printing progress to 19%
X-2.900
Z0.500
M110=200 ; Set printing progress to 20%
M160 ; Turn on dispensing
G01 Y-2.900
X2.900
M110=210 ; Set printing progress to 21%
Y2.900
M110=220 ; Set printing progress to 22%
X-2.900
M161 ; Turn off dispensing
G805[50.080, 28.955, 2.870] ; Set G55 origin
G55
G00 Z18.400
X-2.900
M110=230 ; Set printing progress to 23%
Z0.500
M160 ; Turn on dispensing
G01 Y-2.900
M110=240 ; Set printing progress to 24%
X2.900
Y2.900
M110=250 ; Set printing progress to 25%
X-2.900
M161 ; Turn off dispensing

; ── Row B │ Sample 73 │ P=90kPa  F=12.0mm/s  T=29°C  Z=0.600mm ──
G805[50.080, 9.655, 2.870] ; Set G55 origin
G55
G00 Z18.400
Y2.900
M110=260 ; Set printing progress to 26%
M300=290 ; Set tool temperature to 29.0°C
M302 ; Wait for tool temperature
Z0.600
M160 ; Turn on dispensing
G01 Y-2.900
M110=270 ; Set printing progress to 27%
X2.900
Y2.900
M110=280 ; Set printing progress to 28%
X-2.900
M161 ; Turn off dispensing
G805[30.780, 9.655, 2.870] ; Set G55 origin
G55
G00 Z18.400
X2.900
M110=290 ; Set printing progress to 29%
Z0.600
M160 ; Turn on dispensing
G01 X-2.900
M110=300 ; Set printing progress to 30%
Y-2.900
M110=310 ; Set printing progress to 31%
X2.900
Y2.900
M110=320 ; Set printing progress to 32%
M161 ; Turn off dispensing
G805[11.480, 9.655, 2.870] ; Set G55 origin
G55
G00 Z18.400
X2.900
M110=330 ; Set printing progress to 33%
Z0.600
M160 ; Turn on dispensing
G01 X-2.900
M110=340 ; Set printing progress to 34%
Y-2.900
X2.900
M110=350 ; Set printing progress to 35%
Y2.900
M161 ; Turn off dispensing
G805[-7.820, 9.655, 2.870] ; Set G55 origin
G55
G00 Z18.400
M110=360 ; Set printing progress to 36%
X2.900
Z0.600
M110=370 ; Set printing progress to 37%
M160 ; Turn on dispensing
G01 X-2.900
Y-2.900
M110=380 ; Set printing progress to 38%
X2.900
M110=390 ; Set printing progress to 39%
Y2.900
M161 ; Turn off dispensing
G805[-27.120, 9.655, 2.870] ; Set G55 origin
G55
G00 Z18.400
M110=400 ; Set printing progress to 40%
X2.900
Z0.600
M110=410 ; Set printing progress to 41%
M160 ; Turn on dispensing
G01 X-2.900
Y-2.900
M110=420 ; Set printing progress to 42%
X2.900
Y2.900
M110=430 ; Set printing progress to 43%
M161 ; Turn off dispensing
G805[-46.420, 9.655, 2.870] ; Set G55 origin
G55
G00 Z18.400
X2.900
M110=440 ; Set printing progress to 44%
Z0.600
M160 ; Turn on dispensing
G01 X-2.900
M110=450 ; Set printing progress to 45%
Y-2.900
X2.900
M110=460 ; Set printing progress to 46%
Y2.900
M161 ; Turn off dispensing

; ── Row C │ Sample 74 │ P=70kPa  F=5.0mm/s  T=33°C  Z=0.500mm ──
G805[-46.420, -9.645, 2.870] ; Set G55 origin
G55
G00 Z18.400
M110=470 ; Set printing progress to 47%
Y2.900
M110=480 ; Set printing progress to 48%
M300=330 ; Set tool temperature to 33.0°C
M302 ; Wait for tool temperature
Z0.500
M160 ; Turn on dispensing
G01 X-2.900
M110=490 ; Set printing progress to 49%
Y-2.900
X2.900
M110=500 ; Set printing progress to 50%
Y2.900
M161 ; Turn off dispensing
G805[-27.120, -9.645, 2.870] ; Set G55 origin
G55
G00 Z18.400
M110=510 ; Set printing progress to 51%
X-2.900
Z0.500
M110=520 ; Set printing progress to 52%
M160 ; Turn on dispensing
G01 Y-2.900
X2.900
M110=530 ; Set printing progress to 53%
Y2.900
X-2.900
M161 ; Turn off dispensing
G805[-7.820, -9.645, 2.870] ; Set G55 origin
G55
G00 Z18.400
M110=540 ; Set printing progress to 54%
X-2.900
Z0.500
M110=550 ; Set printing progress to 55%
M160 ; Turn on dispensing
G01 Y-2.900
M110=560 ; Set printing progress to 56%
X2.900
Y2.900
M110=570 ; Set printing progress to 57%
X-2.900
M161 ; Turn off dispensing
G805[11.480, -9.645, 2.870] ; Set G55 origin
G55
G00 Z18.400
X-2.900
M110=580 ; Set printing progress to 58%
Z0.500
M160 ; Turn on dispensing
G01 Y-2.900
M110=590 ; Set printing progress to 59%
X2.900
Y2.900
M110=600 ; Set printing progress to 60%
X-2.900
M161 ; Turn off dispensing
G805[30.780, -9.645, 2.870] ; Set G55 origin
G55
G00 Z18.400
X-2.900
M110=610 ; Set printing progress to 61%
Z0.500
M160 ; Turn on dispensing
G01 Y-2.900
M110=620 ; Set printing progress to 62%
X2.900
Y2.900
M110=630 ; Set printing progress to 63%
X-2.900
M161 ; Turn off dispensing
G805[50.080, -9.645, 2.870] ; Set G55 origin
G55
G00 Z18.400
M110=640 ; Set printing progress to 64%
X-2.900
Z0.500
M110=650 ; Set printing progress to 65%
M160 ; Turn on dispensing
G01 Y-2.900
X2.900
M110=660 ; Set printing progress to 66%
Y2.900
X-2.900
M161 ; Turn off dispensing

; ── Row D │ Sample 75 │ P=100kPa  F=6.0mm/s  T=30°C  Z=0.400mm ──
G805[50.080, -28.945, 2.870] ; Set G55 origin
G55
G00 Z18.400
M110=670 ; Set printing progress to 67%
X2.900 Y2.900
M300=300 ; Set tool temperature to 30.0°C
M302 ; Wait for tool temperature
Z0.400
M110=680 ; Set printing progress to 68%
M160 ; Turn on dispensing
G01 X-2.900
Y-2.900
M110=690 ; Set printing progress to 69%
X2.900
Y2.900
M110=700 ; Set printing progress to 70%
M161 ; Turn off dispensing
G805[30.780, -28.945, 2.870] ; Set G55 origin
G55
G00 Z18.400
X2.900
M110=710 ; Set printing progress to 71%
Z0.400
M110=720 ; Set printing progress to 72%
M160 ; Turn on dispensing
G01 X-2.900
Y-2.900
M110=730 ; Set printing progress to 73%
X2.900
Y2.900
M110=740 ; Set printing progress to 74%
M161 ; Turn off dispensing
G805[11.480, -28.945, 2.870] ; Set G55 origin
G55
G00 Z18.400
X2.900
M110=750 ; Set printing progress to 75%
Z0.400
M160 ; Turn on dispensing
G01 X-2.900
M110=760 ; Set printing progress to 76%
Y-2.900
X2.900
M110=770 ; Set printing progress to 77%
Y2.900
M161 ; Turn off dispensing
G805[-7.820, -28.945, 2.870] ; Set G55 origin
G55
G00 Z18.400
M110=780 ; Set printing progress to 78%
X2.900
Z0.400
M110=790 ; Set printing progress to 79%
M160 ; Turn on dispensing
G01 X-2.900
M110=800 ; Set printing progress to 80%
Y-2.900
X2.900
M110=810 ; Set printing progress to 81%
Y2.900
M161 ; Turn off dispensing
G805[-27.120, -28.945, 2.870] ; Set G55 origin
G55
G00 Z18.400
M110=820 ; Set printing progress to 82%
X2.900
Z0.400
M110=830 ; Set printing progress to 83%
M160 ; Turn on dispensing
G01 X-2.900
Y-2.900
M110=840 ; Set printing progress to 84%
X2.900
Y2.900
M110=850 ; Set printing progress to 85%
M161 ; Turn off dispensing
G805[-46.420, -28.945, 2.870] ; Set G55 origin
G55
G00 Z18.400
X2.900
M110=860 ; Set printing progress to 86%
Z0.400
M160 ; Turn on dispensing
G01 X-2.900
M110=870 ; Set printing progress to 87%
Y-2.900
M110=880 ; Set printing progress to 88%
X2.900
Y2.900
M110=890 ; Set printing progress to 89%
M161 ; Turn off dispensing

#FLUSH WAIT

; ============================================================
; CAMERA IMAGING POSITIONS
; Wells: A1, A2, A3, A4, A5, A6, B1, B2, B3, B4, B5, B6, C1, C2, C3, C4, C5, C6, D1, D2, D3, D4, D5, D6
; Slot 1 selected (T1) to match coordinate frame of recorded
; positions. Camera physically mounted at slot 5.
; Z safe travel = 65.34 mm  |  Z imaging = 49.58 mm
; ============================================================

#FLUSH WAIT
#CONTOUR MODE OFF          ; Exit tracking mode from printing
#FLUSH WAIT

T1                         ; Select slot 1 (matches recorded coordinate frame)
G803                       ; Move to system safe height

; --- Well A1 ---
G00 G54 G90 Z65.340          ; Raise to safe Z first
G00 X-236.800 Y91.470              ; Move XY to A1 camera position
G00 Z49.580                ; Lower to imaging height
V.E.UserInteraction.Message = "Camera at A1 - trigger imaging, then click OK"
M121                       ; Pause for manual camera trigger

; --- Well A2 ---
G00 G54 G90 Z65.340          ; Raise to safe Z first
G00 X-217.136 Y91.470              ; Move XY to A2 camera position
G00 Z49.580                ; Lower to imaging height
V.E.UserInteraction.Message = "Camera at A2 - trigger imaging, then click OK"
M121                       ; Pause for manual camera trigger

; --- Well A3 ---
G00 G54 G90 Z65.340          ; Raise to safe Z first
G00 X-197.472 Y91.470              ; Move XY to A3 camera position
G00 Z49.580                ; Lower to imaging height
V.E.UserInteraction.Message = "Camera at A3 - trigger imaging, then click OK"
M121                       ; Pause for manual camera trigger

; --- Well A4 ---
G00 G54 G90 Z65.340          ; Raise to safe Z first
G00 X-177.808 Y91.470              ; Move XY to A4 camera position
G00 Z49.580                ; Lower to imaging height
V.E.UserInteraction.Message = "Camera at A4 - trigger imaging, then click OK"
M121                       ; Pause for manual camera trigger

; --- Well A5 ---
G00 G54 G90 Z65.340          ; Raise to safe Z first
G00 X-158.144 Y91.470              ; Move XY to A5 camera position
G00 Z49.580                ; Lower to imaging height
V.E.UserInteraction.Message = "Camera at A5 - trigger imaging, then click OK"
M121                       ; Pause for manual camera trigger

; --- Well A6 ---
G00 G54 G90 Z65.340          ; Raise to safe Z first
G00 X-138.480 Y91.470              ; Move XY to A6 camera position
G00 Z49.580                ; Lower to imaging height
V.E.UserInteraction.Message = "Camera at A6 - trigger imaging, then click OK"
M121                       ; Pause for manual camera trigger

; --- Well B1 ---
G00 G54 G90 Z65.340          ; Raise to safe Z first
G00 X-236.800 Y71.863              ; Move XY to B1 camera position
G00 Z49.580                ; Lower to imaging height
V.E.UserInteraction.Message = "Camera at B1 - trigger imaging, then click OK"
M121                       ; Pause for manual camera trigger

; --- Well B2 ---
G00 G54 G90 Z65.340          ; Raise to safe Z first
G00 X-217.136 Y71.863              ; Move XY to B2 camera position
G00 Z49.580                ; Lower to imaging height
V.E.UserInteraction.Message = "Camera at B2 - trigger imaging, then click OK"
M121                       ; Pause for manual camera trigger

; --- Well B3 ---
G00 G54 G90 Z65.340          ; Raise to safe Z first
G00 X-197.472 Y71.863              ; Move XY to B3 camera position
G00 Z49.580                ; Lower to imaging height
V.E.UserInteraction.Message = "Camera at B3 - trigger imaging, then click OK"
M121                       ; Pause for manual camera trigger

; --- Well B4 ---
G00 G54 G90 Z65.340          ; Raise to safe Z first
G00 X-177.808 Y71.863              ; Move XY to B4 camera position
G00 Z49.580                ; Lower to imaging height
V.E.UserInteraction.Message = "Camera at B4 - trigger imaging, then click OK"
M121                       ; Pause for manual camera trigger

; --- Well B5 ---
G00 G54 G90 Z65.340          ; Raise to safe Z first
G00 X-158.144 Y71.863              ; Move XY to B5 camera position
G00 Z49.580                ; Lower to imaging height
V.E.UserInteraction.Message = "Camera at B5 - trigger imaging, then click OK"
M121                       ; Pause for manual camera trigger

; --- Well B6 ---
G00 G54 G90 Z65.340          ; Raise to safe Z first
G00 X-138.480 Y71.863              ; Move XY to B6 camera position
G00 Z49.580                ; Lower to imaging height
V.E.UserInteraction.Message = "Camera at B6 - trigger imaging, then click OK"
M121                       ; Pause for manual camera trigger

; --- Well C1 ---
G00 G54 G90 Z65.340          ; Raise to safe Z first
G00 X-236.800 Y52.257              ; Move XY to C1 camera position
G00 Z49.580                ; Lower to imaging height
V.E.UserInteraction.Message = "Camera at C1 - trigger imaging, then click OK"
M121                       ; Pause for manual camera trigger

; --- Well C2 ---
G00 G54 G90 Z65.340          ; Raise to safe Z first
G00 X-217.136 Y52.257              ; Move XY to C2 camera position
G00 Z49.580                ; Lower to imaging height
V.E.UserInteraction.Message = "Camera at C2 - trigger imaging, then click OK"
M121                       ; Pause for manual camera trigger

; --- Well C3 ---
G00 G54 G90 Z65.340          ; Raise to safe Z first
G00 X-197.472 Y52.257              ; Move XY to C3 camera position
G00 Z49.580                ; Lower to imaging height
V.E.UserInteraction.Message = "Camera at C3 - trigger imaging, then click OK"
M121                       ; Pause for manual camera trigger

; --- Well C4 ---
G00 G54 G90 Z65.340          ; Raise to safe Z first
G00 X-177.808 Y52.257              ; Move XY to C4 camera position
G00 Z49.580                ; Lower to imaging height
V.E.UserInteraction.Message = "Camera at C4 - trigger imaging, then click OK"
M121                       ; Pause for manual camera trigger

; --- Well C5 ---
G00 G54 G90 Z65.340          ; Raise to safe Z first
G00 X-158.144 Y52.257              ; Move XY to C5 camera position
G00 Z49.580                ; Lower to imaging height
V.E.UserInteraction.Message = "Camera at C5 - trigger imaging, then click OK"
M121                       ; Pause for manual camera trigger

; --- Well C6 ---
G00 G54 G90 Z65.340          ; Raise to safe Z first
G00 X-138.480 Y52.257              ; Move XY to C6 camera position
G00 Z49.580                ; Lower to imaging height
V.E.UserInteraction.Message = "Camera at C6 - trigger imaging, then click OK"
M121                       ; Pause for manual camera trigger

; --- Well D1 ---
G00 G54 G90 Z65.340          ; Raise to safe Z first
G00 X-236.800 Y32.650              ; Move XY to D1 camera position
G00 Z49.580                ; Lower to imaging height
V.E.UserInteraction.Message = "Camera at D1 - trigger imaging, then click OK"
M121                       ; Pause for manual camera trigger

; --- Well D2 ---
G00 G54 G90 Z65.340          ; Raise to safe Z first
G00 X-217.136 Y32.650              ; Move XY to D2 camera position
G00 Z49.580                ; Lower to imaging height
V.E.UserInteraction.Message = "Camera at D2 - trigger imaging, then click OK"
M121                       ; Pause for manual camera trigger

; --- Well D3 ---
G00 G54 G90 Z65.340          ; Raise to safe Z first
G00 X-197.472 Y32.650              ; Move XY to D3 camera position
G00 Z49.580                ; Lower to imaging height
V.E.UserInteraction.Message = "Camera at D3 - trigger imaging, then click OK"
M121                       ; Pause for manual camera trigger

; --- Well D4 ---
G00 G54 G90 Z65.340          ; Raise to safe Z first
G00 X-177.808 Y32.650              ; Move XY to D4 camera position
G00 Z49.580                ; Lower to imaging height
V.E.UserInteraction.Message = "Camera at D4 - trigger imaging, then click OK"
M121                       ; Pause for manual camera trigger

; --- Well D5 ---
G00 G54 G90 Z65.340          ; Raise to safe Z first
G00 X-158.144 Y32.650              ; Move XY to D5 camera position
G00 Z49.580                ; Lower to imaging height
V.E.UserInteraction.Message = "Camera at D5 - trigger imaging, then click OK"
M121                       ; Pause for manual camera trigger

; --- Well D6 ---
G00 G54 G90 Z65.340          ; Raise to safe Z first
G00 X-138.480 Y32.650              ; Move XY to D6 camera position
G00 Z49.580                ; Lower to imaging height
V.E.UserInteraction.Message = "Camera at D6 - trigger imaging, then click OK"
M121                       ; Pause for manual camera trigger

; --- Return home ---
G00 G54 G90 Z65.340          ; Safe Z before going home
G800                       ; Go home
M110=1000
M30