% data_collection_48well_8cols_s96-s99_T35.nc
; Generated by generate_nc_files.py
; 48-well plate | 4 samples (columns)
; CSV: lhs_bioprint_samples_semicolon.csv
;
; Col   SampleID   P(kPa)     F(mm/s)    T(C)     Z(mm)   
; 1     96         90         10.0       35       0.7     
; 2     97         100        13.0       35       0.8     
; 3     98         110        6.0        35       0.5     
; 4     99         110        14.0       35       0.6     
;
; REGENHU
; http://www.regenhu.com/
; Translator 1.0.0.0
; Date 2026-04-13
; ESTIMATED_PRINTING_TIME 0:03:19.061356

; INITIALIZATION
T1
M200=900 ; Set pressure to 90kPa
T0
G803 ; Move to safe height
; INITIALIZATION

M110=0 ; Set printing progress to 0%
T1
G801 ; Measure tool

#CONTOUR MODE ON [DEV PATH_DEV=0.08]

M312 ; Wait for work zone temperature

; ── Col 1 | Sample 96 | P=90kPa  F=10.0mm/s  T=35C  Z=0.700mm ──
G805[-45.785, 32.720, 2.620] ; Set G55 origin
G55

; Changing tool to 'PSD 1'
#FLUSH WAIT
T1
G807[1, 0.002, 0.002] ; Enable time-based start (0.002) / stop (0.002) delays [s]
M200=900 ; Set pressure to 90.0kPa
F10.000
M300=350 ; Set tool temperature to 35.0C
M302 ; Wait for tool temperature
G00 G55 X-1.900 Y1.400
M151 ; Engage tool for printing
Z0.700
M110=40 ; Set printing progress to 4%
M160 ; Turn on dispensing
G01 Y-1.900
X-1.000
Y1.900
X0.000
Y-1.900
X1.000
Y1.900
M110=50 ; Set printing progress to 5%
X1.900
Y-1.400
M161 ; Turn off dispensing
G805[-45.785, 19.640, 2.620] ; Set G55 origin
G55
G00 Z18.400
X-1.900 Y1.400
Z0.700
M110=60 ; Set printing progress to 6%
M160 ; Turn on dispensing
G01 Y-1.900
X-1.000
Y1.900
X0.000
Y-1.900
X1.000
Y1.900
M110=70 ; Set printing progress to 7%
X1.900
Y-1.400
M161 ; Turn off dispensing
G805[-45.785, 6.560, 2.620] ; Set G55 origin
G55
G00 Z18.400
X-1.900 Y1.400
Z0.700
M110=80 ; Set printing progress to 8%
M160 ; Turn on dispensing
G01 Y-1.900
X-1.000
Y1.900
X0.000
Y-1.900
X1.000
Y1.900
M110=90 ; Set printing progress to 9%
X1.900
Y-1.400
M161 ; Turn off dispensing
G805[-45.785, -6.520, 2.620] ; Set G55 origin
G55
G00 Z18.400
X-1.900 Y1.400
Z0.700
M110=100 ; Set printing progress to 10%
M160 ; Turn on dispensing
G01 Y-1.900
X-1.000
Y1.900
X0.000
Y-1.900
X1.000
Y1.900
X1.900
M110=110 ; Set printing progress to 11%
Y-1.400
M161 ; Turn off dispensing
G805[-45.785, -19.600, 2.620] ; Set G55 origin
G55
G00 Z18.400
X-1.900 Y1.400
Z0.700
M110=120 ; Set printing progress to 12%
M160 ; Turn on dispensing
G01 Y-1.900
X-1.000
Y1.900
X0.000
Y-1.900
X1.000
Y1.900
X1.900
Y-1.400
M110=130 ; Set printing progress to 13%
M161 ; Turn off dispensing
G805[-45.785, -32.680, 2.620] ; Set G55 origin
G55
G00 Z18.400
X-1.900 Y1.400
Z0.700
M160 ; Turn on dispensing
G01 Y-1.900
M110=140 ; Set printing progress to 14%
X-1.000
Y1.900
X0.000
Y-1.900
X1.000
Y1.900
X1.900
Y-1.400
M110=150 ; Set printing progress to 15%
M161 ; Turn off dispensing

; ── Col 2 | Sample 97 | P=100kPa  F=13.0mm/s  T=35C  Z=0.800mm ──
G805[-32.705, -32.680, 2.620] ; Set G55 origin
G55
G00 Z18.400
X-1.900 Y1.400
M300=350 ; Set tool temperature to 35.0C
M302               ; Wait for tool temperature
Z0.800
M160 ; Turn on dispensing
G01 Y-1.900
M110=160 ; Set printing progress to 16%
X-1.000
Y1.900
X0.000
Y-1.900
X1.000
Y1.900
X1.900
Y-1.400
M110=170 ; Set printing progress to 17%
M161 ; Turn off dispensing
G805[-32.705, -19.600, 2.620] ; Set G55 origin
G55
G00 Z18.400
X-1.900 Y1.400
Z0.800
M160 ; Turn on dispensing
G01 Y-1.900
M110=180 ; Set printing progress to 18%
X-1.000
Y1.900
X0.000
Y-1.900
X1.000
Y1.900
X1.900
Y-1.400
M161 ; Turn off dispensing
G805[-32.705, -6.520, 2.620] ; Set G55 origin
G55
G00 Z18.400
M110=190 ; Set printing progress to 19%
X-1.900 Y1.400
Z0.800
M160 ; Turn on dispensing
G01 Y-1.900
M110=200 ; Set printing progress to 20%
X-1.000
Y1.900
X0.000
Y-1.900
X1.000
Y1.900
X1.900
Y-1.400
M161 ; Turn off dispensing
G805[-32.705, 6.560, 2.620] ; Set G55 origin
G55
G00 Z18.400
M110=210 ; Set printing progress to 21%
X-1.900 Y1.400
Z0.800
M160 ; Turn on dispensing
G01 Y-1.900
M110=220 ; Set printing progress to 22%
X-1.000
Y1.900
X0.000
Y-1.900
X1.000
Y1.900
X1.900
Y-1.400
M161 ; Turn off dispensing
G805[-32.705, 19.640, 2.620] ; Set G55 origin
G55
G00 Z18.400
M110=230 ; Set printing progress to 23%
X-1.900 Y1.400
Z0.800
M160 ; Turn on dispensing
G01 Y-1.900
M110=240 ; Set printing progress to 24%
X-1.000
Y1.900
X0.000
Y-1.900
X1.000
Y1.900
X1.900
Y-1.400
M161 ; Turn off dispensing
G805[-32.705, 32.720, 2.620] ; Set G55 origin
G55
G00 Z18.400
M110=250 ; Set printing progress to 25%
X-1.900 Y1.400
Z0.800
M160 ; Turn on dispensing
G01 Y-1.900
M110=260 ; Set printing progress to 26%
X-1.000
Y1.900
X0.000
Y-1.900
X1.000
Y1.900
X1.900
Y-1.400
M161 ; Turn off dispensing

; ── Col 3 | Sample 98 | P=110kPa  F=6.0mm/s  T=35C  Z=0.500mm ──
G805[-19.625, 32.720, 2.620] ; Set G55 origin
G55
G00 Z18.400
M110=270 ; Set printing progress to 27%
X-1.900 Y1.400
M300=350 ; Set tool temperature to 35.0C
M302               ; Wait for tool temperature
Z0.500
M160 ; Turn on dispensing
G01 Y-1.900
X-1.000
Y1.900
M110=280 ; Set printing progress to 28%
X0.000
Y-1.900
X1.000
Y1.900
X1.900
Y-1.400
M161 ; Turn off dispensing
G805[-19.625, 19.640, 2.620] ; Set G55 origin
G55
G00 Z18.400
M110=290 ; Set printing progress to 29%
X-1.900 Y1.400
Z0.500
M160 ; Turn on dispensing
G01 Y-1.900
X-1.000
Y1.900
M110=300 ; Set printing progress to 30%
X0.000
Y-1.900
X1.000
Y1.900
X1.900
Y-1.400
M161 ; Turn off dispensing
G805[-19.625, 6.560, 2.620] ; Set G55 origin
G55
G00 Z18.400
M110=310 ; Set printing progress to 31%
X-1.900 Y1.400
Z0.500
M160 ; Turn on dispensing
G01 Y-1.900
X-1.000
Y1.900
M110=320 ; Set printing progress to 32%
X0.000
Y-1.900
X1.000
Y1.900
X1.900
Y-1.400
M161 ; Turn off dispensing
G805[-19.625, -6.520, 2.620] ; Set G55 origin
G55
G00 Z18.400
M110=330 ; Set printing progress to 33%
X-1.900 Y1.400
Z0.500
M160 ; Turn on dispensing
G01 Y-1.900
X-1.000
Y1.900
M110=340 ; Set printing progress to 34%
X0.000
Y-1.900
X1.000
Y1.900
X1.900
Y-1.400
M161 ; Turn off dispensing
G805[-19.625, -19.600, 2.620] ; Set G55 origin
G55
G00 Z18.400
M110=350 ; Set printing progress to 35%
X-1.900 Y1.400
Z0.500
M160 ; Turn on dispensing
G01 Y-1.900
X-1.000
Y1.900
X0.000
Y-1.900
M110=360 ; Set printing progress to 36%
X1.000
Y1.900
X1.900
Y-1.400
M161 ; Turn off dispensing
G805[-19.625, -32.680, 2.620] ; Set G55 origin
G55
G00 Z18.400
X-1.900 Y1.400
M110=370 ; Set printing progress to 37%
Z0.500
M160 ; Turn on dispensing
G01 Y-1.900
X-1.000
Y1.900
X0.000
Y-1.900
M110=380 ; Set printing progress to 38%
X1.000
Y1.900
X1.900
Y-1.400
M161 ; Turn off dispensing

; ── Col 4 | Sample 99 | P=110kPa  F=14.0mm/s  T=35C  Z=0.600mm ──
G805[-6.545, -32.680, 2.620] ; Set G55 origin
G55
G00 Z18.400
X-1.900 Y1.400
M110=390 ; Set printing progress to 39%
M300=350 ; Set tool temperature to 35.0C
M302               ; Wait for tool temperature
Z0.600
M160 ; Turn on dispensing
G01 Y-1.900
X-1.000
Y1.900
X0.000
Y-1.900
M110=400 ; Set printing progress to 40%
X1.000
Y1.900
X1.900
Y-1.400
M161 ; Turn off dispensing
G805[-6.545, -19.600, 2.620] ; Set G55 origin
G55
G00 Z18.400
X-1.900 Y1.400
M110=410 ; Set printing progress to 41%
Z0.600
M160 ; Turn on dispensing
G01 Y-1.900
X-1.000
Y1.900
X0.000
Y-1.900
M110=420 ; Set printing progress to 42%
X1.000
Y1.900
X1.900
Y-1.400
M161 ; Turn off dispensing
G805[-6.545, -6.520, 2.620] ; Set G55 origin
G55
G00 Z18.400
X-1.900 Y1.400
M110=430 ; Set printing progress to 43%
Z0.600
M160 ; Turn on dispensing
G01 Y-1.900
X-1.000
Y1.900
X0.000
Y-1.900
M110=440 ; Set printing progress to 44%
X1.000
Y1.900
X1.900
Y-1.400
M161 ; Turn off dispensing
G805[-6.545, 6.560, 2.620] ; Set G55 origin
G55
G00 Z18.400
X-1.900 Y1.400
M110=450 ; Set printing progress to 45%
Z0.600
M160 ; Turn on dispensing
G01 Y-1.900
X-1.000
Y1.900
X0.000
Y-1.900
M110=460 ; Set printing progress to 46%
X1.000
Y1.900
X1.900
Y-1.400
M161 ; Turn off dispensing
G805[-6.545, 19.640, 2.620] ; Set G55 origin
G55
G00 Z18.400
X-1.900 Y1.400
M110=470 ; Set printing progress to 47%
Z0.600
M160 ; Turn on dispensing
G01 Y-1.900
X-1.000
Y1.900
X0.000
Y-1.900
M110=480 ; Set printing progress to 48%
X1.000
Y1.900
X1.900
Y-1.400
M161 ; Turn off dispensing
G805[-6.545, 32.720, 2.620] ; Set G55 origin
G55
G00 Z18.400
X-1.900 Y1.400
M110=490 ; Set printing progress to 49%
Z0.600
M160 ; Turn on dispensing
G01 Y-1.900
X-1.000
Y1.900
X0.000
Y-1.900
M110=500 ; Set printing progress to 50%
X1.000
Y1.900
X1.900
Y-1.400
M161 ; Turn off dispensing

#FLUSH WAIT

; ============================================================
; CAMERA IMAGING POSITIONS
; Wells: A1, B1, C1, D1, E1, F1, A2, B2, C2, D2, E2, F2, A3, B3, C3, D3, E3, F3, A4, B4, C4, D4, E4, F4
; Column-major order: col1 (A1-F1) -> col2 (A2-F2) -> ...
; Slot 1 selected (T1) — camera physically at slot 5.
; Z safe travel = 65.34 mm  |  Z imaging = 2.24 mm
; ============================================================

#FLUSH WAIT
#CONTOUR MODE OFF          ; Exit tracking mode from printing
#FLUSH WAIT

T1                         ; Select slot 1 (coordinate frame reference)
G803                       ; Move to system safe height

; --- Well A1 ---
G00 G54 G90 Z65.340          ; Raise to safe Z first
G00 X-234.090 Y95.780              ; Move XY to A1
G00 Z2.240                ; Lower to imaging height
V.E.UserInteraction.Message = "Camera at A1 - trigger imaging, then click OK"
M121                       ; Pause for manual camera trigger

; --- Well B1 ---
G00 G54 G90 Z65.340          ; Raise to safe Z first
G00 X-234.090 Y82.750              ; Move XY to B1
G00 Z2.240                ; Lower to imaging height
V.E.UserInteraction.Message = "Camera at B1 - trigger imaging, then click OK"
M121                       ; Pause for manual camera trigger

; --- Well C1 ---
G00 G54 G90 Z65.340          ; Raise to safe Z first
G00 X-234.090 Y69.720              ; Move XY to C1
G00 Z2.240                ; Lower to imaging height
V.E.UserInteraction.Message = "Camera at C1 - trigger imaging, then click OK"
M121                       ; Pause for manual camera trigger

; --- Well D1 ---
G00 G54 G90 Z65.340          ; Raise to safe Z first
G00 X-234.090 Y56.690              ; Move XY to D1
G00 Z2.240                ; Lower to imaging height
V.E.UserInteraction.Message = "Camera at D1 - trigger imaging, then click OK"
M121                       ; Pause for manual camera trigger

; --- Well E1 ---
G00 G54 G90 Z65.340          ; Raise to safe Z first
G00 X-234.090 Y43.660              ; Move XY to E1
G00 Z2.240                ; Lower to imaging height
V.E.UserInteraction.Message = "Camera at E1 - trigger imaging, then click OK"
M121                       ; Pause for manual camera trigger

; --- Well F1 ---
G00 G54 G90 Z65.340          ; Raise to safe Z first
G00 X-234.090 Y30.630              ; Move XY to F1
G00 Z2.240                ; Lower to imaging height
V.E.UserInteraction.Message = "Camera at F1 - trigger imaging, then click OK"
M121                       ; Pause for manual camera trigger

; --- Well A2 ---
G00 G54 G90 Z65.340          ; Raise to safe Z first
G00 X-221.099 Y95.780              ; Move XY to A2
G00 Z2.240                ; Lower to imaging height
V.E.UserInteraction.Message = "Camera at A2 - trigger imaging, then click OK"
M121                       ; Pause for manual camera trigger

; --- Well B2 ---
G00 G54 G90 Z65.340          ; Raise to safe Z first
G00 X-221.099 Y82.750              ; Move XY to B2
G00 Z2.240                ; Lower to imaging height
V.E.UserInteraction.Message = "Camera at B2 - trigger imaging, then click OK"
M121                       ; Pause for manual camera trigger

; --- Well C2 ---
G00 G54 G90 Z65.340          ; Raise to safe Z first
G00 X-221.099 Y69.720              ; Move XY to C2
G00 Z2.240                ; Lower to imaging height
V.E.UserInteraction.Message = "Camera at C2 - trigger imaging, then click OK"
M121                       ; Pause for manual camera trigger

; --- Well D2 ---
G00 G54 G90 Z65.340          ; Raise to safe Z first
G00 X-221.099 Y56.690              ; Move XY to D2
G00 Z2.240                ; Lower to imaging height
V.E.UserInteraction.Message = "Camera at D2 - trigger imaging, then click OK"
M121                       ; Pause for manual camera trigger

; --- Well E2 ---
G00 G54 G90 Z65.340          ; Raise to safe Z first
G00 X-221.099 Y43.660              ; Move XY to E2
G00 Z2.240                ; Lower to imaging height
V.E.UserInteraction.Message = "Camera at E2 - trigger imaging, then click OK"
M121                       ; Pause for manual camera trigger

; --- Well F2 ---
G00 G54 G90 Z65.340          ; Raise to safe Z first
G00 X-221.099 Y30.630              ; Move XY to F2
G00 Z2.240                ; Lower to imaging height
V.E.UserInteraction.Message = "Camera at F2 - trigger imaging, then click OK"
M121                       ; Pause for manual camera trigger

; --- Well A3 ---
G00 G54 G90 Z65.340          ; Raise to safe Z first
G00 X-208.107 Y95.780              ; Move XY to A3
G00 Z2.240                ; Lower to imaging height
V.E.UserInteraction.Message = "Camera at A3 - trigger imaging, then click OK"
M121                       ; Pause for manual camera trigger

; --- Well B3 ---
G00 G54 G90 Z65.340          ; Raise to safe Z first
G00 X-208.107 Y82.750              ; Move XY to B3
G00 Z2.240                ; Lower to imaging height
V.E.UserInteraction.Message = "Camera at B3 - trigger imaging, then click OK"
M121                       ; Pause for manual camera trigger

; --- Well C3 ---
G00 G54 G90 Z65.340          ; Raise to safe Z first
G00 X-208.107 Y69.720              ; Move XY to C3
G00 Z2.240                ; Lower to imaging height
V.E.UserInteraction.Message = "Camera at C3 - trigger imaging, then click OK"
M121                       ; Pause for manual camera trigger

; --- Well D3 ---
G00 G54 G90 Z65.340          ; Raise to safe Z first
G00 X-208.107 Y56.690              ; Move XY to D3
G00 Z2.240                ; Lower to imaging height
V.E.UserInteraction.Message = "Camera at D3 - trigger imaging, then click OK"
M121                       ; Pause for manual camera trigger

; --- Well E3 ---
G00 G54 G90 Z65.340          ; Raise to safe Z first
G00 X-208.107 Y43.660              ; Move XY to E3
G00 Z2.240                ; Lower to imaging height
V.E.UserInteraction.Message = "Camera at E3 - trigger imaging, then click OK"
M121                       ; Pause for manual camera trigger

; --- Well F3 ---
G00 G54 G90 Z65.340          ; Raise to safe Z first
G00 X-208.107 Y30.630              ; Move XY to F3
G00 Z2.240                ; Lower to imaging height
V.E.UserInteraction.Message = "Camera at F3 - trigger imaging, then click OK"
M121                       ; Pause for manual camera trigger

; --- Well A4 ---
G00 G54 G90 Z65.340          ; Raise to safe Z first
G00 X-195.116 Y95.780              ; Move XY to A4
G00 Z2.240                ; Lower to imaging height
V.E.UserInteraction.Message = "Camera at A4 - trigger imaging, then click OK"
M121                       ; Pause for manual camera trigger

; --- Well B4 ---
G00 G54 G90 Z65.340          ; Raise to safe Z first
G00 X-195.116 Y82.750              ; Move XY to B4
G00 Z2.240                ; Lower to imaging height
V.E.UserInteraction.Message = "Camera at B4 - trigger imaging, then click OK"
M121                       ; Pause for manual camera trigger

; --- Well C4 ---
G00 G54 G90 Z65.340          ; Raise to safe Z first
G00 X-195.116 Y69.720              ; Move XY to C4
G00 Z2.240                ; Lower to imaging height
V.E.UserInteraction.Message = "Camera at C4 - trigger imaging, then click OK"
M121                       ; Pause for manual camera trigger

; --- Well D4 ---
G00 G54 G90 Z65.340          ; Raise to safe Z first
G00 X-195.116 Y56.690              ; Move XY to D4
G00 Z2.240                ; Lower to imaging height
V.E.UserInteraction.Message = "Camera at D4 - trigger imaging, then click OK"
M121                       ; Pause for manual camera trigger

; --- Well E4 ---
G00 G54 G90 Z65.340          ; Raise to safe Z first
G00 X-195.116 Y43.660              ; Move XY to E4
G00 Z2.240                ; Lower to imaging height
V.E.UserInteraction.Message = "Camera at E4 - trigger imaging, then click OK"
M121                       ; Pause for manual camera trigger

; --- Well F4 ---
G00 G54 G90 Z65.340          ; Raise to safe Z first
G00 X-195.116 Y30.630              ; Move XY to F4
G00 Z2.240                ; Lower to imaging height
V.E.UserInteraction.Message = "Camera at F4 - trigger imaging, then click OK"
M121                       ; Pause for manual camera trigger

; --- Return home ---
G00 G54 G90 Z65.340          ; Safe Z before going home
G800                       ; Go home
M110=1000
M30