% data_collection_48well_8cols_s4-s53.nc
; Generated by generate_nc_files.py
; Geometry: 2D cross-hatch grid | 4+4 strands | 3x3 open pores | single layer
; CSV: lhs_bioprint_samples_semicolon.csv
; Temperature: set manually in Architect UI (not in G-code)
;
; Col   SampleID   P(kPa)     F(mm/s)    Z(mm)   
; 1     4          65         12.0       0.5     
; 2     11         70         10.0       0.6     
; 3     18         80         10.0       0.8     
; 4     25         85         8.0        0.5     
; 5     32         90         12.0       0.6     
; 6     39         95         9.0        0.8     
; 7     46         105        5.0        0.6     
; 8     53         110        13.0       0.4     
;
; REGENHU
; http://www.regenhu.com/
; Translator 1.0.0.0
; Date 2026-04-13
; ESTIMATED_PRINTING_TIME 0:03:19.061356

; INITIALIZATION
T1
M200=650 ; Set pressure to 65kPa
T0
G803 ; Move to safe height
; INITIALIZATION

M110=0 ; Set printing progress to 0%
T1
G801 ; Measure tool

#CONTOUR MODE ON [DEV PATH_DEV=0.08]

M312 ; Wait for work zone temperature

; -- Col 1 | Sample 4 | P=65kPa  F=12.0mm/s  Z=0.500mm --
G805[-45.785, 32.720, 2.620] ; G55 origin: A1
G55

; Changing tool to 'PSD 1'
#FLUSH WAIT
T1
G807[1, 0.002, 0.002] ; time-based start/stop delays [s]
M200=650 ; pressure 65kPa
F12.000
M110=40
G00 G55 X-3.000 Y-2.250
M151 ; Engage tool for printing
Z0.500
; -- Pass 1: horizontal (X) strands --
G00 X-3.000 Y-2.250
M160
G01 X3.000
M161
G00 X3.000 Y-0.750
M160
G01 X-3.000
M161
G00 X-3.000 Y0.750
M160
G01 X3.000
M161
G00 X3.000 Y2.250
M160
G01 X-3.000
M161
; -- Pass 2: vertical (Y) strands --
G00 X-2.250 Y-3.000
M160
G01 Y3.000
M161
G00 X-0.750 Y3.000
M160
G01 Y-3.000
M161
G00 X0.750 Y-3.000
M160
G01 Y3.000
M161
G00 X2.250 Y3.000
M160
G01 Y-3.000
M161
G805[-45.785, 19.640, 2.620] ; G55 origin: B1
G55
G00 Z18.400
M200=650
F12.000
M110=50
G00 G55 X-3.000 Y-2.250
Z0.500
; -- Pass 1: horizontal (X) strands --
G00 X-3.000 Y-2.250
M160
G01 X3.000
M161
G00 X3.000 Y-0.750
M160
G01 X-3.000
M161
G00 X-3.000 Y0.750
M160
G01 X3.000
M161
G00 X3.000 Y2.250
M160
G01 X-3.000
M161
; -- Pass 2: vertical (Y) strands --
G00 X-2.250 Y-3.000
M160
G01 Y3.000
M161
G00 X-0.750 Y3.000
M160
G01 Y-3.000
M161
G00 X0.750 Y-3.000
M160
G01 Y3.000
M161
G00 X2.250 Y3.000
M160
G01 Y-3.000
M161
G805[-45.785, 6.560, 2.620] ; G55 origin: C1
G55
G00 Z18.400
M200=650
F12.000
M110=60
G00 G55 X-3.000 Y-2.250
Z0.500
; -- Pass 1: horizontal (X) strands --
G00 X-3.000 Y-2.250
M160
G01 X3.000
M161
G00 X3.000 Y-0.750
M160
G01 X-3.000
M161
G00 X-3.000 Y0.750
M160
G01 X3.000
M161
G00 X3.000 Y2.250
M160
G01 X-3.000
M161
; -- Pass 2: vertical (Y) strands --
G00 X-2.250 Y-3.000
M160
G01 Y3.000
M161
G00 X-0.750 Y3.000
M160
G01 Y-3.000
M161
G00 X0.750 Y-3.000
M160
G01 Y3.000
M161
G00 X2.250 Y3.000
M160
G01 Y-3.000
M161
G805[-45.785, -6.520, 2.620] ; G55 origin: D1
G55
G00 Z18.400
M200=650
F12.000
M110=70
G00 G55 X-3.000 Y-2.250
Z0.500
; -- Pass 1: horizontal (X) strands --
G00 X-3.000 Y-2.250
M160
G01 X3.000
M161
G00 X3.000 Y-0.750
M160
G01 X-3.000
M161
G00 X-3.000 Y0.750
M160
G01 X3.000
M161
G00 X3.000 Y2.250
M160
G01 X-3.000
M161
; -- Pass 2: vertical (Y) strands --
G00 X-2.250 Y-3.000
M160
G01 Y3.000
M161
G00 X-0.750 Y3.000
M160
G01 Y-3.000
M161
G00 X0.750 Y-3.000
M160
G01 Y3.000
M161
G00 X2.250 Y3.000
M160
G01 Y-3.000
M161
G805[-45.785, -19.600, 2.620] ; G55 origin: E1
G55
G00 Z18.400
M200=650
F12.000
M110=80
G00 G55 X-3.000 Y-2.250
Z0.500
; -- Pass 1: horizontal (X) strands --
G00 X-3.000 Y-2.250
M160
G01 X3.000
M161
G00 X3.000 Y-0.750
M160
G01 X-3.000
M161
G00 X-3.000 Y0.750
M160
G01 X3.000
M161
G00 X3.000 Y2.250
M160
G01 X-3.000
M161
; -- Pass 2: vertical (Y) strands --
G00 X-2.250 Y-3.000
M160
G01 Y3.000
M161
G00 X-0.750 Y3.000
M160
G01 Y-3.000
M161
G00 X0.750 Y-3.000
M160
G01 Y3.000
M161
G00 X2.250 Y3.000
M160
G01 Y-3.000
M161
G805[-45.785, -32.680, 2.620] ; G55 origin: F1
G55
G00 Z18.400
M200=650
F12.000
M110=90
G00 G55 X-3.000 Y-2.250
Z0.500
; -- Pass 1: horizontal (X) strands --
G00 X-3.000 Y-2.250
M160
G01 X3.000
M161
G00 X3.000 Y-0.750
M160
G01 X-3.000
M161
G00 X-3.000 Y0.750
M160
G01 X3.000
M161
G00 X3.000 Y2.250
M160
G01 X-3.000
M161
; -- Pass 2: vertical (Y) strands --
G00 X-2.250 Y-3.000
M160
G01 Y3.000
M161
G00 X-0.750 Y3.000
M160
G01 Y-3.000
M161
G00 X0.750 Y-3.000
M160
G01 Y3.000
M161
G00 X2.250 Y3.000
M160
G01 Y-3.000
M161
G00 Z18.400 ; lift to safe Z after column

; -- Col 2 | Sample 11 | P=70kPa  F=10.0mm/s  Z=0.600mm --
G805[-32.705, 32.720, 2.620] ; G55 origin: A2
G55

; Changing tool to 'PSD 1'
#FLUSH WAIT
T1
G807[1, 0.002, 0.002] ; time-based start/stop delays [s]
M200=700 ; pressure 70kPa
F10.000
M110=50
G00 G55 X-3.000 Y-2.250
M151 ; Engage tool for printing
Z0.600
; -- Pass 1: horizontal (X) strands --
G00 X-3.000 Y-2.250
M160
G01 X3.000
M161
G00 X3.000 Y-0.750
M160
G01 X-3.000
M161
G00 X-3.000 Y0.750
M160
G01 X3.000
M161
G00 X3.000 Y2.250
M160
G01 X-3.000
M161
; -- Pass 2: vertical (Y) strands --
G00 X-2.250 Y-3.000
M160
G01 Y3.000
M161
G00 X-0.750 Y3.000
M160
G01 Y-3.000
M161
G00 X0.750 Y-3.000
M160
G01 Y3.000
M161
G00 X2.250 Y3.000
M160
G01 Y-3.000
M161
G805[-32.705, 19.640, 2.620] ; G55 origin: B2
G55
G00 Z18.400
M200=700
F10.000
M110=60
G00 G55 X-3.000 Y-2.250
Z0.600
; -- Pass 1: horizontal (X) strands --
G00 X-3.000 Y-2.250
M160
G01 X3.000
M161
G00 X3.000 Y-0.750
M160
G01 X-3.000
M161
G00 X-3.000 Y0.750
M160
G01 X3.000
M161
G00 X3.000 Y2.250
M160
G01 X-3.000
M161
; -- Pass 2: vertical (Y) strands --
G00 X-2.250 Y-3.000
M160
G01 Y3.000
M161
G00 X-0.750 Y3.000
M160
G01 Y-3.000
M161
G00 X0.750 Y-3.000
M160
G01 Y3.000
M161
G00 X2.250 Y3.000
M160
G01 Y-3.000
M161
G805[-32.705, 6.560, 2.620] ; G55 origin: C2
G55
G00 Z18.400
M200=700
F10.000
M110=70
G00 G55 X-3.000 Y-2.250
Z0.600
; -- Pass 1: horizontal (X) strands --
G00 X-3.000 Y-2.250
M160
G01 X3.000
M161
G00 X3.000 Y-0.750
M160
G01 X-3.000
M161
G00 X-3.000 Y0.750
M160
G01 X3.000
M161
G00 X3.000 Y2.250
M160
G01 X-3.000
M161
; -- Pass 2: vertical (Y) strands --
G00 X-2.250 Y-3.000
M160
G01 Y3.000
M161
G00 X-0.750 Y3.000
M160
G01 Y-3.000
M161
G00 X0.750 Y-3.000
M160
G01 Y3.000
M161
G00 X2.250 Y3.000
M160
G01 Y-3.000
M161
G805[-32.705, -6.520, 2.620] ; G55 origin: D2
G55
G00 Z18.400
M200=700
F10.000
M110=80
G00 G55 X-3.000 Y-2.250
Z0.600
; -- Pass 1: horizontal (X) strands --
G00 X-3.000 Y-2.250
M160
G01 X3.000
M161
G00 X3.000 Y-0.750
M160
G01 X-3.000
M161
G00 X-3.000 Y0.750
M160
G01 X3.000
M161
G00 X3.000 Y2.250
M160
G01 X-3.000
M161
; -- Pass 2: vertical (Y) strands --
G00 X-2.250 Y-3.000
M160
G01 Y3.000
M161
G00 X-0.750 Y3.000
M160
G01 Y-3.000
M161
G00 X0.750 Y-3.000
M160
G01 Y3.000
M161
G00 X2.250 Y3.000
M160
G01 Y-3.000
M161
G805[-32.705, -19.600, 2.620] ; G55 origin: E2
G55
G00 Z18.400
M200=700
F10.000
M110=90
G00 G55 X-3.000 Y-2.250
Z0.600
; -- Pass 1: horizontal (X) strands --
G00 X-3.000 Y-2.250
M160
G01 X3.000
M161
G00 X3.000 Y-0.750
M160
G01 X-3.000
M161
G00 X-3.000 Y0.750
M160
G01 X3.000
M161
G00 X3.000 Y2.250
M160
G01 X-3.000
M161
; -- Pass 2: vertical (Y) strands --
G00 X-2.250 Y-3.000
M160
G01 Y3.000
M161
G00 X-0.750 Y3.000
M160
G01 Y-3.000
M161
G00 X0.750 Y-3.000
M160
G01 Y3.000
M161
G00 X2.250 Y3.000
M160
G01 Y-3.000
M161
G805[-32.705, -32.680, 2.620] ; G55 origin: F2
G55
G00 Z18.400
M200=700
F10.000
M110=100
G00 G55 X-3.000 Y-2.250
Z0.600
; -- Pass 1: horizontal (X) strands --
G00 X-3.000 Y-2.250
M160
G01 X3.000
M161
G00 X3.000 Y-0.750
M160
G01 X-3.000
M161
G00 X-3.000 Y0.750
M160
G01 X3.000
M161
G00 X3.000 Y2.250
M160
G01 X-3.000
M161
; -- Pass 2: vertical (Y) strands --
G00 X-2.250 Y-3.000
M160
G01 Y3.000
M161
G00 X-0.750 Y3.000
M160
G01 Y-3.000
M161
G00 X0.750 Y-3.000
M160
G01 Y3.000
M161
G00 X2.250 Y3.000
M160
G01 Y-3.000
M161
G00 Z18.400 ; lift to safe Z after column

; -- Col 3 | Sample 18 | P=80kPa  F=10.0mm/s  Z=0.800mm --
G805[-19.625, 32.720, 2.620] ; G55 origin: A3
G55

; Changing tool to 'PSD 1'
#FLUSH WAIT
T1
G807[1, 0.002, 0.002] ; time-based start/stop delays [s]
M200=800 ; pressure 80kPa
F10.000
M110=60
G00 G55 X-3.000 Y-2.250
M151 ; Engage tool for printing
Z0.800
; -- Pass 1: horizontal (X) strands --
G00 X-3.000 Y-2.250
M160
G01 X3.000
M161
G00 X3.000 Y-0.750
M160
G01 X-3.000
M161
G00 X-3.000 Y0.750
M160
G01 X3.000
M161
G00 X3.000 Y2.250
M160
G01 X-3.000
M161
; -- Pass 2: vertical (Y) strands --
G00 X-2.250 Y-3.000
M160
G01 Y3.000
M161
G00 X-0.750 Y3.000
M160
G01 Y-3.000
M161
G00 X0.750 Y-3.000
M160
G01 Y3.000
M161
G00 X2.250 Y3.000
M160
G01 Y-3.000
M161
G805[-19.625, 19.640, 2.620] ; G55 origin: B3
G55
G00 Z18.400
M200=800
F10.000
M110=70
G00 G55 X-3.000 Y-2.250
Z0.800
; -- Pass 1: horizontal (X) strands --
G00 X-3.000 Y-2.250
M160
G01 X3.000
M161
G00 X3.000 Y-0.750
M160
G01 X-3.000
M161
G00 X-3.000 Y0.750
M160
G01 X3.000
M161
G00 X3.000 Y2.250
M160
G01 X-3.000
M161
; -- Pass 2: vertical (Y) strands --
G00 X-2.250 Y-3.000
M160
G01 Y3.000
M161
G00 X-0.750 Y3.000
M160
G01 Y-3.000
M161
G00 X0.750 Y-3.000
M160
G01 Y3.000
M161
G00 X2.250 Y3.000
M160
G01 Y-3.000
M161
G805[-19.625, 6.560, 2.620] ; G55 origin: C3
G55
G00 Z18.400
M200=800
F10.000
M110=80
G00 G55 X-3.000 Y-2.250
Z0.800
; -- Pass 1: horizontal (X) strands --
G00 X-3.000 Y-2.250
M160
G01 X3.000
M161
G00 X3.000 Y-0.750
M160
G01 X-3.000
M161
G00 X-3.000 Y0.750
M160
G01 X3.000
M161
G00 X3.000 Y2.250
M160
G01 X-3.000
M161
; -- Pass 2: vertical (Y) strands --
G00 X-2.250 Y-3.000
M160
G01 Y3.000
M161
G00 X-0.750 Y3.000
M160
G01 Y-3.000
M161
G00 X0.750 Y-3.000
M160
G01 Y3.000
M161
G00 X2.250 Y3.000
M160
G01 Y-3.000
M161
G805[-19.625, -6.520, 2.620] ; G55 origin: D3
G55
G00 Z18.400
M200=800
F10.000
M110=90
G00 G55 X-3.000 Y-2.250
Z0.800
; -- Pass 1: horizontal (X) strands --
G00 X-3.000 Y-2.250
M160
G01 X3.000
M161
G00 X3.000 Y-0.750
M160
G01 X-3.000
M161
G00 X-3.000 Y0.750
M160
G01 X3.000
M161
G00 X3.000 Y2.250
M160
G01 X-3.000
M161
; -- Pass 2: vertical (Y) strands --
G00 X-2.250 Y-3.000
M160
G01 Y3.000
M161
G00 X-0.750 Y3.000
M160
G01 Y-3.000
M161
G00 X0.750 Y-3.000
M160
G01 Y3.000
M161
G00 X2.250 Y3.000
M160
G01 Y-3.000
M161
G805[-19.625, -19.600, 2.620] ; G55 origin: E3
G55
G00 Z18.400
M200=800
F10.000
M110=100
G00 G55 X-3.000 Y-2.250
Z0.800
; -- Pass 1: horizontal (X) strands --
G00 X-3.000 Y-2.250
M160
G01 X3.000
M161
G00 X3.000 Y-0.750
M160
G01 X-3.000
M161
G00 X-3.000 Y0.750
M160
G01 X3.000
M161
G00 X3.000 Y2.250
M160
G01 X-3.000
M161
; -- Pass 2: vertical (Y) strands --
G00 X-2.250 Y-3.000
M160
G01 Y3.000
M161
G00 X-0.750 Y3.000
M160
G01 Y-3.000
M161
G00 X0.750 Y-3.000
M160
G01 Y3.000
M161
G00 X2.250 Y3.000
M160
G01 Y-3.000
M161
G805[-19.625, -32.680, 2.620] ; G55 origin: F3
G55
G00 Z18.400
M200=800
F10.000
M110=110
G00 G55 X-3.000 Y-2.250
Z0.800
; -- Pass 1: horizontal (X) strands --
G00 X-3.000 Y-2.250
M160
G01 X3.000
M161
G00 X3.000 Y-0.750
M160
G01 X-3.000
M161
G00 X-3.000 Y0.750
M160
G01 X3.000
M161
G00 X3.000 Y2.250
M160
G01 X-3.000
M161
; -- Pass 2: vertical (Y) strands --
G00 X-2.250 Y-3.000
M160
G01 Y3.000
M161
G00 X-0.750 Y3.000
M160
G01 Y-3.000
M161
G00 X0.750 Y-3.000
M160
G01 Y3.000
M161
G00 X2.250 Y3.000
M160
G01 Y-3.000
M161
G00 Z18.400 ; lift to safe Z after column

; -- Col 4 | Sample 25 | P=85kPa  F=8.0mm/s  Z=0.500mm --
G805[-6.545, 32.720, 2.620] ; G55 origin: A4
G55

; Changing tool to 'PSD 1'
#FLUSH WAIT
T1
G807[1, 0.002, 0.002] ; time-based start/stop delays [s]
M200=850 ; pressure 85kPa
F8.000
M110=70
G00 G55 X-3.000 Y-2.250
M151 ; Engage tool for printing
Z0.500
; -- Pass 1: horizontal (X) strands --
G00 X-3.000 Y-2.250
M160
G01 X3.000
M161
G00 X3.000 Y-0.750
M160
G01 X-3.000
M161
G00 X-3.000 Y0.750
M160
G01 X3.000
M161
G00 X3.000 Y2.250
M160
G01 X-3.000
M161
; -- Pass 2: vertical (Y) strands --
G00 X-2.250 Y-3.000
M160
G01 Y3.000
M161
G00 X-0.750 Y3.000
M160
G01 Y-3.000
M161
G00 X0.750 Y-3.000
M160
G01 Y3.000
M161
G00 X2.250 Y3.000
M160
G01 Y-3.000
M161
G805[-6.545, 19.640, 2.620] ; G55 origin: B4
G55
G00 Z18.400
M200=850
F8.000
M110=80
G00 G55 X-3.000 Y-2.250
Z0.500
; -- Pass 1: horizontal (X) strands --
G00 X-3.000 Y-2.250
M160
G01 X3.000
M161
G00 X3.000 Y-0.750
M160
G01 X-3.000
M161
G00 X-3.000 Y0.750
M160
G01 X3.000
M161
G00 X3.000 Y2.250
M160
G01 X-3.000
M161
; -- Pass 2: vertical (Y) strands --
G00 X-2.250 Y-3.000
M160
G01 Y3.000
M161
G00 X-0.750 Y3.000
M160
G01 Y-3.000
M161
G00 X0.750 Y-3.000
M160
G01 Y3.000
M161
G00 X2.250 Y3.000
M160
G01 Y-3.000
M161
G805[-6.545, 6.560, 2.620] ; G55 origin: C4
G55
G00 Z18.400
M200=850
F8.000
M110=90
G00 G55 X-3.000 Y-2.250
Z0.500
; -- Pass 1: horizontal (X) strands --
G00 X-3.000 Y-2.250
M160
G01 X3.000
M161
G00 X3.000 Y-0.750
M160
G01 X-3.000
M161
G00 X-3.000 Y0.750
M160
G01 X3.000
M161
G00 X3.000 Y2.250
M160
G01 X-3.000
M161
; -- Pass 2: vertical (Y) strands --
G00 X-2.250 Y-3.000
M160
G01 Y3.000
M161
G00 X-0.750 Y3.000
M160
G01 Y-3.000
M161
G00 X0.750 Y-3.000
M160
G01 Y3.000
M161
G00 X2.250 Y3.000
M160
G01 Y-3.000
M161
G805[-6.545, -6.520, 2.620] ; G55 origin: D4
G55
G00 Z18.400
M200=850
F8.000
M110=100
G00 G55 X-3.000 Y-2.250
Z0.500
; -- Pass 1: horizontal (X) strands --
G00 X-3.000 Y-2.250
M160
G01 X3.000
M161
G00 X3.000 Y-0.750
M160
G01 X-3.000
M161
G00 X-3.000 Y0.750
M160
G01 X3.000
M161
G00 X3.000 Y2.250
M160
G01 X-3.000
M161
; -- Pass 2: vertical (Y) strands --
G00 X-2.250 Y-3.000
M160
G01 Y3.000
M161
G00 X-0.750 Y3.000
M160
G01 Y-3.000
M161
G00 X0.750 Y-3.000
M160
G01 Y3.000
M161
G00 X2.250 Y3.000
M160
G01 Y-3.000
M161
G805[-6.545, -19.600, 2.620] ; G55 origin: E4
G55
G00 Z18.400
M200=850
F8.000
M110=110
G00 G55 X-3.000 Y-2.250
Z0.500
; -- Pass 1: horizontal (X) strands --
G00 X-3.000 Y-2.250
M160
G01 X3.000
M161
G00 X3.000 Y-0.750
M160
G01 X-3.000
M161
G00 X-3.000 Y0.750
M160
G01 X3.000
M161
G00 X3.000 Y2.250
M160
G01 X-3.000
M161
; -- Pass 2: vertical (Y) strands --
G00 X-2.250 Y-3.000
M160
G01 Y3.000
M161
G00 X-0.750 Y3.000
M160
G01 Y-3.000
M161
G00 X0.750 Y-3.000
M160
G01 Y3.000
M161
G00 X2.250 Y3.000
M160
G01 Y-3.000
M161
G805[-6.545, -32.680, 2.620] ; G55 origin: F4
G55
G00 Z18.400
M200=850
F8.000
M110=120
G00 G55 X-3.000 Y-2.250
Z0.500
; -- Pass 1: horizontal (X) strands --
G00 X-3.000 Y-2.250
M160
G01 X3.000
M161
G00 X3.000 Y-0.750
M160
G01 X-3.000
M161
G00 X-3.000 Y0.750
M160
G01 X3.000
M161
G00 X3.000 Y2.250
M160
G01 X-3.000
M161
; -- Pass 2: vertical (Y) strands --
G00 X-2.250 Y-3.000
M160
G01 Y3.000
M161
G00 X-0.750 Y3.000
M160
G01 Y-3.000
M161
G00 X0.750 Y-3.000
M160
G01 Y3.000
M161
G00 X2.250 Y3.000
M160
G01 Y-3.000
M161
G00 Z18.400 ; lift to safe Z after column

; -- Col 5 | Sample 32 | P=90kPa  F=12.0mm/s  Z=0.600mm --
G805[6.535, 32.720, 2.620] ; G55 origin: A5
G55

; Changing tool to 'PSD 1'
#FLUSH WAIT
T1
G807[1, 0.002, 0.002] ; time-based start/stop delays [s]
M200=900 ; pressure 90kPa
F12.000
M110=80
G00 G55 X-3.000 Y-2.250
M151 ; Engage tool for printing
Z0.600
; -- Pass 1: horizontal (X) strands --
G00 X-3.000 Y-2.250
M160
G01 X3.000
M161
G00 X3.000 Y-0.750
M160
G01 X-3.000
M161
G00 X-3.000 Y0.750
M160
G01 X3.000
M161
G00 X3.000 Y2.250
M160
G01 X-3.000
M161
; -- Pass 2: vertical (Y) strands --
G00 X-2.250 Y-3.000
M160
G01 Y3.000
M161
G00 X-0.750 Y3.000
M160
G01 Y-3.000
M161
G00 X0.750 Y-3.000
M160
G01 Y3.000
M161
G00 X2.250 Y3.000
M160
G01 Y-3.000
M161
G805[6.535, 19.640, 2.620] ; G55 origin: B5
G55
G00 Z18.400
M200=900
F12.000
M110=90
G00 G55 X-3.000 Y-2.250
Z0.600
; -- Pass 1: horizontal (X) strands --
G00 X-3.000 Y-2.250
M160
G01 X3.000
M161
G00 X3.000 Y-0.750
M160
G01 X-3.000
M161
G00 X-3.000 Y0.750
M160
G01 X3.000
M161
G00 X3.000 Y2.250
M160
G01 X-3.000
M161
; -- Pass 2: vertical (Y) strands --
G00 X-2.250 Y-3.000
M160
G01 Y3.000
M161
G00 X-0.750 Y3.000
M160
G01 Y-3.000
M161
G00 X0.750 Y-3.000
M160
G01 Y3.000
M161
G00 X2.250 Y3.000
M160
G01 Y-3.000
M161
G805[6.535, 6.560, 2.620] ; G55 origin: C5
G55
G00 Z18.400
M200=900
F12.000
M110=100
G00 G55 X-3.000 Y-2.250
Z0.600
; -- Pass 1: horizontal (X) strands --
G00 X-3.000 Y-2.250
M160
G01 X3.000
M161
G00 X3.000 Y-0.750
M160
G01 X-3.000
M161
G00 X-3.000 Y0.750
M160
G01 X3.000
M161
G00 X3.000 Y2.250
M160
G01 X-3.000
M161
; -- Pass 2: vertical (Y) strands --
G00 X-2.250 Y-3.000
M160
G01 Y3.000
M161
G00 X-0.750 Y3.000
M160
G01 Y-3.000
M161
G00 X0.750 Y-3.000
M160
G01 Y3.000
M161
G00 X2.250 Y3.000
M160
G01 Y-3.000
M161
G805[6.535, -6.520, 2.620] ; G55 origin: D5
G55
G00 Z18.400
M200=900
F12.000
M110=110
G00 G55 X-3.000 Y-2.250
Z0.600
; -- Pass 1: horizontal (X) strands --
G00 X-3.000 Y-2.250
M160
G01 X3.000
M161
G00 X3.000 Y-0.750
M160
G01 X-3.000
M161
G00 X-3.000 Y0.750
M160
G01 X3.000
M161
G00 X3.000 Y2.250
M160
G01 X-3.000
M161
; -- Pass 2: vertical (Y) strands --
G00 X-2.250 Y-3.000
M160
G01 Y3.000
M161
G00 X-0.750 Y3.000
M160
G01 Y-3.000
M161
G00 X0.750 Y-3.000
M160
G01 Y3.000
M161
G00 X2.250 Y3.000
M160
G01 Y-3.000
M161
G805[6.535, -19.600, 2.620] ; G55 origin: E5
G55
G00 Z18.400
M200=900
F12.000
M110=120
G00 G55 X-3.000 Y-2.250
Z0.600
; -- Pass 1: horizontal (X) strands --
G00 X-3.000 Y-2.250
M160
G01 X3.000
M161
G00 X3.000 Y-0.750
M160
G01 X-3.000
M161
G00 X-3.000 Y0.750
M160
G01 X3.000
M161
G00 X3.000 Y2.250
M160
G01 X-3.000
M161
; -- Pass 2: vertical (Y) strands --
G00 X-2.250 Y-3.000
M160
G01 Y3.000
M161
G00 X-0.750 Y3.000
M160
G01 Y-3.000
M161
G00 X0.750 Y-3.000
M160
G01 Y3.000
M161
G00 X2.250 Y3.000
M160
G01 Y-3.000
M161
G805[6.535, -32.680, 2.620] ; G55 origin: F5
G55
G00 Z18.400
M200=900
F12.000
M110=130
G00 G55 X-3.000 Y-2.250
Z0.600
; -- Pass 1: horizontal (X) strands --
G00 X-3.000 Y-2.250
M160
G01 X3.000
M161
G00 X3.000 Y-0.750
M160
G01 X-3.000
M161
G00 X-3.000 Y0.750
M160
G01 X3.000
M161
G00 X3.000 Y2.250
M160
G01 X-3.000
M161
; -- Pass 2: vertical (Y) strands --
G00 X-2.250 Y-3.000
M160
G01 Y3.000
M161
G00 X-0.750 Y3.000
M160
G01 Y-3.000
M161
G00 X0.750 Y-3.000
M160
G01 Y3.000
M161
G00 X2.250 Y3.000
M160
G01 Y-3.000
M161
G00 Z18.400 ; lift to safe Z after column

; -- Col 6 | Sample 39 | P=95kPa  F=9.0mm/s  Z=0.800mm --
G805[19.615, 32.720, 2.620] ; G55 origin: A6
G55

; Changing tool to 'PSD 1'
#FLUSH WAIT
T1
G807[1, 0.002, 0.002] ; time-based start/stop delays [s]
M200=950 ; pressure 95kPa
F9.000
M110=90
G00 G55 X-3.000 Y-2.250
M151 ; Engage tool for printing
Z0.800
; -- Pass 1: horizontal (X) strands --
G00 X-3.000 Y-2.250
M160
G01 X3.000
M161
G00 X3.000 Y-0.750
M160
G01 X-3.000
M161
G00 X-3.000 Y0.750
M160
G01 X3.000
M161
G00 X3.000 Y2.250
M160
G01 X-3.000
M161
; -- Pass 2: vertical (Y) strands --
G00 X-2.250 Y-3.000
M160
G01 Y3.000
M161
G00 X-0.750 Y3.000
M160
G01 Y-3.000
M161
G00 X0.750 Y-3.000
M160
G01 Y3.000
M161
G00 X2.250 Y3.000
M160
G01 Y-3.000
M161
G805[19.615, 19.640, 2.620] ; G55 origin: B6
G55
G00 Z18.400
M200=950
F9.000
M110=100
G00 G55 X-3.000 Y-2.250
Z0.800
; -- Pass 1: horizontal (X) strands --
G00 X-3.000 Y-2.250
M160
G01 X3.000
M161
G00 X3.000 Y-0.750
M160
G01 X-3.000
M161
G00 X-3.000 Y0.750
M160
G01 X3.000
M161
G00 X3.000 Y2.250
M160
G01 X-3.000
M161
; -- Pass 2: vertical (Y) strands --
G00 X-2.250 Y-3.000
M160
G01 Y3.000
M161
G00 X-0.750 Y3.000
M160
G01 Y-3.000
M161
G00 X0.750 Y-3.000
M160
G01 Y3.000
M161
G00 X2.250 Y3.000
M160
G01 Y-3.000
M161
G805[19.615, 6.560, 2.620] ; G55 origin: C6
G55
G00 Z18.400
M200=950
F9.000
M110=110
G00 G55 X-3.000 Y-2.250
Z0.800
; -- Pass 1: horizontal (X) strands --
G00 X-3.000 Y-2.250
M160
G01 X3.000
M161
G00 X3.000 Y-0.750
M160
G01 X-3.000
M161
G00 X-3.000 Y0.750
M160
G01 X3.000
M161
G00 X3.000 Y2.250
M160
G01 X-3.000
M161
; -- Pass 2: vertical (Y) strands --
G00 X-2.250 Y-3.000
M160
G01 Y3.000
M161
G00 X-0.750 Y3.000
M160
G01 Y-3.000
M161
G00 X0.750 Y-3.000
M160
G01 Y3.000
M161
G00 X2.250 Y3.000
M160
G01 Y-3.000
M161
G805[19.615, -6.520, 2.620] ; G55 origin: D6
G55
G00 Z18.400
M200=950
F9.000
M110=120
G00 G55 X-3.000 Y-2.250
Z0.800
; -- Pass 1: horizontal (X) strands --
G00 X-3.000 Y-2.250
M160
G01 X3.000
M161
G00 X3.000 Y-0.750
M160
G01 X-3.000
M161
G00 X-3.000 Y0.750
M160
G01 X3.000
M161
G00 X3.000 Y2.250
M160
G01 X-3.000
M161
; -- Pass 2: vertical (Y) strands --
G00 X-2.250 Y-3.000
M160
G01 Y3.000
M161
G00 X-0.750 Y3.000
M160
G01 Y-3.000
M161
G00 X0.750 Y-3.000
M160
G01 Y3.000
M161
G00 X2.250 Y3.000
M160
G01 Y-3.000
M161
G805[19.615, -19.600, 2.620] ; G55 origin: E6
G55
G00 Z18.400
M200=950
F9.000
M110=130
G00 G55 X-3.000 Y-2.250
Z0.800
; -- Pass 1: horizontal (X) strands --
G00 X-3.000 Y-2.250
M160
G01 X3.000
M161
G00 X3.000 Y-0.750
M160
G01 X-3.000
M161
G00 X-3.000 Y0.750
M160
G01 X3.000
M161
G00 X3.000 Y2.250
M160
G01 X-3.000
M161
; -- Pass 2: vertical (Y) strands --
G00 X-2.250 Y-3.000
M160
G01 Y3.000
M161
G00 X-0.750 Y3.000
M160
G01 Y-3.000
M161
G00 X0.750 Y-3.000
M160
G01 Y3.000
M161
G00 X2.250 Y3.000
M160
G01 Y-3.000
M161
G805[19.615, -32.680, 2.620] ; G55 origin: F6
G55
G00 Z18.400
M200=950
F9.000
M110=140
G00 G55 X-3.000 Y-2.250
Z0.800
; -- Pass 1: horizontal (X) strands --
G00 X-3.000 Y-2.250
M160
G01 X3.000
M161
G00 X3.000 Y-0.750
M160
G01 X-3.000
M161
G00 X-3.000 Y0.750
M160
G01 X3.000
M161
G00 X3.000 Y2.250
M160
G01 X-3.000
M161
; -- Pass 2: vertical (Y) strands --
G00 X-2.250 Y-3.000
M160
G01 Y3.000
M161
G00 X-0.750 Y3.000
M160
G01 Y-3.000
M161
G00 X0.750 Y-3.000
M160
G01 Y3.000
M161
G00 X2.250 Y3.000
M160
G01 Y-3.000
M161
G00 Z18.400 ; lift to safe Z after column

; -- Col 7 | Sample 46 | P=105kPa  F=5.0mm/s  Z=0.600mm --
G805[32.695, 32.720, 2.620] ; G55 origin: A7
G55

; Changing tool to 'PSD 1'
#FLUSH WAIT
T1
G807[1, 0.002, 0.002] ; time-based start/stop delays [s]
M200=1050 ; pressure 105kPa
F5.000
M110=100
G00 G55 X-3.000 Y-2.250
M151 ; Engage tool for printing
Z0.600
; -- Pass 1: horizontal (X) strands --
G00 X-3.000 Y-2.250
M160
G01 X3.000
M161
G00 X3.000 Y-0.750
M160
G01 X-3.000
M161
G00 X-3.000 Y0.750
M160
G01 X3.000
M161
G00 X3.000 Y2.250
M160
G01 X-3.000
M161
; -- Pass 2: vertical (Y) strands --
G00 X-2.250 Y-3.000
M160
G01 Y3.000
M161
G00 X-0.750 Y3.000
M160
G01 Y-3.000
M161
G00 X0.750 Y-3.000
M160
G01 Y3.000
M161
G00 X2.250 Y3.000
M160
G01 Y-3.000
M161
G805[32.695, 19.640, 2.620] ; G55 origin: B7
G55
G00 Z18.400
M200=1050
F5.000
M110=110
G00 G55 X-3.000 Y-2.250
Z0.600
; -- Pass 1: horizontal (X) strands --
G00 X-3.000 Y-2.250
M160
G01 X3.000
M161
G00 X3.000 Y-0.750
M160
G01 X-3.000
M161
G00 X-3.000 Y0.750
M160
G01 X3.000
M161
G00 X3.000 Y2.250
M160
G01 X-3.000
M161
; -- Pass 2: vertical (Y) strands --
G00 X-2.250 Y-3.000
M160
G01 Y3.000
M161
G00 X-0.750 Y3.000
M160
G01 Y-3.000
M161
G00 X0.750 Y-3.000
M160
G01 Y3.000
M161
G00 X2.250 Y3.000
M160
G01 Y-3.000
M161
G805[32.695, 6.560, 2.620] ; G55 origin: C7
G55
G00 Z18.400
M200=1050
F5.000
M110=120
G00 G55 X-3.000 Y-2.250
Z0.600
; -- Pass 1: horizontal (X) strands --
G00 X-3.000 Y-2.250
M160
G01 X3.000
M161
G00 X3.000 Y-0.750
M160
G01 X-3.000
M161
G00 X-3.000 Y0.750
M160
G01 X3.000
M161
G00 X3.000 Y2.250
M160
G01 X-3.000
M161
; -- Pass 2: vertical (Y) strands --
G00 X-2.250 Y-3.000
M160
G01 Y3.000
M161
G00 X-0.750 Y3.000
M160
G01 Y-3.000
M161
G00 X0.750 Y-3.000
M160
G01 Y3.000
M161
G00 X2.250 Y3.000
M160
G01 Y-3.000
M161
G805[32.695, -6.520, 2.620] ; G55 origin: D7
G55
G00 Z18.400
M200=1050
F5.000
M110=130
G00 G55 X-3.000 Y-2.250
Z0.600
; -- Pass 1: horizontal (X) strands --
G00 X-3.000 Y-2.250
M160
G01 X3.000
M161
G00 X3.000 Y-0.750
M160
G01 X-3.000
M161
G00 X-3.000 Y0.750
M160
G01 X3.000
M161
G00 X3.000 Y2.250
M160
G01 X-3.000
M161
; -- Pass 2: vertical (Y) strands --
G00 X-2.250 Y-3.000
M160
G01 Y3.000
M161
G00 X-0.750 Y3.000
M160
G01 Y-3.000
M161
G00 X0.750 Y-3.000
M160
G01 Y3.000
M161
G00 X2.250 Y3.000
M160
G01 Y-3.000
M161
G805[32.695, -19.600, 2.620] ; G55 origin: E7
G55
G00 Z18.400
M200=1050
F5.000
M110=140
G00 G55 X-3.000 Y-2.250
Z0.600
; -- Pass 1: horizontal (X) strands --
G00 X-3.000 Y-2.250
M160
G01 X3.000
M161
G00 X3.000 Y-0.750
M160
G01 X-3.000
M161
G00 X-3.000 Y0.750
M160
G01 X3.000
M161
G00 X3.000 Y2.250
M160
G01 X-3.000
M161
; -- Pass 2: vertical (Y) strands --
G00 X-2.250 Y-3.000
M160
G01 Y3.000
M161
G00 X-0.750 Y3.000
M160
G01 Y-3.000
M161
G00 X0.750 Y-3.000
M160
G01 Y3.000
M161
G00 X2.250 Y3.000
M160
G01 Y-3.000
M161
G805[32.695, -32.680, 2.620] ; G55 origin: F7
G55
G00 Z18.400
M200=1050
F5.000
M110=150
G00 G55 X-3.000 Y-2.250
Z0.600
; -- Pass 1: horizontal (X) strands --
G00 X-3.000 Y-2.250
M160
G01 X3.000
M161
G00 X3.000 Y-0.750
M160
G01 X-3.000
M161
G00 X-3.000 Y0.750
M160
G01 X3.000
M161
G00 X3.000 Y2.250
M160
G01 X-3.000
M161
; -- Pass 2: vertical (Y) strands --
G00 X-2.250 Y-3.000
M160
G01 Y3.000
M161
G00 X-0.750 Y3.000
M160
G01 Y-3.000
M161
G00 X0.750 Y-3.000
M160
G01 Y3.000
M161
G00 X2.250 Y3.000
M160
G01 Y-3.000
M161
G00 Z18.400 ; lift to safe Z after column

; -- Col 8 | Sample 53 | P=110kPa  F=13.0mm/s  Z=0.400mm --
G805[45.775, 32.720, 2.620] ; G55 origin: A8
G55

; Changing tool to 'PSD 1'
#FLUSH WAIT
T1
G807[1, 0.002, 0.002] ; time-based start/stop delays [s]
M200=1100 ; pressure 110kPa
F13.000
M110=110
G00 G55 X-3.000 Y-2.250
M151 ; Engage tool for printing
Z0.400
; -- Pass 1: horizontal (X) strands --
G00 X-3.000 Y-2.250
M160
G01 X3.000
M161
G00 X3.000 Y-0.750
M160
G01 X-3.000
M161
G00 X-3.000 Y0.750
M160
G01 X3.000
M161
G00 X3.000 Y2.250
M160
G01 X-3.000
M161
; -- Pass 2: vertical (Y) strands --
G00 X-2.250 Y-3.000
M160
G01 Y3.000
M161
G00 X-0.750 Y3.000
M160
G01 Y-3.000
M161
G00 X0.750 Y-3.000
M160
G01 Y3.000
M161
G00 X2.250 Y3.000
M160
G01 Y-3.000
M161
G805[45.775, 19.640, 2.620] ; G55 origin: B8
G55
G00 Z18.400
M200=1100
F13.000
M110=120
G00 G55 X-3.000 Y-2.250
Z0.400
; -- Pass 1: horizontal (X) strands --
G00 X-3.000 Y-2.250
M160
G01 X3.000
M161
G00 X3.000 Y-0.750
M160
G01 X-3.000
M161
G00 X-3.000 Y0.750
M160
G01 X3.000
M161
G00 X3.000 Y2.250
M160
G01 X-3.000
M161
; -- Pass 2: vertical (Y) strands --
G00 X-2.250 Y-3.000
M160
G01 Y3.000
M161
G00 X-0.750 Y3.000
M160
G01 Y-3.000
M161
G00 X0.750 Y-3.000
M160
G01 Y3.000
M161
G00 X2.250 Y3.000
M160
G01 Y-3.000
M161
G805[45.775, 6.560, 2.620] ; G55 origin: C8
G55
G00 Z18.400
M200=1100
F13.000
M110=130
G00 G55 X-3.000 Y-2.250
Z0.400
; -- Pass 1: horizontal (X) strands --
G00 X-3.000 Y-2.250
M160
G01 X3.000
M161
G00 X3.000 Y-0.750
M160
G01 X-3.000
M161
G00 X-3.000 Y0.750
M160
G01 X3.000
M161
G00 X3.000 Y2.250
M160
G01 X-3.000
M161
; -- Pass 2: vertical (Y) strands --
G00 X-2.250 Y-3.000
M160
G01 Y3.000
M161
G00 X-0.750 Y3.000
M160
G01 Y-3.000
M161
G00 X0.750 Y-3.000
M160
G01 Y3.000
M161
G00 X2.250 Y3.000
M160
G01 Y-3.000
M161
G805[45.775, -6.520, 2.620] ; G55 origin: D8
G55
G00 Z18.400
M200=1100
F13.000
M110=140
G00 G55 X-3.000 Y-2.250
Z0.400
; -- Pass 1: horizontal (X) strands --
G00 X-3.000 Y-2.250
M160
G01 X3.000
M161
G00 X3.000 Y-0.750
M160
G01 X-3.000
M161
G00 X-3.000 Y0.750
M160
G01 X3.000
M161
G00 X3.000 Y2.250
M160
G01 X-3.000
M161
; -- Pass 2: vertical (Y) strands --
G00 X-2.250 Y-3.000
M160
G01 Y3.000
M161
G00 X-0.750 Y3.000
M160
G01 Y-3.000
M161
G00 X0.750 Y-3.000
M160
G01 Y3.000
M161
G00 X2.250 Y3.000
M160
G01 Y-3.000
M161
G805[45.775, -19.600, 2.620] ; G55 origin: E8
G55
G00 Z18.400
M200=1100
F13.000
M110=150
G00 G55 X-3.000 Y-2.250
Z0.400
; -- Pass 1: horizontal (X) strands --
G00 X-3.000 Y-2.250
M160
G01 X3.000
M161
G00 X3.000 Y-0.750
M160
G01 X-3.000
M161
G00 X-3.000 Y0.750
M160
G01 X3.000
M161
G00 X3.000 Y2.250
M160
G01 X-3.000
M161
; -- Pass 2: vertical (Y) strands --
G00 X-2.250 Y-3.000
M160
G01 Y3.000
M161
G00 X-0.750 Y3.000
M160
G01 Y-3.000
M161
G00 X0.750 Y-3.000
M160
G01 Y3.000
M161
G00 X2.250 Y3.000
M160
G01 Y-3.000
M161
G805[45.775, -32.680, 2.620] ; G55 origin: F8
G55
G00 Z18.400
M200=1100
F13.000
M110=160
G00 G55 X-3.000 Y-2.250
Z0.400
; -- Pass 1: horizontal (X) strands --
G00 X-3.000 Y-2.250
M160
G01 X3.000
M161
G00 X3.000 Y-0.750
M160
G01 X-3.000
M161
G00 X-3.000 Y0.750
M160
G01 X3.000
M161
G00 X3.000 Y2.250
M160
G01 X-3.000
M161
; -- Pass 2: vertical (Y) strands --
G00 X-2.250 Y-3.000
M160
G01 Y3.000
M161
G00 X-0.750 Y3.000
M160
G01 Y-3.000
M161
G00 X0.750 Y-3.000
M160
G01 Y3.000
M161
G00 X2.250 Y3.000
M160
G01 Y-3.000
M161
G00 Z18.400 ; lift to safe Z after column

#FLUSH WAIT

; ============================================================
; CAMERA IMAGING POSITIONS
; Wells: A1, B1, C1, D1, E1, F1, A2, B2, C2, D2, E2, F2, A3, B3, C3, D3, E3, F3, A4, B4, C4, D4, E4, F4, A5, B5, C5, D5, E5, F5, A6, B6, C6, D6, E6, F6, A7, B7, C7, D7, E7, F7, A8, B8, C8, D8, E8, F8
; Column-major order: col1 (A1-F1) -> col2 (A2-F2) -> ...
; Slot 1 selected (T1) -- camera physically at slot 5.
; Z safe = 22.34 mm  |  Z imaging = 2.24 mm
; ============================================================

#FLUSH WAIT
#CONTOUR MODE OFF          ; Exit tracking mode from printing
#FLUSH WAIT

T1                         ; Select slot 1
G803                       ; Move to system safe height

; --- Well A1 ---
G00 G54 G90 Z22.340          ; Raise to safe Z first
G00 X-234.090 Y95.780              ; Move XY to A1
G00 Z2.240                ; Lower to imaging height
V.E.UserInteraction.Message = "Camera at A1 - trigger imaging, then click OK"
M121                       ; Pause for manual camera trigger

; --- Well B1 ---
G00 G54 G90 Z22.340          ; Raise to safe Z first
G00 X-234.090 Y82.750              ; Move XY to B1
G00 Z2.240                ; Lower to imaging height
V.E.UserInteraction.Message = "Camera at B1 - trigger imaging, then click OK"
M121                       ; Pause for manual camera trigger

; --- Well C1 ---
G00 G54 G90 Z22.340          ; Raise to safe Z first
G00 X-234.090 Y69.720              ; Move XY to C1
G00 Z2.240                ; Lower to imaging height
V.E.UserInteraction.Message = "Camera at C1 - trigger imaging, then click OK"
M121                       ; Pause for manual camera trigger

; --- Well D1 ---
G00 G54 G90 Z22.340          ; Raise to safe Z first
G00 X-234.090 Y56.690              ; Move XY to D1
G00 Z2.240                ; Lower to imaging height
V.E.UserInteraction.Message = "Camera at D1 - trigger imaging, then click OK"
M121                       ; Pause for manual camera trigger

; --- Well E1 ---
G00 G54 G90 Z22.340          ; Raise to safe Z first
G00 X-234.090 Y43.660              ; Move XY to E1
G00 Z2.240                ; Lower to imaging height
V.E.UserInteraction.Message = "Camera at E1 - trigger imaging, then click OK"
M121                       ; Pause for manual camera trigger

; --- Well F1 ---
G00 G54 G90 Z22.340          ; Raise to safe Z first
G00 X-234.090 Y30.630              ; Move XY to F1
G00 Z2.240                ; Lower to imaging height
V.E.UserInteraction.Message = "Camera at F1 - trigger imaging, then click OK"
M121                       ; Pause for manual camera trigger

; --- Well A2 ---
G00 G54 G90 Z22.340          ; Raise to safe Z first
G00 X-221.099 Y95.780              ; Move XY to A2
G00 Z2.240                ; Lower to imaging height
V.E.UserInteraction.Message = "Camera at A2 - trigger imaging, then click OK"
M121                       ; Pause for manual camera trigger

; --- Well B2 ---
G00 G54 G90 Z22.340          ; Raise to safe Z first
G00 X-221.099 Y82.750              ; Move XY to B2
G00 Z2.240                ; Lower to imaging height
V.E.UserInteraction.Message = "Camera at B2 - trigger imaging, then click OK"
M121                       ; Pause for manual camera trigger

; --- Well C2 ---
G00 G54 G90 Z22.340          ; Raise to safe Z first
G00 X-221.099 Y69.720              ; Move XY to C2
G00 Z2.240                ; Lower to imaging height
V.E.UserInteraction.Message = "Camera at C2 - trigger imaging, then click OK"
M121                       ; Pause for manual camera trigger

; --- Well D2 ---
G00 G54 G90 Z22.340          ; Raise to safe Z first
G00 X-221.099 Y56.690              ; Move XY to D2
G00 Z2.240                ; Lower to imaging height
V.E.UserInteraction.Message = "Camera at D2 - trigger imaging, then click OK"
M121                       ; Pause for manual camera trigger

; --- Well E2 ---
G00 G54 G90 Z22.340          ; Raise to safe Z first
G00 X-221.099 Y43.660              ; Move XY to E2
G00 Z2.240                ; Lower to imaging height
V.E.UserInteraction.Message = "Camera at E2 - trigger imaging, then click OK"
M121                       ; Pause for manual camera trigger

; --- Well F2 ---
G00 G54 G90 Z22.340          ; Raise to safe Z first
G00 X-221.099 Y30.630              ; Move XY to F2
G00 Z2.240                ; Lower to imaging height
V.E.UserInteraction.Message = "Camera at F2 - trigger imaging, then click OK"
M121                       ; Pause for manual camera trigger

; --- Well A3 ---
G00 G54 G90 Z22.340          ; Raise to safe Z first
G00 X-208.107 Y95.780              ; Move XY to A3
G00 Z2.240                ; Lower to imaging height
V.E.UserInteraction.Message = "Camera at A3 - trigger imaging, then click OK"
M121                       ; Pause for manual camera trigger

; --- Well B3 ---
G00 G54 G90 Z22.340          ; Raise to safe Z first
G00 X-208.107 Y82.750              ; Move XY to B3
G00 Z2.240                ; Lower to imaging height
V.E.UserInteraction.Message = "Camera at B3 - trigger imaging, then click OK"
M121                       ; Pause for manual camera trigger

; --- Well C3 ---
G00 G54 G90 Z22.340          ; Raise to safe Z first
G00 X-208.107 Y69.720              ; Move XY to C3
G00 Z2.240                ; Lower to imaging height
V.E.UserInteraction.Message = "Camera at C3 - trigger imaging, then click OK"
M121                       ; Pause for manual camera trigger

; --- Well D3 ---
G00 G54 G90 Z22.340          ; Raise to safe Z first
G00 X-208.107 Y56.690              ; Move XY to D3
G00 Z2.240                ; Lower to imaging height
V.E.UserInteraction.Message = "Camera at D3 - trigger imaging, then click OK"
M121                       ; Pause for manual camera trigger

; --- Well E3 ---
G00 G54 G90 Z22.340          ; Raise to safe Z first
G00 X-208.107 Y43.660              ; Move XY to E3
G00 Z2.240                ; Lower to imaging height
V.E.UserInteraction.Message = "Camera at E3 - trigger imaging, then click OK"
M121                       ; Pause for manual camera trigger

; --- Well F3 ---
G00 G54 G90 Z22.340          ; Raise to safe Z first
G00 X-208.107 Y30.630              ; Move XY to F3
G00 Z2.240                ; Lower to imaging height
V.E.UserInteraction.Message = "Camera at F3 - trigger imaging, then click OK"
M121                       ; Pause for manual camera trigger

; --- Well A4 ---
G00 G54 G90 Z22.340          ; Raise to safe Z first
G00 X-195.116 Y95.780              ; Move XY to A4
G00 Z2.240                ; Lower to imaging height
V.E.UserInteraction.Message = "Camera at A4 - trigger imaging, then click OK"
M121                       ; Pause for manual camera trigger

; --- Well B4 ---
G00 G54 G90 Z22.340          ; Raise to safe Z first
G00 X-195.116 Y82.750              ; Move XY to B4
G00 Z2.240                ; Lower to imaging height
V.E.UserInteraction.Message = "Camera at B4 - trigger imaging, then click OK"
M121                       ; Pause for manual camera trigger

; --- Well C4 ---
G00 G54 G90 Z22.340          ; Raise to safe Z first
G00 X-195.116 Y69.720              ; Move XY to C4
G00 Z2.240                ; Lower to imaging height
V.E.UserInteraction.Message = "Camera at C4 - trigger imaging, then click OK"
M121                       ; Pause for manual camera trigger

; --- Well D4 ---
G00 G54 G90 Z22.340          ; Raise to safe Z first
G00 X-195.116 Y56.690              ; Move XY to D4
G00 Z2.240                ; Lower to imaging height
V.E.UserInteraction.Message = "Camera at D4 - trigger imaging, then click OK"
M121                       ; Pause for manual camera trigger

; --- Well E4 ---
G00 G54 G90 Z22.340          ; Raise to safe Z first
G00 X-195.116 Y43.660              ; Move XY to E4
G00 Z2.240                ; Lower to imaging height
V.E.UserInteraction.Message = "Camera at E4 - trigger imaging, then click OK"
M121                       ; Pause for manual camera trigger

; --- Well F4 ---
G00 G54 G90 Z22.340          ; Raise to safe Z first
G00 X-195.116 Y30.630              ; Move XY to F4
G00 Z2.240                ; Lower to imaging height
V.E.UserInteraction.Message = "Camera at F4 - trigger imaging, then click OK"
M121                       ; Pause for manual camera trigger

; --- Well A5 ---
G00 G54 G90 Z22.340          ; Raise to safe Z first
G00 X-182.124 Y95.780              ; Move XY to A5
G00 Z2.240                ; Lower to imaging height
V.E.UserInteraction.Message = "Camera at A5 - trigger imaging, then click OK"
M121                       ; Pause for manual camera trigger

; --- Well B5 ---
G00 G54 G90 Z22.340          ; Raise to safe Z first
G00 X-182.124 Y82.750              ; Move XY to B5
G00 Z2.240                ; Lower to imaging height
V.E.UserInteraction.Message = "Camera at B5 - trigger imaging, then click OK"
M121                       ; Pause for manual camera trigger

; --- Well C5 ---
G00 G54 G90 Z22.340          ; Raise to safe Z first
G00 X-182.124 Y69.720              ; Move XY to C5
G00 Z2.240                ; Lower to imaging height
V.E.UserInteraction.Message = "Camera at C5 - trigger imaging, then click OK"
M121                       ; Pause for manual camera trigger

; --- Well D5 ---
G00 G54 G90 Z22.340          ; Raise to safe Z first
G00 X-182.124 Y56.690              ; Move XY to D5
G00 Z2.240                ; Lower to imaging height
V.E.UserInteraction.Message = "Camera at D5 - trigger imaging, then click OK"
M121                       ; Pause for manual camera trigger

; --- Well E5 ---
G00 G54 G90 Z22.340          ; Raise to safe Z first
G00 X-182.124 Y43.660              ; Move XY to E5
G00 Z2.240                ; Lower to imaging height
V.E.UserInteraction.Message = "Camera at E5 - trigger imaging, then click OK"
M121                       ; Pause for manual camera trigger

; --- Well F5 ---
G00 G54 G90 Z22.340          ; Raise to safe Z first
G00 X-182.124 Y30.630              ; Move XY to F5
G00 Z2.240                ; Lower to imaging height
V.E.UserInteraction.Message = "Camera at F5 - trigger imaging, then click OK"
M121                       ; Pause for manual camera trigger

; --- Well A6 ---
G00 G54 G90 Z22.340          ; Raise to safe Z first
G00 X-169.133 Y95.780              ; Move XY to A6
G00 Z2.240                ; Lower to imaging height
V.E.UserInteraction.Message = "Camera at A6 - trigger imaging, then click OK"
M121                       ; Pause for manual camera trigger

; --- Well B6 ---
G00 G54 G90 Z22.340          ; Raise to safe Z first
G00 X-169.133 Y82.750              ; Move XY to B6
G00 Z2.240                ; Lower to imaging height
V.E.UserInteraction.Message = "Camera at B6 - trigger imaging, then click OK"
M121                       ; Pause for manual camera trigger

; --- Well C6 ---
G00 G54 G90 Z22.340          ; Raise to safe Z first
G00 X-169.133 Y69.720              ; Move XY to C6
G00 Z2.240                ; Lower to imaging height
V.E.UserInteraction.Message = "Camera at C6 - trigger imaging, then click OK"
M121                       ; Pause for manual camera trigger

; --- Well D6 ---
G00 G54 G90 Z22.340          ; Raise to safe Z first
G00 X-169.133 Y56.690              ; Move XY to D6
G00 Z2.240                ; Lower to imaging height
V.E.UserInteraction.Message = "Camera at D6 - trigger imaging, then click OK"
M121                       ; Pause for manual camera trigger

; --- Well E6 ---
G00 G54 G90 Z22.340          ; Raise to safe Z first
G00 X-169.133 Y43.660              ; Move XY to E6
G00 Z2.240                ; Lower to imaging height
V.E.UserInteraction.Message = "Camera at E6 - trigger imaging, then click OK"
M121                       ; Pause for manual camera trigger

; --- Well F6 ---
G00 G54 G90 Z22.340          ; Raise to safe Z first
G00 X-169.133 Y30.630              ; Move XY to F6
G00 Z2.240                ; Lower to imaging height
V.E.UserInteraction.Message = "Camera at F6 - trigger imaging, then click OK"
M121                       ; Pause for manual camera trigger

; --- Well A7 ---
G00 G54 G90 Z22.340          ; Raise to safe Z first
G00 X-156.141 Y95.780              ; Move XY to A7
G00 Z2.240                ; Lower to imaging height
V.E.UserInteraction.Message = "Camera at A7 - trigger imaging, then click OK"
M121                       ; Pause for manual camera trigger

; --- Well B7 ---
G00 G54 G90 Z22.340          ; Raise to safe Z first
G00 X-156.141 Y82.750              ; Move XY to B7
G00 Z2.240                ; Lower to imaging height
V.E.UserInteraction.Message = "Camera at B7 - trigger imaging, then click OK"
M121                       ; Pause for manual camera trigger

; --- Well C7 ---
G00 G54 G90 Z22.340          ; Raise to safe Z first
G00 X-156.141 Y69.720              ; Move XY to C7
G00 Z2.240                ; Lower to imaging height
V.E.UserInteraction.Message = "Camera at C7 - trigger imaging, then click OK"
M121                       ; Pause for manual camera trigger

; --- Well D7 ---
G00 G54 G90 Z22.340          ; Raise to safe Z first
G00 X-156.141 Y56.690              ; Move XY to D7
G00 Z2.240                ; Lower to imaging height
V.E.UserInteraction.Message = "Camera at D7 - trigger imaging, then click OK"
M121                       ; Pause for manual camera trigger

; --- Well E7 ---
G00 G54 G90 Z22.340          ; Raise to safe Z first
G00 X-156.141 Y43.660              ; Move XY to E7
G00 Z2.240                ; Lower to imaging height
V.E.UserInteraction.Message = "Camera at E7 - trigger imaging, then click OK"
M121                       ; Pause for manual camera trigger

; --- Well F7 ---
G00 G54 G90 Z22.340          ; Raise to safe Z first
G00 X-156.141 Y30.630              ; Move XY to F7
G00 Z2.240                ; Lower to imaging height
V.E.UserInteraction.Message = "Camera at F7 - trigger imaging, then click OK"
M121                       ; Pause for manual camera trigger

; --- Well A8 ---
G00 G54 G90 Z22.340          ; Raise to safe Z first
G00 X-143.150 Y95.780              ; Move XY to A8
G00 Z2.240                ; Lower to imaging height
V.E.UserInteraction.Message = "Camera at A8 - trigger imaging, then click OK"
M121                       ; Pause for manual camera trigger

; --- Well B8 ---
G00 G54 G90 Z22.340          ; Raise to safe Z first
G00 X-143.150 Y82.750              ; Move XY to B8
G00 Z2.240                ; Lower to imaging height
V.E.UserInteraction.Message = "Camera at B8 - trigger imaging, then click OK"
M121                       ; Pause for manual camera trigger

; --- Well C8 ---
G00 G54 G90 Z22.340          ; Raise to safe Z first
G00 X-143.150 Y69.720              ; Move XY to C8
G00 Z2.240                ; Lower to imaging height
V.E.UserInteraction.Message = "Camera at C8 - trigger imaging, then click OK"
M121                       ; Pause for manual camera trigger

; --- Well D8 ---
G00 G54 G90 Z22.340          ; Raise to safe Z first
G00 X-143.150 Y56.690              ; Move XY to D8
G00 Z2.240                ; Lower to imaging height
V.E.UserInteraction.Message = "Camera at D8 - trigger imaging, then click OK"
M121                       ; Pause for manual camera trigger

; --- Well E8 ---
G00 G54 G90 Z22.340          ; Raise to safe Z first
G00 X-143.150 Y43.660              ; Move XY to E8
G00 Z2.240                ; Lower to imaging height
V.E.UserInteraction.Message = "Camera at E8 - trigger imaging, then click OK"
M121                       ; Pause for manual camera trigger

; --- Well F8 ---
G00 G54 G90 Z22.340          ; Raise to safe Z first
G00 X-143.150 Y30.630              ; Move XY to F8
G00 Z2.240                ; Lower to imaging height
V.E.UserInteraction.Message = "Camera at F8 - trigger imaging, then click OK"
M121                       ; Pause for manual camera trigger

; --- Return home ---
G00 G54 G90 Z22.340          ; Safe Z before going home
G800                       ; Go home
M110=1000
M30