% data_collection_48well_8cols_s10-s88.nc
; Generated by generate_nc_files.py
; 48-well plate | 7 samples (columns)
; Geometry: 0-90 two-layer grid | strand spacing 0.9mm | 4+4 strands | 3x3 pores
; CSV: lhs_bioprint_samples_semicolon.csv
; Temperature: set manually in Architect UI (not in G-code)
;
; Col   SampleID   P(kPa)     F(mm/s)    Z(mm)   
; 1     10         65         11.0       0.8     
; 2     23         75         10.0       0.4     
; 3     36         85         5.0        0.8     
; 4     49         90         13.0       0.7     
; 5     62         100        8.0        0.7     
; 6     75         105        15.0       0.6     
; 7     88         115        9.0        0.5     
;
; REGENHU
; http://www.regenhu.com/
; Translator 1.0.0.0
; Date 2026-04-13
; ESTIMATED_PRINTING_TIME 0:03:19.061356

; INITIALIZATION
T1
M200=650 ; Set pressure to 65kPa
T0
G803 ; Move to safe height
; INITIALIZATION

M110=0 ; Set printing progress to 0%
T1
G801 ; Measure tool

#CONTOUR MODE ON [DEV PATH_DEV=0.08]

M312 ; Wait for work zone temperature

; ── Col 1 | Sample 10 | P=65kPa  F=11.0mm/s  Z=0.800mm ──
G805[-45.785, 32.720, 2.620]  ; G55 origin: A1
G55

; Changing tool to 'PSD 1'
#FLUSH WAIT
T1
G807[1, 0.002, 0.002]  ; time-based start/stop delays [s]
M200=650         ; pressure 65.0kPa
F11.000               ; nozzle speed
M110=40              ; progress 40%
G00 G55 X-1.800 Y-1.350    ; layer 1 start
M151                               ; engage tool
Z0.800                              ; lower to layer 1 Z
M160                               ; dispensing ON
G01 X1.800                       ; strand L1-1  (+X)
Y-0.450                              ; traverse to strand L1-2
X-1.800                          ; strand L1-2 (−X)
Y0.450                              ; traverse to strand L1-3
X1.800                           ; strand L1-3 (+X)
Y1.350                              ; traverse to strand L1-4
X-1.800                          ; strand L1-4 (−X)
M161                               ; dispensing OFF
G00 Z18.400                ; lift to travel Z
X-1.350 Y-1.800            ; layer 2 start position
Z1.150                               ; lower to layer 2 Z
M160                               ; dispensing ON
G01 Y1.800                        ; strand L2-1  (+Y)
X-0.450                              ; traverse to strand L2-2
Y-1.800                          ; strand L2-2 (−Y)
X0.450                              ; traverse to strand L2-3
Y1.800                           ; strand L2-3 (+Y)
X1.350                              ; traverse to strand L2-4
Y-1.800                          ; strand L2-4 (−Y)
M161                               ; dispensing OFF
M110=60  ; progress
G805[-45.785, 19.640, 2.620]  ; G55 origin: B1
G55
G00 Z18.400       ; lift to travel Z
M200=650         ; pressure 65.0kPa
F11.000
M110=61              ; progress 61%
G00 G55 X-1.800 Y-1.350    ; layer 1 start
M151                               ; engage tool
Z0.800                              ; lower to layer 1 Z
M160                               ; dispensing ON
G01 X1.800                       ; strand L1-1  (+X)
Y-0.450                              ; traverse to strand L1-2
X-1.800                          ; strand L1-2 (−X)
Y0.450                              ; traverse to strand L1-3
X1.800                           ; strand L1-3 (+X)
Y1.350                              ; traverse to strand L1-4
X-1.800                          ; strand L1-4 (−X)
M161                               ; dispensing OFF
G00 Z18.400                ; lift to travel Z
X-1.350 Y-1.800            ; layer 2 start position
Z1.150                               ; lower to layer 2 Z
M160                               ; dispensing ON
G01 Y1.800                        ; strand L2-1  (+Y)
X-0.450                              ; traverse to strand L2-2
Y-1.800                          ; strand L2-2 (−Y)
X0.450                              ; traverse to strand L2-3
Y1.800                           ; strand L2-3 (+Y)
X1.350                              ; traverse to strand L2-4
Y-1.800                          ; strand L2-4 (−Y)
M161                               ; dispensing OFF
M110=81  ; progress
G805[-45.785, 6.560, 2.620]  ; G55 origin: C1
G55
G00 Z18.400       ; lift to travel Z
M200=650         ; pressure 65.0kPa
F11.000
M110=82              ; progress 82%
G00 G55 X-1.800 Y-1.350    ; layer 1 start
M151                               ; engage tool
Z0.800                              ; lower to layer 1 Z
M160                               ; dispensing ON
G01 X1.800                       ; strand L1-1  (+X)
Y-0.450                              ; traverse to strand L1-2
X-1.800                          ; strand L1-2 (−X)
Y0.450                              ; traverse to strand L1-3
X1.800                           ; strand L1-3 (+X)
Y1.350                              ; traverse to strand L1-4
X-1.800                          ; strand L1-4 (−X)
M161                               ; dispensing OFF
G00 Z18.400                ; lift to travel Z
X-1.350 Y-1.800            ; layer 2 start position
Z1.150                               ; lower to layer 2 Z
M160                               ; dispensing ON
G01 Y1.800                        ; strand L2-1  (+Y)
X-0.450                              ; traverse to strand L2-2
Y-1.800                          ; strand L2-2 (−Y)
X0.450                              ; traverse to strand L2-3
Y1.800                           ; strand L2-3 (+Y)
X1.350                              ; traverse to strand L2-4
Y-1.800                          ; strand L2-4 (−Y)
M161                               ; dispensing OFF
M110=102  ; progress
G805[-45.785, -6.520, 2.620]  ; G55 origin: D1
G55
G00 Z18.400       ; lift to travel Z
M200=650         ; pressure 65.0kPa
F11.000
M110=103              ; progress 103%
G00 G55 X-1.800 Y-1.350    ; layer 1 start
M151                               ; engage tool
Z0.800                              ; lower to layer 1 Z
M160                               ; dispensing ON
G01 X1.800                       ; strand L1-1  (+X)
Y-0.450                              ; traverse to strand L1-2
X-1.800                          ; strand L1-2 (−X)
Y0.450                              ; traverse to strand L1-3
X1.800                           ; strand L1-3 (+X)
Y1.350                              ; traverse to strand L1-4
X-1.800                          ; strand L1-4 (−X)
M161                               ; dispensing OFF
G00 Z18.400                ; lift to travel Z
X-1.350 Y-1.800            ; layer 2 start position
Z1.150                               ; lower to layer 2 Z
M160                               ; dispensing ON
G01 Y1.800                        ; strand L2-1  (+Y)
X-0.450                              ; traverse to strand L2-2
Y-1.800                          ; strand L2-2 (−Y)
X0.450                              ; traverse to strand L2-3
Y1.800                           ; strand L2-3 (+Y)
X1.350                              ; traverse to strand L2-4
Y-1.800                          ; strand L2-4 (−Y)
M161                               ; dispensing OFF
M110=123  ; progress
G805[-45.785, -19.600, 2.620]  ; G55 origin: E1
G55
G00 Z18.400       ; lift to travel Z
M200=650         ; pressure 65.0kPa
F11.000
M110=124              ; progress 124%
G00 G55 X-1.800 Y-1.350    ; layer 1 start
M151                               ; engage tool
Z0.800                              ; lower to layer 1 Z
M160                               ; dispensing ON
G01 X1.800                       ; strand L1-1  (+X)
Y-0.450                              ; traverse to strand L1-2
X-1.800                          ; strand L1-2 (−X)
Y0.450                              ; traverse to strand L1-3
X1.800                           ; strand L1-3 (+X)
Y1.350                              ; traverse to strand L1-4
X-1.800                          ; strand L1-4 (−X)
M161                               ; dispensing OFF
G00 Z18.400                ; lift to travel Z
X-1.350 Y-1.800            ; layer 2 start position
Z1.150                               ; lower to layer 2 Z
M160                               ; dispensing ON
G01 Y1.800                        ; strand L2-1  (+Y)
X-0.450                              ; traverse to strand L2-2
Y-1.800                          ; strand L2-2 (−Y)
X0.450                              ; traverse to strand L2-3
Y1.800                           ; strand L2-3 (+Y)
X1.350                              ; traverse to strand L2-4
Y-1.800                          ; strand L2-4 (−Y)
M161                               ; dispensing OFF
M110=144  ; progress
G805[-45.785, -32.680, 2.620]  ; G55 origin: F1
G55
G00 Z18.400       ; lift to travel Z
M200=650         ; pressure 65.0kPa
F11.000
M110=145              ; progress 145%
G00 G55 X-1.800 Y-1.350    ; layer 1 start
M151                               ; engage tool
Z0.800                              ; lower to layer 1 Z
M160                               ; dispensing ON
G01 X1.800                       ; strand L1-1  (+X)
Y-0.450                              ; traverse to strand L1-2
X-1.800                          ; strand L1-2 (−X)
Y0.450                              ; traverse to strand L1-3
X1.800                           ; strand L1-3 (+X)
Y1.350                              ; traverse to strand L1-4
X-1.800                          ; strand L1-4 (−X)
M161                               ; dispensing OFF
G00 Z18.400                ; lift to travel Z
X-1.350 Y-1.800            ; layer 2 start position
Z1.150                               ; lower to layer 2 Z
M160                               ; dispensing ON
G01 Y1.800                        ; strand L2-1  (+Y)
X-0.450                              ; traverse to strand L2-2
Y-1.800                          ; strand L2-2 (−Y)
X0.450                              ; traverse to strand L2-3
Y1.800                           ; strand L2-3 (+Y)
X1.350                              ; traverse to strand L2-4
Y-1.800                          ; strand L2-4 (−Y)
M161                               ; dispensing OFF
M110=165  ; progress

; ── Col 2 | Sample 23 | P=75kPa  F=10.0mm/s  Z=0.400mm ──
G805[-32.705, 32.720, 2.620]  ; G55 origin: A2
G55

; Changing tool to 'PSD 1'
#FLUSH WAIT
T1
G807[1, 0.002, 0.002]  ; time-based start/stop delays [s]
M200=750         ; pressure 75.0kPa
F10.000               ; nozzle speed
M110=166              ; progress 166%
G00 G55 X-1.800 Y-1.350    ; layer 1 start
M151                               ; engage tool
Z0.400                              ; lower to layer 1 Z
M160                               ; dispensing ON
G01 X1.800                       ; strand L1-1  (+X)
Y-0.450                              ; traverse to strand L1-2
X-1.800                          ; strand L1-2 (−X)
Y0.450                              ; traverse to strand L1-3
X1.800                           ; strand L1-3 (+X)
Y1.350                              ; traverse to strand L1-4
X-1.800                          ; strand L1-4 (−X)
M161                               ; dispensing OFF
G00 Z18.400                ; lift to travel Z
X-1.350 Y-1.800            ; layer 2 start position
Z0.750                               ; lower to layer 2 Z
M160                               ; dispensing ON
G01 Y1.800                        ; strand L2-1  (+Y)
X-0.450                              ; traverse to strand L2-2
Y-1.800                          ; strand L2-2 (−Y)
X0.450                              ; traverse to strand L2-3
Y1.800                           ; strand L2-3 (+Y)
X1.350                              ; traverse to strand L2-4
Y-1.800                          ; strand L2-4 (−Y)
M161                               ; dispensing OFF
M110=186  ; progress
G805[-32.705, 19.640, 2.620]  ; G55 origin: B2
G55
G00 Z18.400       ; lift to travel Z
M200=750         ; pressure 75.0kPa
F10.000
M110=187              ; progress 187%
G00 G55 X-1.800 Y-1.350    ; layer 1 start
M151                               ; engage tool
Z0.400                              ; lower to layer 1 Z
M160                               ; dispensing ON
G01 X1.800                       ; strand L1-1  (+X)
Y-0.450                              ; traverse to strand L1-2
X-1.800                          ; strand L1-2 (−X)
Y0.450                              ; traverse to strand L1-3
X1.800                           ; strand L1-3 (+X)
Y1.350                              ; traverse to strand L1-4
X-1.800                          ; strand L1-4 (−X)
M161                               ; dispensing OFF
G00 Z18.400                ; lift to travel Z
X-1.350 Y-1.800            ; layer 2 start position
Z0.750                               ; lower to layer 2 Z
M160                               ; dispensing ON
G01 Y1.800                        ; strand L2-1  (+Y)
X-0.450                              ; traverse to strand L2-2
Y-1.800                          ; strand L2-2 (−Y)
X0.450                              ; traverse to strand L2-3
Y1.800                           ; strand L2-3 (+Y)
X1.350                              ; traverse to strand L2-4
Y-1.800                          ; strand L2-4 (−Y)
M161                               ; dispensing OFF
M110=207  ; progress
G805[-32.705, 6.560, 2.620]  ; G55 origin: C2
G55
G00 Z18.400       ; lift to travel Z
M200=750         ; pressure 75.0kPa
F10.000
M110=208              ; progress 208%
G00 G55 X-1.800 Y-1.350    ; layer 1 start
M151                               ; engage tool
Z0.400                              ; lower to layer 1 Z
M160                               ; dispensing ON
G01 X1.800                       ; strand L1-1  (+X)
Y-0.450                              ; traverse to strand L1-2
X-1.800                          ; strand L1-2 (−X)
Y0.450                              ; traverse to strand L1-3
X1.800                           ; strand L1-3 (+X)
Y1.350                              ; traverse to strand L1-4
X-1.800                          ; strand L1-4 (−X)
M161                               ; dispensing OFF
G00 Z18.400                ; lift to travel Z
X-1.350 Y-1.800            ; layer 2 start position
Z0.750                               ; lower to layer 2 Z
M160                               ; dispensing ON
G01 Y1.800                        ; strand L2-1  (+Y)
X-0.450                              ; traverse to strand L2-2
Y-1.800                          ; strand L2-2 (−Y)
X0.450                              ; traverse to strand L2-3
Y1.800                           ; strand L2-3 (+Y)
X1.350                              ; traverse to strand L2-4
Y-1.800                          ; strand L2-4 (−Y)
M161                               ; dispensing OFF
M110=228  ; progress
G805[-32.705, -6.520, 2.620]  ; G55 origin: D2
G55
G00 Z18.400       ; lift to travel Z
M200=750         ; pressure 75.0kPa
F10.000
M110=229              ; progress 229%
G00 G55 X-1.800 Y-1.350    ; layer 1 start
M151                               ; engage tool
Z0.400                              ; lower to layer 1 Z
M160                               ; dispensing ON
G01 X1.800                       ; strand L1-1  (+X)
Y-0.450                              ; traverse to strand L1-2
X-1.800                          ; strand L1-2 (−X)
Y0.450                              ; traverse to strand L1-3
X1.800                           ; strand L1-3 (+X)
Y1.350                              ; traverse to strand L1-4
X-1.800                          ; strand L1-4 (−X)
M161                               ; dispensing OFF
G00 Z18.400                ; lift to travel Z
X-1.350 Y-1.800            ; layer 2 start position
Z0.750                               ; lower to layer 2 Z
M160                               ; dispensing ON
G01 Y1.800                        ; strand L2-1  (+Y)
X-0.450                              ; traverse to strand L2-2
Y-1.800                          ; strand L2-2 (−Y)
X0.450                              ; traverse to strand L2-3
Y1.800                           ; strand L2-3 (+Y)
X1.350                              ; traverse to strand L2-4
Y-1.800                          ; strand L2-4 (−Y)
M161                               ; dispensing OFF
M110=249  ; progress
G805[-32.705, -19.600, 2.620]  ; G55 origin: E2
G55
G00 Z18.400       ; lift to travel Z
M200=750         ; pressure 75.0kPa
F10.000
M110=250              ; progress 250%
G00 G55 X-1.800 Y-1.350    ; layer 1 start
M151                               ; engage tool
Z0.400                              ; lower to layer 1 Z
M160                               ; dispensing ON
G01 X1.800                       ; strand L1-1  (+X)
Y-0.450                              ; traverse to strand L1-2
X-1.800                          ; strand L1-2 (−X)
Y0.450                              ; traverse to strand L1-3
X1.800                           ; strand L1-3 (+X)
Y1.350                              ; traverse to strand L1-4
X-1.800                          ; strand L1-4 (−X)
M161                               ; dispensing OFF
G00 Z18.400                ; lift to travel Z
X-1.350 Y-1.800            ; layer 2 start position
Z0.750                               ; lower to layer 2 Z
M160                               ; dispensing ON
G01 Y1.800                        ; strand L2-1  (+Y)
X-0.450                              ; traverse to strand L2-2
Y-1.800                          ; strand L2-2 (−Y)
X0.450                              ; traverse to strand L2-3
Y1.800                           ; strand L2-3 (+Y)
X1.350                              ; traverse to strand L2-4
Y-1.800                          ; strand L2-4 (−Y)
M161                               ; dispensing OFF
M110=270  ; progress
G805[-32.705, -32.680, 2.620]  ; G55 origin: F2
G55
G00 Z18.400       ; lift to travel Z
M200=750         ; pressure 75.0kPa
F10.000
M110=271              ; progress 271%
G00 G55 X-1.800 Y-1.350    ; layer 1 start
M151                               ; engage tool
Z0.400                              ; lower to layer 1 Z
M160                               ; dispensing ON
G01 X1.800                       ; strand L1-1  (+X)
Y-0.450                              ; traverse to strand L1-2
X-1.800                          ; strand L1-2 (−X)
Y0.450                              ; traverse to strand L1-3
X1.800                           ; strand L1-3 (+X)
Y1.350                              ; traverse to strand L1-4
X-1.800                          ; strand L1-4 (−X)
M161                               ; dispensing OFF
G00 Z18.400                ; lift to travel Z
X-1.350 Y-1.800            ; layer 2 start position
Z0.750                               ; lower to layer 2 Z
M160                               ; dispensing ON
G01 Y1.800                        ; strand L2-1  (+Y)
X-0.450                              ; traverse to strand L2-2
Y-1.800                          ; strand L2-2 (−Y)
X0.450                              ; traverse to strand L2-3
Y1.800                           ; strand L2-3 (+Y)
X1.350                              ; traverse to strand L2-4
Y-1.800                          ; strand L2-4 (−Y)
M161                               ; dispensing OFF
M110=291  ; progress

; ── Col 3 | Sample 36 | P=85kPa  F=5.0mm/s  Z=0.800mm ──
G805[-19.625, 32.720, 2.620]  ; G55 origin: A3
G55

; Changing tool to 'PSD 1'
#FLUSH WAIT
T1
G807[1, 0.002, 0.002]  ; time-based start/stop delays [s]
M200=850         ; pressure 85.0kPa
F5.000               ; nozzle speed
M110=292              ; progress 292%
G00 G55 X-1.800 Y-1.350    ; layer 1 start
M151                               ; engage tool
Z0.800                              ; lower to layer 1 Z
M160                               ; dispensing ON
G01 X1.800                       ; strand L1-1  (+X)
Y-0.450                              ; traverse to strand L1-2
X-1.800                          ; strand L1-2 (−X)
Y0.450                              ; traverse to strand L1-3
X1.800                           ; strand L1-3 (+X)
Y1.350                              ; traverse to strand L1-4
X-1.800                          ; strand L1-4 (−X)
M161                               ; dispensing OFF
G00 Z18.400                ; lift to travel Z
X-1.350 Y-1.800            ; layer 2 start position
Z1.150                               ; lower to layer 2 Z
M160                               ; dispensing ON
G01 Y1.800                        ; strand L2-1  (+Y)
X-0.450                              ; traverse to strand L2-2
Y-1.800                          ; strand L2-2 (−Y)
X0.450                              ; traverse to strand L2-3
Y1.800                           ; strand L2-3 (+Y)
X1.350                              ; traverse to strand L2-4
Y-1.800                          ; strand L2-4 (−Y)
M161                               ; dispensing OFF
M110=312  ; progress
G805[-19.625, 19.640, 2.620]  ; G55 origin: B3
G55
G00 Z18.400       ; lift to travel Z
M200=850         ; pressure 85.0kPa
F5.000
M110=313              ; progress 313%
G00 G55 X-1.800 Y-1.350    ; layer 1 start
M151                               ; engage tool
Z0.800                              ; lower to layer 1 Z
M160                               ; dispensing ON
G01 X1.800                       ; strand L1-1  (+X)
Y-0.450                              ; traverse to strand L1-2
X-1.800                          ; strand L1-2 (−X)
Y0.450                              ; traverse to strand L1-3
X1.800                           ; strand L1-3 (+X)
Y1.350                              ; traverse to strand L1-4
X-1.800                          ; strand L1-4 (−X)
M161                               ; dispensing OFF
G00 Z18.400                ; lift to travel Z
X-1.350 Y-1.800            ; layer 2 start position
Z1.150                               ; lower to layer 2 Z
M160                               ; dispensing ON
G01 Y1.800                        ; strand L2-1  (+Y)
X-0.450                              ; traverse to strand L2-2
Y-1.800                          ; strand L2-2 (−Y)
X0.450                              ; traverse to strand L2-3
Y1.800                           ; strand L2-3 (+Y)
X1.350                              ; traverse to strand L2-4
Y-1.800                          ; strand L2-4 (−Y)
M161                               ; dispensing OFF
M110=333  ; progress
G805[-19.625, 6.560, 2.620]  ; G55 origin: C3
G55
G00 Z18.400       ; lift to travel Z
M200=850         ; pressure 85.0kPa
F5.000
M110=334              ; progress 334%
G00 G55 X-1.800 Y-1.350    ; layer 1 start
M151                               ; engage tool
Z0.800                              ; lower to layer 1 Z
M160                               ; dispensing ON
G01 X1.800                       ; strand L1-1  (+X)
Y-0.450                              ; traverse to strand L1-2
X-1.800                          ; strand L1-2 (−X)
Y0.450                              ; traverse to strand L1-3
X1.800                           ; strand L1-3 (+X)
Y1.350                              ; traverse to strand L1-4
X-1.800                          ; strand L1-4 (−X)
M161                               ; dispensing OFF
G00 Z18.400                ; lift to travel Z
X-1.350 Y-1.800            ; layer 2 start position
Z1.150                               ; lower to layer 2 Z
M160                               ; dispensing ON
G01 Y1.800                        ; strand L2-1  (+Y)
X-0.450                              ; traverse to strand L2-2
Y-1.800                          ; strand L2-2 (−Y)
X0.450                              ; traverse to strand L2-3
Y1.800                           ; strand L2-3 (+Y)
X1.350                              ; traverse to strand L2-4
Y-1.800                          ; strand L2-4 (−Y)
M161                               ; dispensing OFF
M110=354  ; progress
G805[-19.625, -6.520, 2.620]  ; G55 origin: D3
G55
G00 Z18.400       ; lift to travel Z
M200=850         ; pressure 85.0kPa
F5.000
M110=355              ; progress 355%
G00 G55 X-1.800 Y-1.350    ; layer 1 start
M151                               ; engage tool
Z0.800                              ; lower to layer 1 Z
M160                               ; dispensing ON
G01 X1.800                       ; strand L1-1  (+X)
Y-0.450                              ; traverse to strand L1-2
X-1.800                          ; strand L1-2 (−X)
Y0.450                              ; traverse to strand L1-3
X1.800                           ; strand L1-3 (+X)
Y1.350                              ; traverse to strand L1-4
X-1.800                          ; strand L1-4 (−X)
M161                               ; dispensing OFF
G00 Z18.400                ; lift to travel Z
X-1.350 Y-1.800            ; layer 2 start position
Z1.150                               ; lower to layer 2 Z
M160                               ; dispensing ON
G01 Y1.800                        ; strand L2-1  (+Y)
X-0.450                              ; traverse to strand L2-2
Y-1.800                          ; strand L2-2 (−Y)
X0.450                              ; traverse to strand L2-3
Y1.800                           ; strand L2-3 (+Y)
X1.350                              ; traverse to strand L2-4
Y-1.800                          ; strand L2-4 (−Y)
M161                               ; dispensing OFF
M110=375  ; progress
G805[-19.625, -19.600, 2.620]  ; G55 origin: E3
G55
G00 Z18.400       ; lift to travel Z
M200=850         ; pressure 85.0kPa
F5.000
M110=376              ; progress 376%
G00 G55 X-1.800 Y-1.350    ; layer 1 start
M151                               ; engage tool
Z0.800                              ; lower to layer 1 Z
M160                               ; dispensing ON
G01 X1.800                       ; strand L1-1  (+X)
Y-0.450                              ; traverse to strand L1-2
X-1.800                          ; strand L1-2 (−X)
Y0.450                              ; traverse to strand L1-3
X1.800                           ; strand L1-3 (+X)
Y1.350                              ; traverse to strand L1-4
X-1.800                          ; strand L1-4 (−X)
M161                               ; dispensing OFF
G00 Z18.400                ; lift to travel Z
X-1.350 Y-1.800            ; layer 2 start position
Z1.150                               ; lower to layer 2 Z
M160                               ; dispensing ON
G01 Y1.800                        ; strand L2-1  (+Y)
X-0.450                              ; traverse to strand L2-2
Y-1.800                          ; strand L2-2 (−Y)
X0.450                              ; traverse to strand L2-3
Y1.800                           ; strand L2-3 (+Y)
X1.350                              ; traverse to strand L2-4
Y-1.800                          ; strand L2-4 (−Y)
M161                               ; dispensing OFF
M110=396  ; progress
G805[-19.625, -32.680, 2.620]  ; G55 origin: F3
G55
G00 Z18.400       ; lift to travel Z
M200=850         ; pressure 85.0kPa
F5.000
M110=397              ; progress 397%
G00 G55 X-1.800 Y-1.350    ; layer 1 start
M151                               ; engage tool
Z0.800                              ; lower to layer 1 Z
M160                               ; dispensing ON
G01 X1.800                       ; strand L1-1  (+X)
Y-0.450                              ; traverse to strand L1-2
X-1.800                          ; strand L1-2 (−X)
Y0.450                              ; traverse to strand L1-3
X1.800                           ; strand L1-3 (+X)
Y1.350                              ; traverse to strand L1-4
X-1.800                          ; strand L1-4 (−X)
M161                               ; dispensing OFF
G00 Z18.400                ; lift to travel Z
X-1.350 Y-1.800            ; layer 2 start position
Z1.150                               ; lower to layer 2 Z
M160                               ; dispensing ON
G01 Y1.800                        ; strand L2-1  (+Y)
X-0.450                              ; traverse to strand L2-2
Y-1.800                          ; strand L2-2 (−Y)
X0.450                              ; traverse to strand L2-3
Y1.800                           ; strand L2-3 (+Y)
X1.350                              ; traverse to strand L2-4
Y-1.800                          ; strand L2-4 (−Y)
M161                               ; dispensing OFF
M110=417  ; progress

; ── Col 4 | Sample 49 | P=90kPa  F=13.0mm/s  Z=0.700mm ──
G805[-6.545, 32.720, 2.620]  ; G55 origin: A4
G55

; Changing tool to 'PSD 1'
#FLUSH WAIT
T1
G807[1, 0.002, 0.002]  ; time-based start/stop delays [s]
M200=900         ; pressure 90.0kPa
F13.000               ; nozzle speed
M110=418              ; progress 418%
G00 G55 X-1.800 Y-1.350    ; layer 1 start
M151                               ; engage tool
Z0.700                              ; lower to layer 1 Z
M160                               ; dispensing ON
G01 X1.800                       ; strand L1-1  (+X)
Y-0.450                              ; traverse to strand L1-2
X-1.800                          ; strand L1-2 (−X)
Y0.450                              ; traverse to strand L1-3
X1.800                           ; strand L1-3 (+X)
Y1.350                              ; traverse to strand L1-4
X-1.800                          ; strand L1-4 (−X)
M161                               ; dispensing OFF
G00 Z18.400                ; lift to travel Z
X-1.350 Y-1.800            ; layer 2 start position
Z1.050                               ; lower to layer 2 Z
M160                               ; dispensing ON
G01 Y1.800                        ; strand L2-1  (+Y)
X-0.450                              ; traverse to strand L2-2
Y-1.800                          ; strand L2-2 (−Y)
X0.450                              ; traverse to strand L2-3
Y1.800                           ; strand L2-3 (+Y)
X1.350                              ; traverse to strand L2-4
Y-1.800                          ; strand L2-4 (−Y)
M161                               ; dispensing OFF
M110=438  ; progress
G805[-6.545, 19.640, 2.620]  ; G55 origin: B4
G55
G00 Z18.400       ; lift to travel Z
M200=900         ; pressure 90.0kPa
F13.000
M110=439              ; progress 439%
G00 G55 X-1.800 Y-1.350    ; layer 1 start
M151                               ; engage tool
Z0.700                              ; lower to layer 1 Z
M160                               ; dispensing ON
G01 X1.800                       ; strand L1-1  (+X)
Y-0.450                              ; traverse to strand L1-2
X-1.800                          ; strand L1-2 (−X)
Y0.450                              ; traverse to strand L1-3
X1.800                           ; strand L1-3 (+X)
Y1.350                              ; traverse to strand L1-4
X-1.800                          ; strand L1-4 (−X)
M161                               ; dispensing OFF
G00 Z18.400                ; lift to travel Z
X-1.350 Y-1.800            ; layer 2 start position
Z1.050                               ; lower to layer 2 Z
M160                               ; dispensing ON
G01 Y1.800                        ; strand L2-1  (+Y)
X-0.450                              ; traverse to strand L2-2
Y-1.800                          ; strand L2-2 (−Y)
X0.450                              ; traverse to strand L2-3
Y1.800                           ; strand L2-3 (+Y)
X1.350                              ; traverse to strand L2-4
Y-1.800                          ; strand L2-4 (−Y)
M161                               ; dispensing OFF
M110=459  ; progress
G805[-6.545, 6.560, 2.620]  ; G55 origin: C4
G55
G00 Z18.400       ; lift to travel Z
M200=900         ; pressure 90.0kPa
F13.000
M110=460              ; progress 460%
G00 G55 X-1.800 Y-1.350    ; layer 1 start
M151                               ; engage tool
Z0.700                              ; lower to layer 1 Z
M160                               ; dispensing ON
G01 X1.800                       ; strand L1-1  (+X)
Y-0.450                              ; traverse to strand L1-2
X-1.800                          ; strand L1-2 (−X)
Y0.450                              ; traverse to strand L1-3
X1.800                           ; strand L1-3 (+X)
Y1.350                              ; traverse to strand L1-4
X-1.800                          ; strand L1-4 (−X)
M161                               ; dispensing OFF
G00 Z18.400                ; lift to travel Z
X-1.350 Y-1.800            ; layer 2 start position
Z1.050                               ; lower to layer 2 Z
M160                               ; dispensing ON
G01 Y1.800                        ; strand L2-1  (+Y)
X-0.450                              ; traverse to strand L2-2
Y-1.800                          ; strand L2-2 (−Y)
X0.450                              ; traverse to strand L2-3
Y1.800                           ; strand L2-3 (+Y)
X1.350                              ; traverse to strand L2-4
Y-1.800                          ; strand L2-4 (−Y)
M161                               ; dispensing OFF
M110=480  ; progress
G805[-6.545, -6.520, 2.620]  ; G55 origin: D4
G55
G00 Z18.400       ; lift to travel Z
M200=900         ; pressure 90.0kPa
F13.000
M110=481              ; progress 481%
G00 G55 X-1.800 Y-1.350    ; layer 1 start
M151                               ; engage tool
Z0.700                              ; lower to layer 1 Z
M160                               ; dispensing ON
G01 X1.800                       ; strand L1-1  (+X)
Y-0.450                              ; traverse to strand L1-2
X-1.800                          ; strand L1-2 (−X)
Y0.450                              ; traverse to strand L1-3
X1.800                           ; strand L1-3 (+X)
Y1.350                              ; traverse to strand L1-4
X-1.800                          ; strand L1-4 (−X)
M161                               ; dispensing OFF
G00 Z18.400                ; lift to travel Z
X-1.350 Y-1.800            ; layer 2 start position
Z1.050                               ; lower to layer 2 Z
M160                               ; dispensing ON
G01 Y1.800                        ; strand L2-1  (+Y)
X-0.450                              ; traverse to strand L2-2
Y-1.800                          ; strand L2-2 (−Y)
X0.450                              ; traverse to strand L2-3
Y1.800                           ; strand L2-3 (+Y)
X1.350                              ; traverse to strand L2-4
Y-1.800                          ; strand L2-4 (−Y)
M161                               ; dispensing OFF
M110=501  ; progress
G805[-6.545, -19.600, 2.620]  ; G55 origin: E4
G55
G00 Z18.400       ; lift to travel Z
M200=900         ; pressure 90.0kPa
F13.000
M110=502              ; progress 502%
G00 G55 X-1.800 Y-1.350    ; layer 1 start
M151                               ; engage tool
Z0.700                              ; lower to layer 1 Z
M160                               ; dispensing ON
G01 X1.800                       ; strand L1-1  (+X)
Y-0.450                              ; traverse to strand L1-2
X-1.800                          ; strand L1-2 (−X)
Y0.450                              ; traverse to strand L1-3
X1.800                           ; strand L1-3 (+X)
Y1.350                              ; traverse to strand L1-4
X-1.800                          ; strand L1-4 (−X)
M161                               ; dispensing OFF
G00 Z18.400                ; lift to travel Z
X-1.350 Y-1.800            ; layer 2 start position
Z1.050                               ; lower to layer 2 Z
M160                               ; dispensing ON
G01 Y1.800                        ; strand L2-1  (+Y)
X-0.450                              ; traverse to strand L2-2
Y-1.800                          ; strand L2-2 (−Y)
X0.450                              ; traverse to strand L2-3
Y1.800                           ; strand L2-3 (+Y)
X1.350                              ; traverse to strand L2-4
Y-1.800                          ; strand L2-4 (−Y)
M161                               ; dispensing OFF
M110=522  ; progress
G805[-6.545, -32.680, 2.620]  ; G55 origin: F4
G55
G00 Z18.400       ; lift to travel Z
M200=900         ; pressure 90.0kPa
F13.000
M110=523              ; progress 523%
G00 G55 X-1.800 Y-1.350    ; layer 1 start
M151                               ; engage tool
Z0.700                              ; lower to layer 1 Z
M160                               ; dispensing ON
G01 X1.800                       ; strand L1-1  (+X)
Y-0.450                              ; traverse to strand L1-2
X-1.800                          ; strand L1-2 (−X)
Y0.450                              ; traverse to strand L1-3
X1.800                           ; strand L1-3 (+X)
Y1.350                              ; traverse to strand L1-4
X-1.800                          ; strand L1-4 (−X)
M161                               ; dispensing OFF
G00 Z18.400                ; lift to travel Z
X-1.350 Y-1.800            ; layer 2 start position
Z1.050                               ; lower to layer 2 Z
M160                               ; dispensing ON
G01 Y1.800                        ; strand L2-1  (+Y)
X-0.450                              ; traverse to strand L2-2
Y-1.800                          ; strand L2-2 (−Y)
X0.450                              ; traverse to strand L2-3
Y1.800                           ; strand L2-3 (+Y)
X1.350                              ; traverse to strand L2-4
Y-1.800                          ; strand L2-4 (−Y)
M161                               ; dispensing OFF
M110=543  ; progress

; ── Col 5 | Sample 62 | P=100kPa  F=8.0mm/s  Z=0.700mm ──
G805[6.535, 32.720, 2.620]  ; G55 origin: A5
G55

; Changing tool to 'PSD 1'
#FLUSH WAIT
T1
G807[1, 0.002, 0.002]  ; time-based start/stop delays [s]
M200=1000         ; pressure 100.0kPa
F8.000               ; nozzle speed
M110=544              ; progress 544%
G00 G55 X-1.800 Y-1.350    ; layer 1 start
M151                               ; engage tool
Z0.700                              ; lower to layer 1 Z
M160                               ; dispensing ON
G01 X1.800                       ; strand L1-1  (+X)
Y-0.450                              ; traverse to strand L1-2
X-1.800                          ; strand L1-2 (−X)
Y0.450                              ; traverse to strand L1-3
X1.800                           ; strand L1-3 (+X)
Y1.350                              ; traverse to strand L1-4
X-1.800                          ; strand L1-4 (−X)
M161                               ; dispensing OFF
G00 Z18.400                ; lift to travel Z
X-1.350 Y-1.800            ; layer 2 start position
Z1.050                               ; lower to layer 2 Z
M160                               ; dispensing ON
G01 Y1.800                        ; strand L2-1  (+Y)
X-0.450                              ; traverse to strand L2-2
Y-1.800                          ; strand L2-2 (−Y)
X0.450                              ; traverse to strand L2-3
Y1.800                           ; strand L2-3 (+Y)
X1.350                              ; traverse to strand L2-4
Y-1.800                          ; strand L2-4 (−Y)
M161                               ; dispensing OFF
M110=564  ; progress
G805[6.535, 19.640, 2.620]  ; G55 origin: B5
G55
G00 Z18.400       ; lift to travel Z
M200=1000         ; pressure 100.0kPa
F8.000
M110=565              ; progress 565%
G00 G55 X-1.800 Y-1.350    ; layer 1 start
M151                               ; engage tool
Z0.700                              ; lower to layer 1 Z
M160                               ; dispensing ON
G01 X1.800                       ; strand L1-1  (+X)
Y-0.450                              ; traverse to strand L1-2
X-1.800                          ; strand L1-2 (−X)
Y0.450                              ; traverse to strand L1-3
X1.800                           ; strand L1-3 (+X)
Y1.350                              ; traverse to strand L1-4
X-1.800                          ; strand L1-4 (−X)
M161                               ; dispensing OFF
G00 Z18.400                ; lift to travel Z
X-1.350 Y-1.800            ; layer 2 start position
Z1.050                               ; lower to layer 2 Z
M160                               ; dispensing ON
G01 Y1.800                        ; strand L2-1  (+Y)
X-0.450                              ; traverse to strand L2-2
Y-1.800                          ; strand L2-2 (−Y)
X0.450                              ; traverse to strand L2-3
Y1.800                           ; strand L2-3 (+Y)
X1.350                              ; traverse to strand L2-4
Y-1.800                          ; strand L2-4 (−Y)
M161                               ; dispensing OFF
M110=585  ; progress
G805[6.535, 6.560, 2.620]  ; G55 origin: C5
G55
G00 Z18.400       ; lift to travel Z
M200=1000         ; pressure 100.0kPa
F8.000
M110=586              ; progress 586%
G00 G55 X-1.800 Y-1.350    ; layer 1 start
M151                               ; engage tool
Z0.700                              ; lower to layer 1 Z
M160                               ; dispensing ON
G01 X1.800                       ; strand L1-1  (+X)
Y-0.450                              ; traverse to strand L1-2
X-1.800                          ; strand L1-2 (−X)
Y0.450                              ; traverse to strand L1-3
X1.800                           ; strand L1-3 (+X)
Y1.350                              ; traverse to strand L1-4
X-1.800                          ; strand L1-4 (−X)
M161                               ; dispensing OFF
G00 Z18.400                ; lift to travel Z
X-1.350 Y-1.800            ; layer 2 start position
Z1.050                               ; lower to layer 2 Z
M160                               ; dispensing ON
G01 Y1.800                        ; strand L2-1  (+Y)
X-0.450                              ; traverse to strand L2-2
Y-1.800                          ; strand L2-2 (−Y)
X0.450                              ; traverse to strand L2-3
Y1.800                           ; strand L2-3 (+Y)
X1.350                              ; traverse to strand L2-4
Y-1.800                          ; strand L2-4 (−Y)
M161                               ; dispensing OFF
M110=606  ; progress
G805[6.535, -6.520, 2.620]  ; G55 origin: D5
G55
G00 Z18.400       ; lift to travel Z
M200=1000         ; pressure 100.0kPa
F8.000
M110=607              ; progress 607%
G00 G55 X-1.800 Y-1.350    ; layer 1 start
M151                               ; engage tool
Z0.700                              ; lower to layer 1 Z
M160                               ; dispensing ON
G01 X1.800                       ; strand L1-1  (+X)
Y-0.450                              ; traverse to strand L1-2
X-1.800                          ; strand L1-2 (−X)
Y0.450                              ; traverse to strand L1-3
X1.800                           ; strand L1-3 (+X)
Y1.350                              ; traverse to strand L1-4
X-1.800                          ; strand L1-4 (−X)
M161                               ; dispensing OFF
G00 Z18.400                ; lift to travel Z
X-1.350 Y-1.800            ; layer 2 start position
Z1.050                               ; lower to layer 2 Z
M160                               ; dispensing ON
G01 Y1.800                        ; strand L2-1  (+Y)
X-0.450                              ; traverse to strand L2-2
Y-1.800                          ; strand L2-2 (−Y)
X0.450                              ; traverse to strand L2-3
Y1.800                           ; strand L2-3 (+Y)
X1.350                              ; traverse to strand L2-4
Y-1.800                          ; strand L2-4 (−Y)
M161                               ; dispensing OFF
M110=627  ; progress
G805[6.535, -19.600, 2.620]  ; G55 origin: E5
G55
G00 Z18.400       ; lift to travel Z
M200=1000         ; pressure 100.0kPa
F8.000
M110=628              ; progress 628%
G00 G55 X-1.800 Y-1.350    ; layer 1 start
M151                               ; engage tool
Z0.700                              ; lower to layer 1 Z
M160                               ; dispensing ON
G01 X1.800                       ; strand L1-1  (+X)
Y-0.450                              ; traverse to strand L1-2
X-1.800                          ; strand L1-2 (−X)
Y0.450                              ; traverse to strand L1-3
X1.800                           ; strand L1-3 (+X)
Y1.350                              ; traverse to strand L1-4
X-1.800                          ; strand L1-4 (−X)
M161                               ; dispensing OFF
G00 Z18.400                ; lift to travel Z
X-1.350 Y-1.800            ; layer 2 start position
Z1.050                               ; lower to layer 2 Z
M160                               ; dispensing ON
G01 Y1.800                        ; strand L2-1  (+Y)
X-0.450                              ; traverse to strand L2-2
Y-1.800                          ; strand L2-2 (−Y)
X0.450                              ; traverse to strand L2-3
Y1.800                           ; strand L2-3 (+Y)
X1.350                              ; traverse to strand L2-4
Y-1.800                          ; strand L2-4 (−Y)
M161                               ; dispensing OFF
M110=648  ; progress
G805[6.535, -32.680, 2.620]  ; G55 origin: F5
G55
G00 Z18.400       ; lift to travel Z
M200=1000         ; pressure 100.0kPa
F8.000
M110=649              ; progress 649%
G00 G55 X-1.800 Y-1.350    ; layer 1 start
M151                               ; engage tool
Z0.700                              ; lower to layer 1 Z
M160                               ; dispensing ON
G01 X1.800                       ; strand L1-1  (+X)
Y-0.450                              ; traverse to strand L1-2
X-1.800                          ; strand L1-2 (−X)
Y0.450                              ; traverse to strand L1-3
X1.800                           ; strand L1-3 (+X)
Y1.350                              ; traverse to strand L1-4
X-1.800                          ; strand L1-4 (−X)
M161                               ; dispensing OFF
G00 Z18.400                ; lift to travel Z
X-1.350 Y-1.800            ; layer 2 start position
Z1.050                               ; lower to layer 2 Z
M160                               ; dispensing ON
G01 Y1.800                        ; strand L2-1  (+Y)
X-0.450                              ; traverse to strand L2-2
Y-1.800                          ; strand L2-2 (−Y)
X0.450                              ; traverse to strand L2-3
Y1.800                           ; strand L2-3 (+Y)
X1.350                              ; traverse to strand L2-4
Y-1.800                          ; strand L2-4 (−Y)
M161                               ; dispensing OFF
M110=669  ; progress

; ── Col 6 | Sample 75 | P=105kPa  F=15.0mm/s  Z=0.600mm ──
G805[19.615, 32.720, 2.620]  ; G55 origin: A6
G55

; Changing tool to 'PSD 1'
#FLUSH WAIT
T1
G807[1, 0.002, 0.002]  ; time-based start/stop delays [s]
M200=1050         ; pressure 105.0kPa
F15.000               ; nozzle speed
M110=670              ; progress 670%
G00 G55 X-1.800 Y-1.350    ; layer 1 start
M151                               ; engage tool
Z0.600                              ; lower to layer 1 Z
M160                               ; dispensing ON
G01 X1.800                       ; strand L1-1  (+X)
Y-0.450                              ; traverse to strand L1-2
X-1.800                          ; strand L1-2 (−X)
Y0.450                              ; traverse to strand L1-3
X1.800                           ; strand L1-3 (+X)
Y1.350                              ; traverse to strand L1-4
X-1.800                          ; strand L1-4 (−X)
M161                               ; dispensing OFF
G00 Z18.400                ; lift to travel Z
X-1.350 Y-1.800            ; layer 2 start position
Z0.950                               ; lower to layer 2 Z
M160                               ; dispensing ON
G01 Y1.800                        ; strand L2-1  (+Y)
X-0.450                              ; traverse to strand L2-2
Y-1.800                          ; strand L2-2 (−Y)
X0.450                              ; traverse to strand L2-3
Y1.800                           ; strand L2-3 (+Y)
X1.350                              ; traverse to strand L2-4
Y-1.800                          ; strand L2-4 (−Y)
M161                               ; dispensing OFF
M110=690  ; progress
G805[19.615, 19.640, 2.620]  ; G55 origin: B6
G55
G00 Z18.400       ; lift to travel Z
M200=1050         ; pressure 105.0kPa
F15.000
M110=691              ; progress 691%
G00 G55 X-1.800 Y-1.350    ; layer 1 start
M151                               ; engage tool
Z0.600                              ; lower to layer 1 Z
M160                               ; dispensing ON
G01 X1.800                       ; strand L1-1  (+X)
Y-0.450                              ; traverse to strand L1-2
X-1.800                          ; strand L1-2 (−X)
Y0.450                              ; traverse to strand L1-3
X1.800                           ; strand L1-3 (+X)
Y1.350                              ; traverse to strand L1-4
X-1.800                          ; strand L1-4 (−X)
M161                               ; dispensing OFF
G00 Z18.400                ; lift to travel Z
X-1.350 Y-1.800            ; layer 2 start position
Z0.950                               ; lower to layer 2 Z
M160                               ; dispensing ON
G01 Y1.800                        ; strand L2-1  (+Y)
X-0.450                              ; traverse to strand L2-2
Y-1.800                          ; strand L2-2 (−Y)
X0.450                              ; traverse to strand L2-3
Y1.800                           ; strand L2-3 (+Y)
X1.350                              ; traverse to strand L2-4
Y-1.800                          ; strand L2-4 (−Y)
M161                               ; dispensing OFF
M110=711  ; progress
G805[19.615, 6.560, 2.620]  ; G55 origin: C6
G55
G00 Z18.400       ; lift to travel Z
M200=1050         ; pressure 105.0kPa
F15.000
M110=712              ; progress 712%
G00 G55 X-1.800 Y-1.350    ; layer 1 start
M151                               ; engage tool
Z0.600                              ; lower to layer 1 Z
M160                               ; dispensing ON
G01 X1.800                       ; strand L1-1  (+X)
Y-0.450                              ; traverse to strand L1-2
X-1.800                          ; strand L1-2 (−X)
Y0.450                              ; traverse to strand L1-3
X1.800                           ; strand L1-3 (+X)
Y1.350                              ; traverse to strand L1-4
X-1.800                          ; strand L1-4 (−X)
M161                               ; dispensing OFF
G00 Z18.400                ; lift to travel Z
X-1.350 Y-1.800            ; layer 2 start position
Z0.950                               ; lower to layer 2 Z
M160                               ; dispensing ON
G01 Y1.800                        ; strand L2-1  (+Y)
X-0.450                              ; traverse to strand L2-2
Y-1.800                          ; strand L2-2 (−Y)
X0.450                              ; traverse to strand L2-3
Y1.800                           ; strand L2-3 (+Y)
X1.350                              ; traverse to strand L2-4
Y-1.800                          ; strand L2-4 (−Y)
M161                               ; dispensing OFF
M110=732  ; progress
G805[19.615, -6.520, 2.620]  ; G55 origin: D6
G55
G00 Z18.400       ; lift to travel Z
M200=1050         ; pressure 105.0kPa
F15.000
M110=733              ; progress 733%
G00 G55 X-1.800 Y-1.350    ; layer 1 start
M151                               ; engage tool
Z0.600                              ; lower to layer 1 Z
M160                               ; dispensing ON
G01 X1.800                       ; strand L1-1  (+X)
Y-0.450                              ; traverse to strand L1-2
X-1.800                          ; strand L1-2 (−X)
Y0.450                              ; traverse to strand L1-3
X1.800                           ; strand L1-3 (+X)
Y1.350                              ; traverse to strand L1-4
X-1.800                          ; strand L1-4 (−X)
M161                               ; dispensing OFF
G00 Z18.400                ; lift to travel Z
X-1.350 Y-1.800            ; layer 2 start position
Z0.950                               ; lower to layer 2 Z
M160                               ; dispensing ON
G01 Y1.800                        ; strand L2-1  (+Y)
X-0.450                              ; traverse to strand L2-2
Y-1.800                          ; strand L2-2 (−Y)
X0.450                              ; traverse to strand L2-3
Y1.800                           ; strand L2-3 (+Y)
X1.350                              ; traverse to strand L2-4
Y-1.800                          ; strand L2-4 (−Y)
M161                               ; dispensing OFF
M110=753  ; progress
G805[19.615, -19.600, 2.620]  ; G55 origin: E6
G55
G00 Z18.400       ; lift to travel Z
M200=1050         ; pressure 105.0kPa
F15.000
M110=754              ; progress 754%
G00 G55 X-1.800 Y-1.350    ; layer 1 start
M151                               ; engage tool
Z0.600                              ; lower to layer 1 Z
M160                               ; dispensing ON
G01 X1.800                       ; strand L1-1  (+X)
Y-0.450                              ; traverse to strand L1-2
X-1.800                          ; strand L1-2 (−X)
Y0.450                              ; traverse to strand L1-3
X1.800                           ; strand L1-3 (+X)
Y1.350                              ; traverse to strand L1-4
X-1.800                          ; strand L1-4 (−X)
M161                               ; dispensing OFF
G00 Z18.400                ; lift to travel Z
X-1.350 Y-1.800            ; layer 2 start position
Z0.950                               ; lower to layer 2 Z
M160                               ; dispensing ON
G01 Y1.800                        ; strand L2-1  (+Y)
X-0.450                              ; traverse to strand L2-2
Y-1.800                          ; strand L2-2 (−Y)
X0.450                              ; traverse to strand L2-3
Y1.800                           ; strand L2-3 (+Y)
X1.350                              ; traverse to strand L2-4
Y-1.800                          ; strand L2-4 (−Y)
M161                               ; dispensing OFF
M110=774  ; progress
G805[19.615, -32.680, 2.620]  ; G55 origin: F6
G55
G00 Z18.400       ; lift to travel Z
M200=1050         ; pressure 105.0kPa
F15.000
M110=775              ; progress 775%
G00 G55 X-1.800 Y-1.350    ; layer 1 start
M151                               ; engage tool
Z0.600                              ; lower to layer 1 Z
M160                               ; dispensing ON
G01 X1.800                       ; strand L1-1  (+X)
Y-0.450                              ; traverse to strand L1-2
X-1.800                          ; strand L1-2 (−X)
Y0.450                              ; traverse to strand L1-3
X1.800                           ; strand L1-3 (+X)
Y1.350                              ; traverse to strand L1-4
X-1.800                          ; strand L1-4 (−X)
M161                               ; dispensing OFF
G00 Z18.400                ; lift to travel Z
X-1.350 Y-1.800            ; layer 2 start position
Z0.950                               ; lower to layer 2 Z
M160                               ; dispensing ON
G01 Y1.800                        ; strand L2-1  (+Y)
X-0.450                              ; traverse to strand L2-2
Y-1.800                          ; strand L2-2 (−Y)
X0.450                              ; traverse to strand L2-3
Y1.800                           ; strand L2-3 (+Y)
X1.350                              ; traverse to strand L2-4
Y-1.800                          ; strand L2-4 (−Y)
M161                               ; dispensing OFF
M110=795  ; progress

; ── Col 7 | Sample 88 | P=115kPa  F=9.0mm/s  Z=0.500mm ──
G805[32.695, 32.720, 2.620]  ; G55 origin: A7
G55

; Changing tool to 'PSD 1'
#FLUSH WAIT
T1
G807[1, 0.002, 0.002]  ; time-based start/stop delays [s]
M200=1150         ; pressure 115.0kPa
F9.000               ; nozzle speed
M110=796              ; progress 796%
G00 G55 X-1.800 Y-1.350    ; layer 1 start
M151                               ; engage tool
Z0.500                              ; lower to layer 1 Z
M160                               ; dispensing ON
G01 X1.800                       ; strand L1-1  (+X)
Y-0.450                              ; traverse to strand L1-2
X-1.800                          ; strand L1-2 (−X)
Y0.450                              ; traverse to strand L1-3
X1.800                           ; strand L1-3 (+X)
Y1.350                              ; traverse to strand L1-4
X-1.800                          ; strand L1-4 (−X)
M161                               ; dispensing OFF
G00 Z18.400                ; lift to travel Z
X-1.350 Y-1.800            ; layer 2 start position
Z0.850                               ; lower to layer 2 Z
M160                               ; dispensing ON
G01 Y1.800                        ; strand L2-1  (+Y)
X-0.450                              ; traverse to strand L2-2
Y-1.800                          ; strand L2-2 (−Y)
X0.450                              ; traverse to strand L2-3
Y1.800                           ; strand L2-3 (+Y)
X1.350                              ; traverse to strand L2-4
Y-1.800                          ; strand L2-4 (−Y)
M161                               ; dispensing OFF
M110=816  ; progress
G805[32.695, 19.640, 2.620]  ; G55 origin: B7
G55
G00 Z18.400       ; lift to travel Z
M200=1150         ; pressure 115.0kPa
F9.000
M110=817              ; progress 817%
G00 G55 X-1.800 Y-1.350    ; layer 1 start
M151                               ; engage tool
Z0.500                              ; lower to layer 1 Z
M160                               ; dispensing ON
G01 X1.800                       ; strand L1-1  (+X)
Y-0.450                              ; traverse to strand L1-2
X-1.800                          ; strand L1-2 (−X)
Y0.450                              ; traverse to strand L1-3
X1.800                           ; strand L1-3 (+X)
Y1.350                              ; traverse to strand L1-4
X-1.800                          ; strand L1-4 (−X)
M161                               ; dispensing OFF
G00 Z18.400                ; lift to travel Z
X-1.350 Y-1.800            ; layer 2 start position
Z0.850                               ; lower to layer 2 Z
M160                               ; dispensing ON
G01 Y1.800                        ; strand L2-1  (+Y)
X-0.450                              ; traverse to strand L2-2
Y-1.800                          ; strand L2-2 (−Y)
X0.450                              ; traverse to strand L2-3
Y1.800                           ; strand L2-3 (+Y)
X1.350                              ; traverse to strand L2-4
Y-1.800                          ; strand L2-4 (−Y)
M161                               ; dispensing OFF
M110=837  ; progress
G805[32.695, 6.560, 2.620]  ; G55 origin: C7
G55
G00 Z18.400       ; lift to travel Z
M200=1150         ; pressure 115.0kPa
F9.000
M110=838              ; progress 838%
G00 G55 X-1.800 Y-1.350    ; layer 1 start
M151                               ; engage tool
Z0.500                              ; lower to layer 1 Z
M160                               ; dispensing ON
G01 X1.800                       ; strand L1-1  (+X)
Y-0.450                              ; traverse to strand L1-2
X-1.800                          ; strand L1-2 (−X)
Y0.450                              ; traverse to strand L1-3
X1.800                           ; strand L1-3 (+X)
Y1.350                              ; traverse to strand L1-4
X-1.800                          ; strand L1-4 (−X)
M161                               ; dispensing OFF
G00 Z18.400                ; lift to travel Z
X-1.350 Y-1.800            ; layer 2 start position
Z0.850                               ; lower to layer 2 Z
M160                               ; dispensing ON
G01 Y1.800                        ; strand L2-1  (+Y)
X-0.450                              ; traverse to strand L2-2
Y-1.800                          ; strand L2-2 (−Y)
X0.450                              ; traverse to strand L2-3
Y1.800                           ; strand L2-3 (+Y)
X1.350                              ; traverse to strand L2-4
Y-1.800                          ; strand L2-4 (−Y)
M161                               ; dispensing OFF
M110=858  ; progress
G805[32.695, -6.520, 2.620]  ; G55 origin: D7
G55
G00 Z18.400       ; lift to travel Z
M200=1150         ; pressure 115.0kPa
F9.000
M110=859              ; progress 859%
G00 G55 X-1.800 Y-1.350    ; layer 1 start
M151                               ; engage tool
Z0.500                              ; lower to layer 1 Z
M160                               ; dispensing ON
G01 X1.800                       ; strand L1-1  (+X)
Y-0.450                              ; traverse to strand L1-2
X-1.800                          ; strand L1-2 (−X)
Y0.450                              ; traverse to strand L1-3
X1.800                           ; strand L1-3 (+X)
Y1.350                              ; traverse to strand L1-4
X-1.800                          ; strand L1-4 (−X)
M161                               ; dispensing OFF
G00 Z18.400                ; lift to travel Z
X-1.350 Y-1.800            ; layer 2 start position
Z0.850                               ; lower to layer 2 Z
M160                               ; dispensing ON
G01 Y1.800                        ; strand L2-1  (+Y)
X-0.450                              ; traverse to strand L2-2
Y-1.800                          ; strand L2-2 (−Y)
X0.450                              ; traverse to strand L2-3
Y1.800                           ; strand L2-3 (+Y)
X1.350                              ; traverse to strand L2-4
Y-1.800                          ; strand L2-4 (−Y)
M161                               ; dispensing OFF
M110=879  ; progress
G805[32.695, -19.600, 2.620]  ; G55 origin: E7
G55
G00 Z18.400       ; lift to travel Z
M200=1150         ; pressure 115.0kPa
F9.000
M110=880              ; progress 880%
G00 G55 X-1.800 Y-1.350    ; layer 1 start
M151                               ; engage tool
Z0.500                              ; lower to layer 1 Z
M160                               ; dispensing ON
G01 X1.800                       ; strand L1-1  (+X)
Y-0.450                              ; traverse to strand L1-2
X-1.800                          ; strand L1-2 (−X)
Y0.450                              ; traverse to strand L1-3
X1.800                           ; strand L1-3 (+X)
Y1.350                              ; traverse to strand L1-4
X-1.800                          ; strand L1-4 (−X)
M161                               ; dispensing OFF
G00 Z18.400                ; lift to travel Z
X-1.350 Y-1.800            ; layer 2 start position
Z0.850                               ; lower to layer 2 Z
M160                               ; dispensing ON
G01 Y1.800                        ; strand L2-1  (+Y)
X-0.450                              ; traverse to strand L2-2
Y-1.800                          ; strand L2-2 (−Y)
X0.450                              ; traverse to strand L2-3
Y1.800                           ; strand L2-3 (+Y)
X1.350                              ; traverse to strand L2-4
Y-1.800                          ; strand L2-4 (−Y)
M161                               ; dispensing OFF
M110=900  ; progress
G805[32.695, -32.680, 2.620]  ; G55 origin: F7
G55
G00 Z18.400       ; lift to travel Z
M200=1150         ; pressure 115.0kPa
F9.000
M110=901              ; progress 901%
G00 G55 X-1.800 Y-1.350    ; layer 1 start
M151                               ; engage tool
Z0.500                              ; lower to layer 1 Z
M160                               ; dispensing ON
G01 X1.800                       ; strand L1-1  (+X)
Y-0.450                              ; traverse to strand L1-2
X-1.800                          ; strand L1-2 (−X)
Y0.450                              ; traverse to strand L1-3
X1.800                           ; strand L1-3 (+X)
Y1.350                              ; traverse to strand L1-4
X-1.800                          ; strand L1-4 (−X)
M161                               ; dispensing OFF
G00 Z18.400                ; lift to travel Z
X-1.350 Y-1.800            ; layer 2 start position
Z0.850                               ; lower to layer 2 Z
M160                               ; dispensing ON
G01 Y1.800                        ; strand L2-1  (+Y)
X-0.450                              ; traverse to strand L2-2
Y-1.800                          ; strand L2-2 (−Y)
X0.450                              ; traverse to strand L2-3
Y1.800                           ; strand L2-3 (+Y)
X1.350                              ; traverse to strand L2-4
Y-1.800                          ; strand L2-4 (−Y)
M161                               ; dispensing OFF
M110=921  ; progress

#FLUSH WAIT

; ============================================================
; CAMERA IMAGING POSITIONS
; Wells: A1, B1, C1, D1, E1, F1, A2, B2, C2, D2, E2, F2, A3, B3, C3, D3, E3, F3, A4, B4, C4, D4, E4, F4, A5, B5, C5, D5, E5, F5, A6, B6, C6, D6, E6, F6, A7, B7, C7, D7, E7, F7
; Column-major order: col1 (A1-F1) -> col2 (A2-F2) -> ...
; Slot 1 selected (T1) — camera physically at slot 5.
; Z safe travel = 22.34 mm  |  Z imaging = 2.24 mm
; ============================================================

#FLUSH WAIT
#CONTOUR MODE OFF          ; Exit tracking mode from printing
#FLUSH WAIT

T1                         ; Select slot 1 (coordinate frame reference)
G803                       ; Move to system safe height

; --- Well A1 ---
G00 G54 G90 Z22.340          ; Raise to safe Z first
G00 X-234.090 Y95.780              ; Move XY to A1
G00 Z2.240                ; Lower to imaging height
V.E.UserInteraction.Message = "Camera at A1 - trigger imaging, then click OK"
M121                       ; Pause for manual camera trigger

; --- Well B1 ---
G00 G54 G90 Z22.340          ; Raise to safe Z first
G00 X-234.090 Y82.750              ; Move XY to B1
G00 Z2.240                ; Lower to imaging height
V.E.UserInteraction.Message = "Camera at B1 - trigger imaging, then click OK"
M121                       ; Pause for manual camera trigger

; --- Well C1 ---
G00 G54 G90 Z22.340          ; Raise to safe Z first
G00 X-234.090 Y69.720              ; Move XY to C1
G00 Z2.240                ; Lower to imaging height
V.E.UserInteraction.Message = "Camera at C1 - trigger imaging, then click OK"
M121                       ; Pause for manual camera trigger

; --- Well D1 ---
G00 G54 G90 Z22.340          ; Raise to safe Z first
G00 X-234.090 Y56.690              ; Move XY to D1
G00 Z2.240                ; Lower to imaging height
V.E.UserInteraction.Message = "Camera at D1 - trigger imaging, then click OK"
M121                       ; Pause for manual camera trigger

; --- Well E1 ---
G00 G54 G90 Z22.340          ; Raise to safe Z first
G00 X-234.090 Y43.660              ; Move XY to E1
G00 Z2.240                ; Lower to imaging height
V.E.UserInteraction.Message = "Camera at E1 - trigger imaging, then click OK"
M121                       ; Pause for manual camera trigger

; --- Well F1 ---
G00 G54 G90 Z22.340          ; Raise to safe Z first
G00 X-234.090 Y30.630              ; Move XY to F1
G00 Z2.240                ; Lower to imaging height
V.E.UserInteraction.Message = "Camera at F1 - trigger imaging, then click OK"
M121                       ; Pause for manual camera trigger

; --- Well A2 ---
G00 G54 G90 Z22.340          ; Raise to safe Z first
G00 X-221.099 Y95.780              ; Move XY to A2
G00 Z2.240                ; Lower to imaging height
V.E.UserInteraction.Message = "Camera at A2 - trigger imaging, then click OK"
M121                       ; Pause for manual camera trigger

; --- Well B2 ---
G00 G54 G90 Z22.340          ; Raise to safe Z first
G00 X-221.099 Y82.750              ; Move XY to B2
G00 Z2.240                ; Lower to imaging height
V.E.UserInteraction.Message = "Camera at B2 - trigger imaging, then click OK"
M121                       ; Pause for manual camera trigger

; --- Well C2 ---
G00 G54 G90 Z22.340          ; Raise to safe Z first
G00 X-221.099 Y69.720              ; Move XY to C2
G00 Z2.240                ; Lower to imaging height
V.E.UserInteraction.Message = "Camera at C2 - trigger imaging, then click OK"
M121                       ; Pause for manual camera trigger

; --- Well D2 ---
G00 G54 G90 Z22.340          ; Raise to safe Z first
G00 X-221.099 Y56.690              ; Move XY to D2
G00 Z2.240                ; Lower to imaging height
V.E.UserInteraction.Message = "Camera at D2 - trigger imaging, then click OK"
M121                       ; Pause for manual camera trigger

; --- Well E2 ---
G00 G54 G90 Z22.340          ; Raise to safe Z first
G00 X-221.099 Y43.660              ; Move XY to E2
G00 Z2.240                ; Lower to imaging height
V.E.UserInteraction.Message = "Camera at E2 - trigger imaging, then click OK"
M121                       ; Pause for manual camera trigger

; --- Well F2 ---
G00 G54 G90 Z22.340          ; Raise to safe Z first
G00 X-221.099 Y30.630              ; Move XY to F2
G00 Z2.240                ; Lower to imaging height
V.E.UserInteraction.Message = "Camera at F2 - trigger imaging, then click OK"
M121                       ; Pause for manual camera trigger

; --- Well A3 ---
G00 G54 G90 Z22.340          ; Raise to safe Z first
G00 X-208.107 Y95.780              ; Move XY to A3
G00 Z2.240                ; Lower to imaging height
V.E.UserInteraction.Message = "Camera at A3 - trigger imaging, then click OK"
M121                       ; Pause for manual camera trigger

; --- Well B3 ---
G00 G54 G90 Z22.340          ; Raise to safe Z first
G00 X-208.107 Y82.750              ; Move XY to B3
G00 Z2.240                ; Lower to imaging height
V.E.UserInteraction.Message = "Camera at B3 - trigger imaging, then click OK"
M121                       ; Pause for manual camera trigger

; --- Well C3 ---
G00 G54 G90 Z22.340          ; Raise to safe Z first
G00 X-208.107 Y69.720              ; Move XY to C3
G00 Z2.240                ; Lower to imaging height
V.E.UserInteraction.Message = "Camera at C3 - trigger imaging, then click OK"
M121                       ; Pause for manual camera trigger

; --- Well D3 ---
G00 G54 G90 Z22.340          ; Raise to safe Z first
G00 X-208.107 Y56.690              ; Move XY to D3
G00 Z2.240                ; Lower to imaging height
V.E.UserInteraction.Message = "Camera at D3 - trigger imaging, then click OK"
M121                       ; Pause for manual camera trigger

; --- Well E3 ---
G00 G54 G90 Z22.340          ; Raise to safe Z first
G00 X-208.107 Y43.660              ; Move XY to E3
G00 Z2.240                ; Lower to imaging height
V.E.UserInteraction.Message = "Camera at E3 - trigger imaging, then click OK"
M121                       ; Pause for manual camera trigger

; --- Well F3 ---
G00 G54 G90 Z22.340          ; Raise to safe Z first
G00 X-208.107 Y30.630              ; Move XY to F3
G00 Z2.240                ; Lower to imaging height
V.E.UserInteraction.Message = "Camera at F3 - trigger imaging, then click OK"
M121                       ; Pause for manual camera trigger

; --- Well A4 ---
G00 G54 G90 Z22.340          ; Raise to safe Z first
G00 X-195.116 Y95.780              ; Move XY to A4
G00 Z2.240                ; Lower to imaging height
V.E.UserInteraction.Message = "Camera at A4 - trigger imaging, then click OK"
M121                       ; Pause for manual camera trigger

; --- Well B4 ---
G00 G54 G90 Z22.340          ; Raise to safe Z first
G00 X-195.116 Y82.750              ; Move XY to B4
G00 Z2.240                ; Lower to imaging height
V.E.UserInteraction.Message = "Camera at B4 - trigger imaging, then click OK"
M121                       ; Pause for manual camera trigger

; --- Well C4 ---
G00 G54 G90 Z22.340          ; Raise to safe Z first
G00 X-195.116 Y69.720              ; Move XY to C4
G00 Z2.240                ; Lower to imaging height
V.E.UserInteraction.Message = "Camera at C4 - trigger imaging, then click OK"
M121                       ; Pause for manual camera trigger

; --- Well D4 ---
G00 G54 G90 Z22.340          ; Raise to safe Z first
G00 X-195.116 Y56.690              ; Move XY to D4
G00 Z2.240                ; Lower to imaging height
V.E.UserInteraction.Message = "Camera at D4 - trigger imaging, then click OK"
M121                       ; Pause for manual camera trigger

; --- Well E4 ---
G00 G54 G90 Z22.340          ; Raise to safe Z first
G00 X-195.116 Y43.660              ; Move XY to E4
G00 Z2.240                ; Lower to imaging height
V.E.UserInteraction.Message = "Camera at E4 - trigger imaging, then click OK"
M121                       ; Pause for manual camera trigger

; --- Well F4 ---
G00 G54 G90 Z22.340          ; Raise to safe Z first
G00 X-195.116 Y30.630              ; Move XY to F4
G00 Z2.240                ; Lower to imaging height
V.E.UserInteraction.Message = "Camera at F4 - trigger imaging, then click OK"
M121                       ; Pause for manual camera trigger

; --- Well A5 ---
G00 G54 G90 Z22.340          ; Raise to safe Z first
G00 X-182.124 Y95.780              ; Move XY to A5
G00 Z2.240                ; Lower to imaging height
V.E.UserInteraction.Message = "Camera at A5 - trigger imaging, then click OK"
M121                       ; Pause for manual camera trigger

; --- Well B5 ---
G00 G54 G90 Z22.340          ; Raise to safe Z first
G00 X-182.124 Y82.750              ; Move XY to B5
G00 Z2.240                ; Lower to imaging height
V.E.UserInteraction.Message = "Camera at B5 - trigger imaging, then click OK"
M121                       ; Pause for manual camera trigger

; --- Well C5 ---
G00 G54 G90 Z22.340          ; Raise to safe Z first
G00 X-182.124 Y69.720              ; Move XY to C5
G00 Z2.240                ; Lower to imaging height
V.E.UserInteraction.Message = "Camera at C5 - trigger imaging, then click OK"
M121                       ; Pause for manual camera trigger

; --- Well D5 ---
G00 G54 G90 Z22.340          ; Raise to safe Z first
G00 X-182.124 Y56.690              ; Move XY to D5
G00 Z2.240                ; Lower to imaging height
V.E.UserInteraction.Message = "Camera at D5 - trigger imaging, then click OK"
M121                       ; Pause for manual camera trigger

; --- Well E5 ---
G00 G54 G90 Z22.340          ; Raise to safe Z first
G00 X-182.124 Y43.660              ; Move XY to E5
G00 Z2.240                ; Lower to imaging height
V.E.UserInteraction.Message = "Camera at E5 - trigger imaging, then click OK"
M121                       ; Pause for manual camera trigger

; --- Well F5 ---
G00 G54 G90 Z22.340          ; Raise to safe Z first
G00 X-182.124 Y30.630              ; Move XY to F5
G00 Z2.240                ; Lower to imaging height
V.E.UserInteraction.Message = "Camera at F5 - trigger imaging, then click OK"
M121                       ; Pause for manual camera trigger

; --- Well A6 ---
G00 G54 G90 Z22.340          ; Raise to safe Z first
G00 X-169.133 Y95.780              ; Move XY to A6
G00 Z2.240                ; Lower to imaging height
V.E.UserInteraction.Message = "Camera at A6 - trigger imaging, then click OK"
M121                       ; Pause for manual camera trigger

; --- Well B6 ---
G00 G54 G90 Z22.340          ; Raise to safe Z first
G00 X-169.133 Y82.750              ; Move XY to B6
G00 Z2.240                ; Lower to imaging height
V.E.UserInteraction.Message = "Camera at B6 - trigger imaging, then click OK"
M121                       ; Pause for manual camera trigger

; --- Well C6 ---
G00 G54 G90 Z22.340          ; Raise to safe Z first
G00 X-169.133 Y69.720              ; Move XY to C6
G00 Z2.240                ; Lower to imaging height
V.E.UserInteraction.Message = "Camera at C6 - trigger imaging, then click OK"
M121                       ; Pause for manual camera trigger

; --- Well D6 ---
G00 G54 G90 Z22.340          ; Raise to safe Z first
G00 X-169.133 Y56.690              ; Move XY to D6
G00 Z2.240                ; Lower to imaging height
V.E.UserInteraction.Message = "Camera at D6 - trigger imaging, then click OK"
M121                       ; Pause for manual camera trigger

; --- Well E6 ---
G00 G54 G90 Z22.340          ; Raise to safe Z first
G00 X-169.133 Y43.660              ; Move XY to E6
G00 Z2.240                ; Lower to imaging height
V.E.UserInteraction.Message = "Camera at E6 - trigger imaging, then click OK"
M121                       ; Pause for manual camera trigger

; --- Well F6 ---
G00 G54 G90 Z22.340          ; Raise to safe Z first
G00 X-169.133 Y30.630              ; Move XY to F6
G00 Z2.240                ; Lower to imaging height
V.E.UserInteraction.Message = "Camera at F6 - trigger imaging, then click OK"
M121                       ; Pause for manual camera trigger

; --- Well A7 ---
G00 G54 G90 Z22.340          ; Raise to safe Z first
G00 X-156.141 Y95.780              ; Move XY to A7
G00 Z2.240                ; Lower to imaging height
V.E.UserInteraction.Message = "Camera at A7 - trigger imaging, then click OK"
M121                       ; Pause for manual camera trigger

; --- Well B7 ---
G00 G54 G90 Z22.340          ; Raise to safe Z first
G00 X-156.141 Y82.750              ; Move XY to B7
G00 Z2.240                ; Lower to imaging height
V.E.UserInteraction.Message = "Camera at B7 - trigger imaging, then click OK"
M121                       ; Pause for manual camera trigger

; --- Well C7 ---
G00 G54 G90 Z22.340          ; Raise to safe Z first
G00 X-156.141 Y69.720              ; Move XY to C7
G00 Z2.240                ; Lower to imaging height
V.E.UserInteraction.Message = "Camera at C7 - trigger imaging, then click OK"
M121                       ; Pause for manual camera trigger

; --- Well D7 ---
G00 G54 G90 Z22.340          ; Raise to safe Z first
G00 X-156.141 Y56.690              ; Move XY to D7
G00 Z2.240                ; Lower to imaging height
V.E.UserInteraction.Message = "Camera at D7 - trigger imaging, then click OK"
M121                       ; Pause for manual camera trigger

; --- Well E7 ---
G00 G54 G90 Z22.340          ; Raise to safe Z first
G00 X-156.141 Y43.660              ; Move XY to E7
G00 Z2.240                ; Lower to imaging height
V.E.UserInteraction.Message = "Camera at E7 - trigger imaging, then click OK"
M121                       ; Pause for manual camera trigger

; --- Well F7 ---
G00 G54 G90 Z22.340          ; Raise to safe Z first
G00 X-156.141 Y30.630              ; Move XY to F7
G00 Z2.240                ; Lower to imaging height
V.E.UserInteraction.Message = "Camera at F7 - trigger imaging, then click OK"
M121                       ; Pause for manual camera trigger

; --- Return home ---
G00 G54 G90 Z22.340          ; Safe Z before going home
G800                       ; Go home
M110=1000
M30