% data_collection_48well_8cols_s2-s93.nc
; Generated by generate_nc_files.py
; 48-well plate | 8 samples (columns)
; Geometry: 0-90 two-layer grid | strand spacing 0.9mm | 4+4 strands | 3x3 pores
; CSV: lhs_bioprint_samples_semicolon.csv
; Temperature: set manually in Architect UI (not in G-code)
;
; Col   SampleID   P(kPa)     F(mm/s)    Z(mm)   
; 1     2          60         12.0       0.6     
; 2     15         70         8.0        0.8     
; 3     28         80         6.0        0.5     
; 4     41         85         9.0        0.6     
; 5     54         95         11.0       0.8     
; 6     67         100        12.0       0.4     
; 7     80         110        11.0       0.5     
; 8     93         120        6.0        0.5     
;
; REGENHU
; http://www.regenhu.com/
; Translator 1.0.0.0
; Date 2026-04-13
; ESTIMATED_PRINTING_TIME 0:03:19.061356

; INITIALIZATION
T1
M200=600 ; Set pressure to 60kPa
T0
G803 ; Move to safe height
; INITIALIZATION

M110=0 ; Set printing progress to 0%
T1
G801 ; Measure tool

#CONTOUR MODE ON [DEV PATH_DEV=0.08]

M312 ; Wait for work zone temperature

; ── Col 1 | Sample 2 | P=60kPa  F=12.0mm/s  Z=0.600mm ──
G805[-45.785, 32.720, 2.620]  ; G55 origin: A1
G55

; Changing tool to 'PSD 1'
#FLUSH WAIT
T1
G807[1, 0.002, 0.002]  ; time-based start/stop delays [s]
M200=600         ; pressure 60.0kPa
F12.000               ; nozzle speed
M110=40              ; progress 40%
G00 G55 X-1.800 Y-1.350    ; layer 1 start
M151                               ; engage tool
Z0.600                              ; lower to layer 1 Z
M160                               ; dispensing ON
G01 X1.800                       ; strand L1-1  (+X)
Y-0.450                              ; traverse to strand L1-2
X-1.800                          ; strand L1-2 (−X)
Y0.450                              ; traverse to strand L1-3
X1.800                           ; strand L1-3 (+X)
Y1.350                              ; traverse to strand L1-4
X-1.800                          ; strand L1-4 (−X)
M161                               ; dispensing OFF
G00 Z18.400                ; lift to travel Z
X-1.350 Y-1.800            ; layer 2 start position
Z0.950                               ; lower to layer 2 Z
M160                               ; dispensing ON
G01 Y1.800                        ; strand L2-1  (+Y)
X-0.450                              ; traverse to strand L2-2
Y-1.800                          ; strand L2-2 (−Y)
X0.450                              ; traverse to strand L2-3
Y1.800                           ; strand L2-3 (+Y)
X1.350                              ; traverse to strand L2-4
Y-1.800                          ; strand L2-4 (−Y)
M161                               ; dispensing OFF
M110=57  ; progress
G805[-45.785, 19.640, 2.620]  ; G55 origin: B1
G55
G00 Z18.400       ; lift to travel Z
M200=600         ; pressure 60.0kPa
F12.000
M110=58              ; progress 58%
G00 G55 X-1.800 Y-1.350    ; layer 1 start
M151                               ; engage tool
Z0.600                              ; lower to layer 1 Z
M160                               ; dispensing ON
G01 X1.800                       ; strand L1-1  (+X)
Y-0.450                              ; traverse to strand L1-2
X-1.800                          ; strand L1-2 (−X)
Y0.450                              ; traverse to strand L1-3
X1.800                           ; strand L1-3 (+X)
Y1.350                              ; traverse to strand L1-4
X-1.800                          ; strand L1-4 (−X)
M161                               ; dispensing OFF
G00 Z18.400                ; lift to travel Z
X-1.350 Y-1.800            ; layer 2 start position
Z0.950                               ; lower to layer 2 Z
M160                               ; dispensing ON
G01 Y1.800                        ; strand L2-1  (+Y)
X-0.450                              ; traverse to strand L2-2
Y-1.800                          ; strand L2-2 (−Y)
X0.450                              ; traverse to strand L2-3
Y1.800                           ; strand L2-3 (+Y)
X1.350                              ; traverse to strand L2-4
Y-1.800                          ; strand L2-4 (−Y)
M161                               ; dispensing OFF
M110=75  ; progress
G805[-45.785, 6.560, 2.620]  ; G55 origin: C1
G55
G00 Z18.400       ; lift to travel Z
M200=600         ; pressure 60.0kPa
F12.000
M110=76              ; progress 76%
G00 G55 X-1.800 Y-1.350    ; layer 1 start
M151                               ; engage tool
Z0.600                              ; lower to layer 1 Z
M160                               ; dispensing ON
G01 X1.800                       ; strand L1-1  (+X)
Y-0.450                              ; traverse to strand L1-2
X-1.800                          ; strand L1-2 (−X)
Y0.450                              ; traverse to strand L1-3
X1.800                           ; strand L1-3 (+X)
Y1.350                              ; traverse to strand L1-4
X-1.800                          ; strand L1-4 (−X)
M161                               ; dispensing OFF
G00 Z18.400                ; lift to travel Z
X-1.350 Y-1.800            ; layer 2 start position
Z0.950                               ; lower to layer 2 Z
M160                               ; dispensing ON
G01 Y1.800                        ; strand L2-1  (+Y)
X-0.450                              ; traverse to strand L2-2
Y-1.800                          ; strand L2-2 (−Y)
X0.450                              ; traverse to strand L2-3
Y1.800                           ; strand L2-3 (+Y)
X1.350                              ; traverse to strand L2-4
Y-1.800                          ; strand L2-4 (−Y)
M161                               ; dispensing OFF
M110=93  ; progress
G805[-45.785, -6.520, 2.620]  ; G55 origin: D1
G55
G00 Z18.400       ; lift to travel Z
M200=600         ; pressure 60.0kPa
F12.000
M110=94              ; progress 94%
G00 G55 X-1.800 Y-1.350    ; layer 1 start
M151                               ; engage tool
Z0.600                              ; lower to layer 1 Z
M160                               ; dispensing ON
G01 X1.800                       ; strand L1-1  (+X)
Y-0.450                              ; traverse to strand L1-2
X-1.800                          ; strand L1-2 (−X)
Y0.450                              ; traverse to strand L1-3
X1.800                           ; strand L1-3 (+X)
Y1.350                              ; traverse to strand L1-4
X-1.800                          ; strand L1-4 (−X)
M161                               ; dispensing OFF
G00 Z18.400                ; lift to travel Z
X-1.350 Y-1.800            ; layer 2 start position
Z0.950                               ; lower to layer 2 Z
M160                               ; dispensing ON
G01 Y1.800                        ; strand L2-1  (+Y)
X-0.450                              ; traverse to strand L2-2
Y-1.800                          ; strand L2-2 (−Y)
X0.450                              ; traverse to strand L2-3
Y1.800                           ; strand L2-3 (+Y)
X1.350                              ; traverse to strand L2-4
Y-1.800                          ; strand L2-4 (−Y)
M161                               ; dispensing OFF
M110=111  ; progress
G805[-45.785, -19.600, 2.620]  ; G55 origin: E1
G55
G00 Z18.400       ; lift to travel Z
M200=600         ; pressure 60.0kPa
F12.000
M110=112              ; progress 112%
G00 G55 X-1.800 Y-1.350    ; layer 1 start
M151                               ; engage tool
Z0.600                              ; lower to layer 1 Z
M160                               ; dispensing ON
G01 X1.800                       ; strand L1-1  (+X)
Y-0.450                              ; traverse to strand L1-2
X-1.800                          ; strand L1-2 (−X)
Y0.450                              ; traverse to strand L1-3
X1.800                           ; strand L1-3 (+X)
Y1.350                              ; traverse to strand L1-4
X-1.800                          ; strand L1-4 (−X)
M161                               ; dispensing OFF
G00 Z18.400                ; lift to travel Z
X-1.350 Y-1.800            ; layer 2 start position
Z0.950                               ; lower to layer 2 Z
M160                               ; dispensing ON
G01 Y1.800                        ; strand L2-1  (+Y)
X-0.450                              ; traverse to strand L2-2
Y-1.800                          ; strand L2-2 (−Y)
X0.450                              ; traverse to strand L2-3
Y1.800                           ; strand L2-3 (+Y)
X1.350                              ; traverse to strand L2-4
Y-1.800                          ; strand L2-4 (−Y)
M161                               ; dispensing OFF
M110=129  ; progress
G805[-45.785, -32.680, 2.620]  ; G55 origin: F1
G55
G00 Z18.400       ; lift to travel Z
M200=600         ; pressure 60.0kPa
F12.000
M110=130              ; progress 130%
G00 G55 X-1.800 Y-1.350    ; layer 1 start
M151                               ; engage tool
Z0.600                              ; lower to layer 1 Z
M160                               ; dispensing ON
G01 X1.800                       ; strand L1-1  (+X)
Y-0.450                              ; traverse to strand L1-2
X-1.800                          ; strand L1-2 (−X)
Y0.450                              ; traverse to strand L1-3
X1.800                           ; strand L1-3 (+X)
Y1.350                              ; traverse to strand L1-4
X-1.800                          ; strand L1-4 (−X)
M161                               ; dispensing OFF
G00 Z18.400                ; lift to travel Z
X-1.350 Y-1.800            ; layer 2 start position
Z0.950                               ; lower to layer 2 Z
M160                               ; dispensing ON
G01 Y1.800                        ; strand L2-1  (+Y)
X-0.450                              ; traverse to strand L2-2
Y-1.800                          ; strand L2-2 (−Y)
X0.450                              ; traverse to strand L2-3
Y1.800                           ; strand L2-3 (+Y)
X1.350                              ; traverse to strand L2-4
Y-1.800                          ; strand L2-4 (−Y)
M161                               ; dispensing OFF
M110=147  ; progress

; ── Col 2 | Sample 15 | P=70kPa  F=8.0mm/s  Z=0.800mm ──
G805[-32.705, 32.720, 2.620]  ; G55 origin: A2
G55

; Changing tool to 'PSD 1'
#FLUSH WAIT
T1
G807[1, 0.002, 0.002]  ; time-based start/stop delays [s]
M200=700         ; pressure 70.0kPa
F8.000               ; nozzle speed
M110=148              ; progress 148%
G00 G55 X-1.800 Y-1.350    ; layer 1 start
M151                               ; engage tool
Z0.800                              ; lower to layer 1 Z
M160                               ; dispensing ON
G01 X1.800                       ; strand L1-1  (+X)
Y-0.450                              ; traverse to strand L1-2
X-1.800                          ; strand L1-2 (−X)
Y0.450                              ; traverse to strand L1-3
X1.800                           ; strand L1-3 (+X)
Y1.350                              ; traverse to strand L1-4
X-1.800                          ; strand L1-4 (−X)
M161                               ; dispensing OFF
G00 Z18.400                ; lift to travel Z
X-1.350 Y-1.800            ; layer 2 start position
Z1.150                               ; lower to layer 2 Z
M160                               ; dispensing ON
G01 Y1.800                        ; strand L2-1  (+Y)
X-0.450                              ; traverse to strand L2-2
Y-1.800                          ; strand L2-2 (−Y)
X0.450                              ; traverse to strand L2-3
Y1.800                           ; strand L2-3 (+Y)
X1.350                              ; traverse to strand L2-4
Y-1.800                          ; strand L2-4 (−Y)
M161                               ; dispensing OFF
M110=165  ; progress
G805[-32.705, 19.640, 2.620]  ; G55 origin: B2
G55
G00 Z18.400       ; lift to travel Z
M200=700         ; pressure 70.0kPa
F8.000
M110=166              ; progress 166%
G00 G55 X-1.800 Y-1.350    ; layer 1 start
M151                               ; engage tool
Z0.800                              ; lower to layer 1 Z
M160                               ; dispensing ON
G01 X1.800                       ; strand L1-1  (+X)
Y-0.450                              ; traverse to strand L1-2
X-1.800                          ; strand L1-2 (−X)
Y0.450                              ; traverse to strand L1-3
X1.800                           ; strand L1-3 (+X)
Y1.350                              ; traverse to strand L1-4
X-1.800                          ; strand L1-4 (−X)
M161                               ; dispensing OFF
G00 Z18.400                ; lift to travel Z
X-1.350 Y-1.800            ; layer 2 start position
Z1.150                               ; lower to layer 2 Z
M160                               ; dispensing ON
G01 Y1.800                        ; strand L2-1  (+Y)
X-0.450                              ; traverse to strand L2-2
Y-1.800                          ; strand L2-2 (−Y)
X0.450                              ; traverse to strand L2-3
Y1.800                           ; strand L2-3 (+Y)
X1.350                              ; traverse to strand L2-4
Y-1.800                          ; strand L2-4 (−Y)
M161                               ; dispensing OFF
M110=183  ; progress
G805[-32.705, 6.560, 2.620]  ; G55 origin: C2
G55
G00 Z18.400       ; lift to travel Z
M200=700         ; pressure 70.0kPa
F8.000
M110=184              ; progress 184%
G00 G55 X-1.800 Y-1.350    ; layer 1 start
M151                               ; engage tool
Z0.800                              ; lower to layer 1 Z
M160                               ; dispensing ON
G01 X1.800                       ; strand L1-1  (+X)
Y-0.450                              ; traverse to strand L1-2
X-1.800                          ; strand L1-2 (−X)
Y0.450                              ; traverse to strand L1-3
X1.800                           ; strand L1-3 (+X)
Y1.350                              ; traverse to strand L1-4
X-1.800                          ; strand L1-4 (−X)
M161                               ; dispensing OFF
G00 Z18.400                ; lift to travel Z
X-1.350 Y-1.800            ; layer 2 start position
Z1.150                               ; lower to layer 2 Z
M160                               ; dispensing ON
G01 Y1.800                        ; strand L2-1  (+Y)
X-0.450                              ; traverse to strand L2-2
Y-1.800                          ; strand L2-2 (−Y)
X0.450                              ; traverse to strand L2-3
Y1.800                           ; strand L2-3 (+Y)
X1.350                              ; traverse to strand L2-4
Y-1.800                          ; strand L2-4 (−Y)
M161                               ; dispensing OFF
M110=201  ; progress
G805[-32.705, -6.520, 2.620]  ; G55 origin: D2
G55
G00 Z18.400       ; lift to travel Z
M200=700         ; pressure 70.0kPa
F8.000
M110=202              ; progress 202%
G00 G55 X-1.800 Y-1.350    ; layer 1 start
M151                               ; engage tool
Z0.800                              ; lower to layer 1 Z
M160                               ; dispensing ON
G01 X1.800                       ; strand L1-1  (+X)
Y-0.450                              ; traverse to strand L1-2
X-1.800                          ; strand L1-2 (−X)
Y0.450                              ; traverse to strand L1-3
X1.800                           ; strand L1-3 (+X)
Y1.350                              ; traverse to strand L1-4
X-1.800                          ; strand L1-4 (−X)
M161                               ; dispensing OFF
G00 Z18.400                ; lift to travel Z
X-1.350 Y-1.800            ; layer 2 start position
Z1.150                               ; lower to layer 2 Z
M160                               ; dispensing ON
G01 Y1.800                        ; strand L2-1  (+Y)
X-0.450                              ; traverse to strand L2-2
Y-1.800                          ; strand L2-2 (−Y)
X0.450                              ; traverse to strand L2-3
Y1.800                           ; strand L2-3 (+Y)
X1.350                              ; traverse to strand L2-4
Y-1.800                          ; strand L2-4 (−Y)
M161                               ; dispensing OFF
M110=219  ; progress
G805[-32.705, -19.600, 2.620]  ; G55 origin: E2
G55
G00 Z18.400       ; lift to travel Z
M200=700         ; pressure 70.0kPa
F8.000
M110=220              ; progress 220%
G00 G55 X-1.800 Y-1.350    ; layer 1 start
M151                               ; engage tool
Z0.800                              ; lower to layer 1 Z
M160                               ; dispensing ON
G01 X1.800                       ; strand L1-1  (+X)
Y-0.450                              ; traverse to strand L1-2
X-1.800                          ; strand L1-2 (−X)
Y0.450                              ; traverse to strand L1-3
X1.800                           ; strand L1-3 (+X)
Y1.350                              ; traverse to strand L1-4
X-1.800                          ; strand L1-4 (−X)
M161                               ; dispensing OFF
G00 Z18.400                ; lift to travel Z
X-1.350 Y-1.800            ; layer 2 start position
Z1.150                               ; lower to layer 2 Z
M160                               ; dispensing ON
G01 Y1.800                        ; strand L2-1  (+Y)
X-0.450                              ; traverse to strand L2-2
Y-1.800                          ; strand L2-2 (−Y)
X0.450                              ; traverse to strand L2-3
Y1.800                           ; strand L2-3 (+Y)
X1.350                              ; traverse to strand L2-4
Y-1.800                          ; strand L2-4 (−Y)
M161                               ; dispensing OFF
M110=237  ; progress
G805[-32.705, -32.680, 2.620]  ; G55 origin: F2
G55
G00 Z18.400       ; lift to travel Z
M200=700         ; pressure 70.0kPa
F8.000
M110=238              ; progress 238%
G00 G55 X-1.800 Y-1.350    ; layer 1 start
M151                               ; engage tool
Z0.800                              ; lower to layer 1 Z
M160                               ; dispensing ON
G01 X1.800                       ; strand L1-1  (+X)
Y-0.450                              ; traverse to strand L1-2
X-1.800                          ; strand L1-2 (−X)
Y0.450                              ; traverse to strand L1-3
X1.800                           ; strand L1-3 (+X)
Y1.350                              ; traverse to strand L1-4
X-1.800                          ; strand L1-4 (−X)
M161                               ; dispensing OFF
G00 Z18.400                ; lift to travel Z
X-1.350 Y-1.800            ; layer 2 start position
Z1.150                               ; lower to layer 2 Z
M160                               ; dispensing ON
G01 Y1.800                        ; strand L2-1  (+Y)
X-0.450                              ; traverse to strand L2-2
Y-1.800                          ; strand L2-2 (−Y)
X0.450                              ; traverse to strand L2-3
Y1.800                           ; strand L2-3 (+Y)
X1.350                              ; traverse to strand L2-4
Y-1.800                          ; strand L2-4 (−Y)
M161                               ; dispensing OFF
M110=255  ; progress

; ── Col 3 | Sample 28 | P=80kPa  F=6.0mm/s  Z=0.500mm ──
G805[-19.625, 32.720, 2.620]  ; G55 origin: A3
G55

; Changing tool to 'PSD 1'
#FLUSH WAIT
T1
G807[1, 0.002, 0.002]  ; time-based start/stop delays [s]
M200=800         ; pressure 80.0kPa
F6.000               ; nozzle speed
M110=256              ; progress 256%
G00 G55 X-1.800 Y-1.350    ; layer 1 start
M151                               ; engage tool
Z0.500                              ; lower to layer 1 Z
M160                               ; dispensing ON
G01 X1.800                       ; strand L1-1  (+X)
Y-0.450                              ; traverse to strand L1-2
X-1.800                          ; strand L1-2 (−X)
Y0.450                              ; traverse to strand L1-3
X1.800                           ; strand L1-3 (+X)
Y1.350                              ; traverse to strand L1-4
X-1.800                          ; strand L1-4 (−X)
M161                               ; dispensing OFF
G00 Z18.400                ; lift to travel Z
X-1.350 Y-1.800            ; layer 2 start position
Z0.850                               ; lower to layer 2 Z
M160                               ; dispensing ON
G01 Y1.800                        ; strand L2-1  (+Y)
X-0.450                              ; traverse to strand L2-2
Y-1.800                          ; strand L2-2 (−Y)
X0.450                              ; traverse to strand L2-3
Y1.800                           ; strand L2-3 (+Y)
X1.350                              ; traverse to strand L2-4
Y-1.800                          ; strand L2-4 (−Y)
M161                               ; dispensing OFF
M110=273  ; progress
G805[-19.625, 19.640, 2.620]  ; G55 origin: B3
G55
G00 Z18.400       ; lift to travel Z
M200=800         ; pressure 80.0kPa
F6.000
M110=274              ; progress 274%
G00 G55 X-1.800 Y-1.350    ; layer 1 start
M151                               ; engage tool
Z0.500                              ; lower to layer 1 Z
M160                               ; dispensing ON
G01 X1.800                       ; strand L1-1  (+X)
Y-0.450                              ; traverse to strand L1-2
X-1.800                          ; strand L1-2 (−X)
Y0.450                              ; traverse to strand L1-3
X1.800                           ; strand L1-3 (+X)
Y1.350                              ; traverse to strand L1-4
X-1.800                          ; strand L1-4 (−X)
M161                               ; dispensing OFF
G00 Z18.400                ; lift to travel Z
X-1.350 Y-1.800            ; layer 2 start position
Z0.850                               ; lower to layer 2 Z
M160                               ; dispensing ON
G01 Y1.800                        ; strand L2-1  (+Y)
X-0.450                              ; traverse to strand L2-2
Y-1.800                          ; strand L2-2 (−Y)
X0.450                              ; traverse to strand L2-3
Y1.800                           ; strand L2-3 (+Y)
X1.350                              ; traverse to strand L2-4
Y-1.800                          ; strand L2-4 (−Y)
M161                               ; dispensing OFF
M110=291  ; progress
G805[-19.625, 6.560, 2.620]  ; G55 origin: C3
G55
G00 Z18.400       ; lift to travel Z
M200=800         ; pressure 80.0kPa
F6.000
M110=292              ; progress 292%
G00 G55 X-1.800 Y-1.350    ; layer 1 start
M151                               ; engage tool
Z0.500                              ; lower to layer 1 Z
M160                               ; dispensing ON
G01 X1.800                       ; strand L1-1  (+X)
Y-0.450                              ; traverse to strand L1-2
X-1.800                          ; strand L1-2 (−X)
Y0.450                              ; traverse to strand L1-3
X1.800                           ; strand L1-3 (+X)
Y1.350                              ; traverse to strand L1-4
X-1.800                          ; strand L1-4 (−X)
M161                               ; dispensing OFF
G00 Z18.400                ; lift to travel Z
X-1.350 Y-1.800            ; layer 2 start position
Z0.850                               ; lower to layer 2 Z
M160                               ; dispensing ON
G01 Y1.800                        ; strand L2-1  (+Y)
X-0.450                              ; traverse to strand L2-2
Y-1.800                          ; strand L2-2 (−Y)
X0.450                              ; traverse to strand L2-3
Y1.800                           ; strand L2-3 (+Y)
X1.350                              ; traverse to strand L2-4
Y-1.800                          ; strand L2-4 (−Y)
M161                               ; dispensing OFF
M110=309  ; progress
G805[-19.625, -6.520, 2.620]  ; G55 origin: D3
G55
G00 Z18.400       ; lift to travel Z
M200=800         ; pressure 80.0kPa
F6.000
M110=310              ; progress 310%
G00 G55 X-1.800 Y-1.350    ; layer 1 start
M151                               ; engage tool
Z0.500                              ; lower to layer 1 Z
M160                               ; dispensing ON
G01 X1.800                       ; strand L1-1  (+X)
Y-0.450                              ; traverse to strand L1-2
X-1.800                          ; strand L1-2 (−X)
Y0.450                              ; traverse to strand L1-3
X1.800                           ; strand L1-3 (+X)
Y1.350                              ; traverse to strand L1-4
X-1.800                          ; strand L1-4 (−X)
M161                               ; dispensing OFF
G00 Z18.400                ; lift to travel Z
X-1.350 Y-1.800            ; layer 2 start position
Z0.850                               ; lower to layer 2 Z
M160                               ; dispensing ON
G01 Y1.800                        ; strand L2-1  (+Y)
X-0.450                              ; traverse to strand L2-2
Y-1.800                          ; strand L2-2 (−Y)
X0.450                              ; traverse to strand L2-3
Y1.800                           ; strand L2-3 (+Y)
X1.350                              ; traverse to strand L2-4
Y-1.800                          ; strand L2-4 (−Y)
M161                               ; dispensing OFF
M110=327  ; progress
G805[-19.625, -19.600, 2.620]  ; G55 origin: E3
G55
G00 Z18.400       ; lift to travel Z
M200=800         ; pressure 80.0kPa
F6.000
M110=328              ; progress 328%
G00 G55 X-1.800 Y-1.350    ; layer 1 start
M151                               ; engage tool
Z0.500                              ; lower to layer 1 Z
M160                               ; dispensing ON
G01 X1.800                       ; strand L1-1  (+X)
Y-0.450                              ; traverse to strand L1-2
X-1.800                          ; strand L1-2 (−X)
Y0.450                              ; traverse to strand L1-3
X1.800                           ; strand L1-3 (+X)
Y1.350                              ; traverse to strand L1-4
X-1.800                          ; strand L1-4 (−X)
M161                               ; dispensing OFF
G00 Z18.400                ; lift to travel Z
X-1.350 Y-1.800            ; layer 2 start position
Z0.850                               ; lower to layer 2 Z
M160                               ; dispensing ON
G01 Y1.800                        ; strand L2-1  (+Y)
X-0.450                              ; traverse to strand L2-2
Y-1.800                          ; strand L2-2 (−Y)
X0.450                              ; traverse to strand L2-3
Y1.800                           ; strand L2-3 (+Y)
X1.350                              ; traverse to strand L2-4
Y-1.800                          ; strand L2-4 (−Y)
M161                               ; dispensing OFF
M110=345  ; progress
G805[-19.625, -32.680, 2.620]  ; G55 origin: F3
G55
G00 Z18.400       ; lift to travel Z
M200=800         ; pressure 80.0kPa
F6.000
M110=346              ; progress 346%
G00 G55 X-1.800 Y-1.350    ; layer 1 start
M151                               ; engage tool
Z0.500                              ; lower to layer 1 Z
M160                               ; dispensing ON
G01 X1.800                       ; strand L1-1  (+X)
Y-0.450                              ; traverse to strand L1-2
X-1.800                          ; strand L1-2 (−X)
Y0.450                              ; traverse to strand L1-3
X1.800                           ; strand L1-3 (+X)
Y1.350                              ; traverse to strand L1-4
X-1.800                          ; strand L1-4 (−X)
M161                               ; dispensing OFF
G00 Z18.400                ; lift to travel Z
X-1.350 Y-1.800            ; layer 2 start position
Z0.850                               ; lower to layer 2 Z
M160                               ; dispensing ON
G01 Y1.800                        ; strand L2-1  (+Y)
X-0.450                              ; traverse to strand L2-2
Y-1.800                          ; strand L2-2 (−Y)
X0.450                              ; traverse to strand L2-3
Y1.800                           ; strand L2-3 (+Y)
X1.350                              ; traverse to strand L2-4
Y-1.800                          ; strand L2-4 (−Y)
M161                               ; dispensing OFF
M110=363  ; progress

; ── Col 4 | Sample 41 | P=85kPa  F=9.0mm/s  Z=0.600mm ──
G805[-6.545, 32.720, 2.620]  ; G55 origin: A4
G55

; Changing tool to 'PSD 1'
#FLUSH WAIT
T1
G807[1, 0.002, 0.002]  ; time-based start/stop delays [s]
M200=850         ; pressure 85.0kPa
F9.000               ; nozzle speed
M110=364              ; progress 364%
G00 G55 X-1.800 Y-1.350    ; layer 1 start
M151                               ; engage tool
Z0.600                              ; lower to layer 1 Z
M160                               ; dispensing ON
G01 X1.800                       ; strand L1-1  (+X)
Y-0.450                              ; traverse to strand L1-2
X-1.800                          ; strand L1-2 (−X)
Y0.450                              ; traverse to strand L1-3
X1.800                           ; strand L1-3 (+X)
Y1.350                              ; traverse to strand L1-4
X-1.800                          ; strand L1-4 (−X)
M161                               ; dispensing OFF
G00 Z18.400                ; lift to travel Z
X-1.350 Y-1.800            ; layer 2 start position
Z0.950                               ; lower to layer 2 Z
M160                               ; dispensing ON
G01 Y1.800                        ; strand L2-1  (+Y)
X-0.450                              ; traverse to strand L2-2
Y-1.800                          ; strand L2-2 (−Y)
X0.450                              ; traverse to strand L2-3
Y1.800                           ; strand L2-3 (+Y)
X1.350                              ; traverse to strand L2-4
Y-1.800                          ; strand L2-4 (−Y)
M161                               ; dispensing OFF
M110=381  ; progress
G805[-6.545, 19.640, 2.620]  ; G55 origin: B4
G55
G00 Z18.400       ; lift to travel Z
M200=850         ; pressure 85.0kPa
F9.000
M110=382              ; progress 382%
G00 G55 X-1.800 Y-1.350    ; layer 1 start
M151                               ; engage tool
Z0.600                              ; lower to layer 1 Z
M160                               ; dispensing ON
G01 X1.800                       ; strand L1-1  (+X)
Y-0.450                              ; traverse to strand L1-2
X-1.800                          ; strand L1-2 (−X)
Y0.450                              ; traverse to strand L1-3
X1.800                           ; strand L1-3 (+X)
Y1.350                              ; traverse to strand L1-4
X-1.800                          ; strand L1-4 (−X)
M161                               ; dispensing OFF
G00 Z18.400                ; lift to travel Z
X-1.350 Y-1.800            ; layer 2 start position
Z0.950                               ; lower to layer 2 Z
M160                               ; dispensing ON
G01 Y1.800                        ; strand L2-1  (+Y)
X-0.450                              ; traverse to strand L2-2
Y-1.800                          ; strand L2-2 (−Y)
X0.450                              ; traverse to strand L2-3
Y1.800                           ; strand L2-3 (+Y)
X1.350                              ; traverse to strand L2-4
Y-1.800                          ; strand L2-4 (−Y)
M161                               ; dispensing OFF
M110=399  ; progress
G805[-6.545, 6.560, 2.620]  ; G55 origin: C4
G55
G00 Z18.400       ; lift to travel Z
M200=850         ; pressure 85.0kPa
F9.000
M110=400              ; progress 400%
G00 G55 X-1.800 Y-1.350    ; layer 1 start
M151                               ; engage tool
Z0.600                              ; lower to layer 1 Z
M160                               ; dispensing ON
G01 X1.800                       ; strand L1-1  (+X)
Y-0.450                              ; traverse to strand L1-2
X-1.800                          ; strand L1-2 (−X)
Y0.450                              ; traverse to strand L1-3
X1.800                           ; strand L1-3 (+X)
Y1.350                              ; traverse to strand L1-4
X-1.800                          ; strand L1-4 (−X)
M161                               ; dispensing OFF
G00 Z18.400                ; lift to travel Z
X-1.350 Y-1.800            ; layer 2 start position
Z0.950                               ; lower to layer 2 Z
M160                               ; dispensing ON
G01 Y1.800                        ; strand L2-1  (+Y)
X-0.450                              ; traverse to strand L2-2
Y-1.800                          ; strand L2-2 (−Y)
X0.450                              ; traverse to strand L2-3
Y1.800                           ; strand L2-3 (+Y)
X1.350                              ; traverse to strand L2-4
Y-1.800                          ; strand L2-4 (−Y)
M161                               ; dispensing OFF
M110=417  ; progress
G805[-6.545, -6.520, 2.620]  ; G55 origin: D4
G55
G00 Z18.400       ; lift to travel Z
M200=850         ; pressure 85.0kPa
F9.000
M110=418              ; progress 418%
G00 G55 X-1.800 Y-1.350    ; layer 1 start
M151                               ; engage tool
Z0.600                              ; lower to layer 1 Z
M160                               ; dispensing ON
G01 X1.800                       ; strand L1-1  (+X)
Y-0.450                              ; traverse to strand L1-2
X-1.800                          ; strand L1-2 (−X)
Y0.450                              ; traverse to strand L1-3
X1.800                           ; strand L1-3 (+X)
Y1.350                              ; traverse to strand L1-4
X-1.800                          ; strand L1-4 (−X)
M161                               ; dispensing OFF
G00 Z18.400                ; lift to travel Z
X-1.350 Y-1.800            ; layer 2 start position
Z0.950                               ; lower to layer 2 Z
M160                               ; dispensing ON
G01 Y1.800                        ; strand L2-1  (+Y)
X-0.450                              ; traverse to strand L2-2
Y-1.800                          ; strand L2-2 (−Y)
X0.450                              ; traverse to strand L2-3
Y1.800                           ; strand L2-3 (+Y)
X1.350                              ; traverse to strand L2-4
Y-1.800                          ; strand L2-4 (−Y)
M161                               ; dispensing OFF
M110=435  ; progress
G805[-6.545, -19.600, 2.620]  ; G55 origin: E4
G55
G00 Z18.400       ; lift to travel Z
M200=850         ; pressure 85.0kPa
F9.000
M110=436              ; progress 436%
G00 G55 X-1.800 Y-1.350    ; layer 1 start
M151                               ; engage tool
Z0.600                              ; lower to layer 1 Z
M160                               ; dispensing ON
G01 X1.800                       ; strand L1-1  (+X)
Y-0.450                              ; traverse to strand L1-2
X-1.800                          ; strand L1-2 (−X)
Y0.450                              ; traverse to strand L1-3
X1.800                           ; strand L1-3 (+X)
Y1.350                              ; traverse to strand L1-4
X-1.800                          ; strand L1-4 (−X)
M161                               ; dispensing OFF
G00 Z18.400                ; lift to travel Z
X-1.350 Y-1.800            ; layer 2 start position
Z0.950                               ; lower to layer 2 Z
M160                               ; dispensing ON
G01 Y1.800                        ; strand L2-1  (+Y)
X-0.450                              ; traverse to strand L2-2
Y-1.800                          ; strand L2-2 (−Y)
X0.450                              ; traverse to strand L2-3
Y1.800                           ; strand L2-3 (+Y)
X1.350                              ; traverse to strand L2-4
Y-1.800                          ; strand L2-4 (−Y)
M161                               ; dispensing OFF
M110=453  ; progress
G805[-6.545, -32.680, 2.620]  ; G55 origin: F4
G55
G00 Z18.400       ; lift to travel Z
M200=850         ; pressure 85.0kPa
F9.000
M110=454              ; progress 454%
G00 G55 X-1.800 Y-1.350    ; layer 1 start
M151                               ; engage tool
Z0.600                              ; lower to layer 1 Z
M160                               ; dispensing ON
G01 X1.800                       ; strand L1-1  (+X)
Y-0.450                              ; traverse to strand L1-2
X-1.800                          ; strand L1-2 (−X)
Y0.450                              ; traverse to strand L1-3
X1.800                           ; strand L1-3 (+X)
Y1.350                              ; traverse to strand L1-4
X-1.800                          ; strand L1-4 (−X)
M161                               ; dispensing OFF
G00 Z18.400                ; lift to travel Z
X-1.350 Y-1.800            ; layer 2 start position
Z0.950                               ; lower to layer 2 Z
M160                               ; dispensing ON
G01 Y1.800                        ; strand L2-1  (+Y)
X-0.450                              ; traverse to strand L2-2
Y-1.800                          ; strand L2-2 (−Y)
X0.450                              ; traverse to strand L2-3
Y1.800                           ; strand L2-3 (+Y)
X1.350                              ; traverse to strand L2-4
Y-1.800                          ; strand L2-4 (−Y)
M161                               ; dispensing OFF
M110=471  ; progress

; ── Col 5 | Sample 54 | P=95kPa  F=11.0mm/s  Z=0.800mm ──
G805[6.535, 32.720, 2.620]  ; G55 origin: A5
G55

; Changing tool to 'PSD 1'
#FLUSH WAIT
T1
G807[1, 0.002, 0.002]  ; time-based start/stop delays [s]
M200=950         ; pressure 95.0kPa
F11.000               ; nozzle speed
M110=472              ; progress 472%
G00 G55 X-1.800 Y-1.350    ; layer 1 start
M151                               ; engage tool
Z0.800                              ; lower to layer 1 Z
M160                               ; dispensing ON
G01 X1.800                       ; strand L1-1  (+X)
Y-0.450                              ; traverse to strand L1-2
X-1.800                          ; strand L1-2 (−X)
Y0.450                              ; traverse to strand L1-3
X1.800                           ; strand L1-3 (+X)
Y1.350                              ; traverse to strand L1-4
X-1.800                          ; strand L1-4 (−X)
M161                               ; dispensing OFF
G00 Z18.400                ; lift to travel Z
X-1.350 Y-1.800            ; layer 2 start position
Z1.150                               ; lower to layer 2 Z
M160                               ; dispensing ON
G01 Y1.800                        ; strand L2-1  (+Y)
X-0.450                              ; traverse to strand L2-2
Y-1.800                          ; strand L2-2 (−Y)
X0.450                              ; traverse to strand L2-3
Y1.800                           ; strand L2-3 (+Y)
X1.350                              ; traverse to strand L2-4
Y-1.800                          ; strand L2-4 (−Y)
M161                               ; dispensing OFF
M110=489  ; progress
G805[6.535, 19.640, 2.620]  ; G55 origin: B5
G55
G00 Z18.400       ; lift to travel Z
M200=950         ; pressure 95.0kPa
F11.000
M110=490              ; progress 490%
G00 G55 X-1.800 Y-1.350    ; layer 1 start
M151                               ; engage tool
Z0.800                              ; lower to layer 1 Z
M160                               ; dispensing ON
G01 X1.800                       ; strand L1-1  (+X)
Y-0.450                              ; traverse to strand L1-2
X-1.800                          ; strand L1-2 (−X)
Y0.450                              ; traverse to strand L1-3
X1.800                           ; strand L1-3 (+X)
Y1.350                              ; traverse to strand L1-4
X-1.800                          ; strand L1-4 (−X)
M161                               ; dispensing OFF
G00 Z18.400                ; lift to travel Z
X-1.350 Y-1.800            ; layer 2 start position
Z1.150                               ; lower to layer 2 Z
M160                               ; dispensing ON
G01 Y1.800                        ; strand L2-1  (+Y)
X-0.450                              ; traverse to strand L2-2
Y-1.800                          ; strand L2-2 (−Y)
X0.450                              ; traverse to strand L2-3
Y1.800                           ; strand L2-3 (+Y)
X1.350                              ; traverse to strand L2-4
Y-1.800                          ; strand L2-4 (−Y)
M161                               ; dispensing OFF
M110=507  ; progress
G805[6.535, 6.560, 2.620]  ; G55 origin: C5
G55
G00 Z18.400       ; lift to travel Z
M200=950         ; pressure 95.0kPa
F11.000
M110=508              ; progress 508%
G00 G55 X-1.800 Y-1.350    ; layer 1 start
M151                               ; engage tool
Z0.800                              ; lower to layer 1 Z
M160                               ; dispensing ON
G01 X1.800                       ; strand L1-1  (+X)
Y-0.450                              ; traverse to strand L1-2
X-1.800                          ; strand L1-2 (−X)
Y0.450                              ; traverse to strand L1-3
X1.800                           ; strand L1-3 (+X)
Y1.350                              ; traverse to strand L1-4
X-1.800                          ; strand L1-4 (−X)
M161                               ; dispensing OFF
G00 Z18.400                ; lift to travel Z
X-1.350 Y-1.800            ; layer 2 start position
Z1.150                               ; lower to layer 2 Z
M160                               ; dispensing ON
G01 Y1.800                        ; strand L2-1  (+Y)
X-0.450                              ; traverse to strand L2-2
Y-1.800                          ; strand L2-2 (−Y)
X0.450                              ; traverse to strand L2-3
Y1.800                           ; strand L2-3 (+Y)
X1.350                              ; traverse to strand L2-4
Y-1.800                          ; strand L2-4 (−Y)
M161                               ; dispensing OFF
M110=525  ; progress
G805[6.535, -6.520, 2.620]  ; G55 origin: D5
G55
G00 Z18.400       ; lift to travel Z
M200=950         ; pressure 95.0kPa
F11.000
M110=526              ; progress 526%
G00 G55 X-1.800 Y-1.350    ; layer 1 start
M151                               ; engage tool
Z0.800                              ; lower to layer 1 Z
M160                               ; dispensing ON
G01 X1.800                       ; strand L1-1  (+X)
Y-0.450                              ; traverse to strand L1-2
X-1.800                          ; strand L1-2 (−X)
Y0.450                              ; traverse to strand L1-3
X1.800                           ; strand L1-3 (+X)
Y1.350                              ; traverse to strand L1-4
X-1.800                          ; strand L1-4 (−X)
M161                               ; dispensing OFF
G00 Z18.400                ; lift to travel Z
X-1.350 Y-1.800            ; layer 2 start position
Z1.150                               ; lower to layer 2 Z
M160                               ; dispensing ON
G01 Y1.800                        ; strand L2-1  (+Y)
X-0.450                              ; traverse to strand L2-2
Y-1.800                          ; strand L2-2 (−Y)
X0.450                              ; traverse to strand L2-3
Y1.800                           ; strand L2-3 (+Y)
X1.350                              ; traverse to strand L2-4
Y-1.800                          ; strand L2-4 (−Y)
M161                               ; dispensing OFF
M110=543  ; progress
G805[6.535, -19.600, 2.620]  ; G55 origin: E5
G55
G00 Z18.400       ; lift to travel Z
M200=950         ; pressure 95.0kPa
F11.000
M110=544              ; progress 544%
G00 G55 X-1.800 Y-1.350    ; layer 1 start
M151                               ; engage tool
Z0.800                              ; lower to layer 1 Z
M160                               ; dispensing ON
G01 X1.800                       ; strand L1-1  (+X)
Y-0.450                              ; traverse to strand L1-2
X-1.800                          ; strand L1-2 (−X)
Y0.450                              ; traverse to strand L1-3
X1.800                           ; strand L1-3 (+X)
Y1.350                              ; traverse to strand L1-4
X-1.800                          ; strand L1-4 (−X)
M161                               ; dispensing OFF
G00 Z18.400                ; lift to travel Z
X-1.350 Y-1.800            ; layer 2 start position
Z1.150                               ; lower to layer 2 Z
M160                               ; dispensing ON
G01 Y1.800                        ; strand L2-1  (+Y)
X-0.450                              ; traverse to strand L2-2
Y-1.800                          ; strand L2-2 (−Y)
X0.450                              ; traverse to strand L2-3
Y1.800                           ; strand L2-3 (+Y)
X1.350                              ; traverse to strand L2-4
Y-1.800                          ; strand L2-4 (−Y)
M161                               ; dispensing OFF
M110=561  ; progress
G805[6.535, -32.680, 2.620]  ; G55 origin: F5
G55
G00 Z18.400       ; lift to travel Z
M200=950         ; pressure 95.0kPa
F11.000
M110=562              ; progress 562%
G00 G55 X-1.800 Y-1.350    ; layer 1 start
M151                               ; engage tool
Z0.800                              ; lower to layer 1 Z
M160                               ; dispensing ON
G01 X1.800                       ; strand L1-1  (+X)
Y-0.450                              ; traverse to strand L1-2
X-1.800                          ; strand L1-2 (−X)
Y0.450                              ; traverse to strand L1-3
X1.800                           ; strand L1-3 (+X)
Y1.350                              ; traverse to strand L1-4
X-1.800                          ; strand L1-4 (−X)
M161                               ; dispensing OFF
G00 Z18.400                ; lift to travel Z
X-1.350 Y-1.800            ; layer 2 start position
Z1.150                               ; lower to layer 2 Z
M160                               ; dispensing ON
G01 Y1.800                        ; strand L2-1  (+Y)
X-0.450                              ; traverse to strand L2-2
Y-1.800                          ; strand L2-2 (−Y)
X0.450                              ; traverse to strand L2-3
Y1.800                           ; strand L2-3 (+Y)
X1.350                              ; traverse to strand L2-4
Y-1.800                          ; strand L2-4 (−Y)
M161                               ; dispensing OFF
M110=579  ; progress

; ── Col 6 | Sample 67 | P=100kPa  F=12.0mm/s  Z=0.400mm ──
G805[19.615, 32.720, 2.620]  ; G55 origin: A6
G55

; Changing tool to 'PSD 1'
#FLUSH WAIT
T1
G807[1, 0.002, 0.002]  ; time-based start/stop delays [s]
M200=1000         ; pressure 100.0kPa
F12.000               ; nozzle speed
M110=580              ; progress 580%
G00 G55 X-1.800 Y-1.350    ; layer 1 start
M151                               ; engage tool
Z0.400                              ; lower to layer 1 Z
M160                               ; dispensing ON
G01 X1.800                       ; strand L1-1  (+X)
Y-0.450                              ; traverse to strand L1-2
X-1.800                          ; strand L1-2 (−X)
Y0.450                              ; traverse to strand L1-3
X1.800                           ; strand L1-3 (+X)
Y1.350                              ; traverse to strand L1-4
X-1.800                          ; strand L1-4 (−X)
M161                               ; dispensing OFF
G00 Z18.400                ; lift to travel Z
X-1.350 Y-1.800            ; layer 2 start position
Z0.750                               ; lower to layer 2 Z
M160                               ; dispensing ON
G01 Y1.800                        ; strand L2-1  (+Y)
X-0.450                              ; traverse to strand L2-2
Y-1.800                          ; strand L2-2 (−Y)
X0.450                              ; traverse to strand L2-3
Y1.800                           ; strand L2-3 (+Y)
X1.350                              ; traverse to strand L2-4
Y-1.800                          ; strand L2-4 (−Y)
M161                               ; dispensing OFF
M110=597  ; progress
G805[19.615, 19.640, 2.620]  ; G55 origin: B6
G55
G00 Z18.400       ; lift to travel Z
M200=1000         ; pressure 100.0kPa
F12.000
M110=598              ; progress 598%
G00 G55 X-1.800 Y-1.350    ; layer 1 start
M151                               ; engage tool
Z0.400                              ; lower to layer 1 Z
M160                               ; dispensing ON
G01 X1.800                       ; strand L1-1  (+X)
Y-0.450                              ; traverse to strand L1-2
X-1.800                          ; strand L1-2 (−X)
Y0.450                              ; traverse to strand L1-3
X1.800                           ; strand L1-3 (+X)
Y1.350                              ; traverse to strand L1-4
X-1.800                          ; strand L1-4 (−X)
M161                               ; dispensing OFF
G00 Z18.400                ; lift to travel Z
X-1.350 Y-1.800            ; layer 2 start position
Z0.750                               ; lower to layer 2 Z
M160                               ; dispensing ON
G01 Y1.800                        ; strand L2-1  (+Y)
X-0.450                              ; traverse to strand L2-2
Y-1.800                          ; strand L2-2 (−Y)
X0.450                              ; traverse to strand L2-3
Y1.800                           ; strand L2-3 (+Y)
X1.350                              ; traverse to strand L2-4
Y-1.800                          ; strand L2-4 (−Y)
M161                               ; dispensing OFF
M110=615  ; progress
G805[19.615, 6.560, 2.620]  ; G55 origin: C6
G55
G00 Z18.400       ; lift to travel Z
M200=1000         ; pressure 100.0kPa
F12.000
M110=616              ; progress 616%
G00 G55 X-1.800 Y-1.350    ; layer 1 start
M151                               ; engage tool
Z0.400                              ; lower to layer 1 Z
M160                               ; dispensing ON
G01 X1.800                       ; strand L1-1  (+X)
Y-0.450                              ; traverse to strand L1-2
X-1.800                          ; strand L1-2 (−X)
Y0.450                              ; traverse to strand L1-3
X1.800                           ; strand L1-3 (+X)
Y1.350                              ; traverse to strand L1-4
X-1.800                          ; strand L1-4 (−X)
M161                               ; dispensing OFF
G00 Z18.400                ; lift to travel Z
X-1.350 Y-1.800            ; layer 2 start position
Z0.750                               ; lower to layer 2 Z
M160                               ; dispensing ON
G01 Y1.800                        ; strand L2-1  (+Y)
X-0.450                              ; traverse to strand L2-2
Y-1.800                          ; strand L2-2 (−Y)
X0.450                              ; traverse to strand L2-3
Y1.800                           ; strand L2-3 (+Y)
X1.350                              ; traverse to strand L2-4
Y-1.800                          ; strand L2-4 (−Y)
M161                               ; dispensing OFF
M110=633  ; progress
G805[19.615, -6.520, 2.620]  ; G55 origin: D6
G55
G00 Z18.400       ; lift to travel Z
M200=1000         ; pressure 100.0kPa
F12.000
M110=634              ; progress 634%
G00 G55 X-1.800 Y-1.350    ; layer 1 start
M151                               ; engage tool
Z0.400                              ; lower to layer 1 Z
M160                               ; dispensing ON
G01 X1.800                       ; strand L1-1  (+X)
Y-0.450                              ; traverse to strand L1-2
X-1.800                          ; strand L1-2 (−X)
Y0.450                              ; traverse to strand L1-3
X1.800                           ; strand L1-3 (+X)
Y1.350                              ; traverse to strand L1-4
X-1.800                          ; strand L1-4 (−X)
M161                               ; dispensing OFF
G00 Z18.400                ; lift to travel Z
X-1.350 Y-1.800            ; layer 2 start position
Z0.750                               ; lower to layer 2 Z
M160                               ; dispensing ON
G01 Y1.800                        ; strand L2-1  (+Y)
X-0.450                              ; traverse to strand L2-2
Y-1.800                          ; strand L2-2 (−Y)
X0.450                              ; traverse to strand L2-3
Y1.800                           ; strand L2-3 (+Y)
X1.350                              ; traverse to strand L2-4
Y-1.800                          ; strand L2-4 (−Y)
M161                               ; dispensing OFF
M110=651  ; progress
G805[19.615, -19.600, 2.620]  ; G55 origin: E6
G55
G00 Z18.400       ; lift to travel Z
M200=1000         ; pressure 100.0kPa
F12.000
M110=652              ; progress 652%
G00 G55 X-1.800 Y-1.350    ; layer 1 start
M151                               ; engage tool
Z0.400                              ; lower to layer 1 Z
M160                               ; dispensing ON
G01 X1.800                       ; strand L1-1  (+X)
Y-0.450                              ; traverse to strand L1-2
X-1.800                          ; strand L1-2 (−X)
Y0.450                              ; traverse to strand L1-3
X1.800                           ; strand L1-3 (+X)
Y1.350                              ; traverse to strand L1-4
X-1.800                          ; strand L1-4 (−X)
M161                               ; dispensing OFF
G00 Z18.400                ; lift to travel Z
X-1.350 Y-1.800            ; layer 2 start position
Z0.750                               ; lower to layer 2 Z
M160                               ; dispensing ON
G01 Y1.800                        ; strand L2-1  (+Y)
X-0.450                              ; traverse to strand L2-2
Y-1.800                          ; strand L2-2 (−Y)
X0.450                              ; traverse to strand L2-3
Y1.800                           ; strand L2-3 (+Y)
X1.350                              ; traverse to strand L2-4
Y-1.800                          ; strand L2-4 (−Y)
M161                               ; dispensing OFF
M110=669  ; progress
G805[19.615, -32.680, 2.620]  ; G55 origin: F6
G55
G00 Z18.400       ; lift to travel Z
M200=1000         ; pressure 100.0kPa
F12.000
M110=670              ; progress 670%
G00 G55 X-1.800 Y-1.350    ; layer 1 start
M151                               ; engage tool
Z0.400                              ; lower to layer 1 Z
M160                               ; dispensing ON
G01 X1.800                       ; strand L1-1  (+X)
Y-0.450                              ; traverse to strand L1-2
X-1.800                          ; strand L1-2 (−X)
Y0.450                              ; traverse to strand L1-3
X1.800                           ; strand L1-3 (+X)
Y1.350                              ; traverse to strand L1-4
X-1.800                          ; strand L1-4 (−X)
M161                               ; dispensing OFF
G00 Z18.400                ; lift to travel Z
X-1.350 Y-1.800            ; layer 2 start position
Z0.750                               ; lower to layer 2 Z
M160                               ; dispensing ON
G01 Y1.800                        ; strand L2-1  (+Y)
X-0.450                              ; traverse to strand L2-2
Y-1.800                          ; strand L2-2 (−Y)
X0.450                              ; traverse to strand L2-3
Y1.800                           ; strand L2-3 (+Y)
X1.350                              ; traverse to strand L2-4
Y-1.800                          ; strand L2-4 (−Y)
M161                               ; dispensing OFF
M110=687  ; progress

; ── Col 7 | Sample 80 | P=110kPa  F=11.0mm/s  Z=0.500mm ──
G805[32.695, 32.720, 2.620]  ; G55 origin: A7
G55

; Changing tool to 'PSD 1'
#FLUSH WAIT
T1
G807[1, 0.002, 0.002]  ; time-based start/stop delays [s]
M200=1100         ; pressure 110.0kPa
F11.000               ; nozzle speed
M110=688              ; progress 688%
G00 G55 X-1.800 Y-1.350    ; layer 1 start
M151                               ; engage tool
Z0.500                              ; lower to layer 1 Z
M160                               ; dispensing ON
G01 X1.800                       ; strand L1-1  (+X)
Y-0.450                              ; traverse to strand L1-2
X-1.800                          ; strand L1-2 (−X)
Y0.450                              ; traverse to strand L1-3
X1.800                           ; strand L1-3 (+X)
Y1.350                              ; traverse to strand L1-4
X-1.800                          ; strand L1-4 (−X)
M161                               ; dispensing OFF
G00 Z18.400                ; lift to travel Z
X-1.350 Y-1.800            ; layer 2 start position
Z0.850                               ; lower to layer 2 Z
M160                               ; dispensing ON
G01 Y1.800                        ; strand L2-1  (+Y)
X-0.450                              ; traverse to strand L2-2
Y-1.800                          ; strand L2-2 (−Y)
X0.450                              ; traverse to strand L2-3
Y1.800                           ; strand L2-3 (+Y)
X1.350                              ; traverse to strand L2-4
Y-1.800                          ; strand L2-4 (−Y)
M161                               ; dispensing OFF
M110=705  ; progress
G805[32.695, 19.640, 2.620]  ; G55 origin: B7
G55
G00 Z18.400       ; lift to travel Z
M200=1100         ; pressure 110.0kPa
F11.000
M110=706              ; progress 706%
G00 G55 X-1.800 Y-1.350    ; layer 1 start
M151                               ; engage tool
Z0.500                              ; lower to layer 1 Z
M160                               ; dispensing ON
G01 X1.800                       ; strand L1-1  (+X)
Y-0.450                              ; traverse to strand L1-2
X-1.800                          ; strand L1-2 (−X)
Y0.450                              ; traverse to strand L1-3
X1.800                           ; strand L1-3 (+X)
Y1.350                              ; traverse to strand L1-4
X-1.800                          ; strand L1-4 (−X)
M161                               ; dispensing OFF
G00 Z18.400                ; lift to travel Z
X-1.350 Y-1.800            ; layer 2 start position
Z0.850                               ; lower to layer 2 Z
M160                               ; dispensing ON
G01 Y1.800                        ; strand L2-1  (+Y)
X-0.450                              ; traverse to strand L2-2
Y-1.800                          ; strand L2-2 (−Y)
X0.450                              ; traverse to strand L2-3
Y1.800                           ; strand L2-3 (+Y)
X1.350                              ; traverse to strand L2-4
Y-1.800                          ; strand L2-4 (−Y)
M161                               ; dispensing OFF
M110=723  ; progress
G805[32.695, 6.560, 2.620]  ; G55 origin: C7
G55
G00 Z18.400       ; lift to travel Z
M200=1100         ; pressure 110.0kPa
F11.000
M110=724              ; progress 724%
G00 G55 X-1.800 Y-1.350    ; layer 1 start
M151                               ; engage tool
Z0.500                              ; lower to layer 1 Z
M160                               ; dispensing ON
G01 X1.800                       ; strand L1-1  (+X)
Y-0.450                              ; traverse to strand L1-2
X-1.800                          ; strand L1-2 (−X)
Y0.450                              ; traverse to strand L1-3
X1.800                           ; strand L1-3 (+X)
Y1.350                              ; traverse to strand L1-4
X-1.800                          ; strand L1-4 (−X)
M161                               ; dispensing OFF
G00 Z18.400                ; lift to travel Z
X-1.350 Y-1.800            ; layer 2 start position
Z0.850                               ; lower to layer 2 Z
M160                               ; dispensing ON
G01 Y1.800                        ; strand L2-1  (+Y)
X-0.450                              ; traverse to strand L2-2
Y-1.800                          ; strand L2-2 (−Y)
X0.450                              ; traverse to strand L2-3
Y1.800                           ; strand L2-3 (+Y)
X1.350                              ; traverse to strand L2-4
Y-1.800                          ; strand L2-4 (−Y)
M161                               ; dispensing OFF
M110=741  ; progress
G805[32.695, -6.520, 2.620]  ; G55 origin: D7
G55
G00 Z18.400       ; lift to travel Z
M200=1100         ; pressure 110.0kPa
F11.000
M110=742              ; progress 742%
G00 G55 X-1.800 Y-1.350    ; layer 1 start
M151                               ; engage tool
Z0.500                              ; lower to layer 1 Z
M160                               ; dispensing ON
G01 X1.800                       ; strand L1-1  (+X)
Y-0.450                              ; traverse to strand L1-2
X-1.800                          ; strand L1-2 (−X)
Y0.450                              ; traverse to strand L1-3
X1.800                           ; strand L1-3 (+X)
Y1.350                              ; traverse to strand L1-4
X-1.800                          ; strand L1-4 (−X)
M161                               ; dispensing OFF
G00 Z18.400                ; lift to travel Z
X-1.350 Y-1.800            ; layer 2 start position
Z0.850                               ; lower to layer 2 Z
M160                               ; dispensing ON
G01 Y1.800                        ; strand L2-1  (+Y)
X-0.450                              ; traverse to strand L2-2
Y-1.800                          ; strand L2-2 (−Y)
X0.450                              ; traverse to strand L2-3
Y1.800                           ; strand L2-3 (+Y)
X1.350                              ; traverse to strand L2-4
Y-1.800                          ; strand L2-4 (−Y)
M161                               ; dispensing OFF
M110=759  ; progress
G805[32.695, -19.600, 2.620]  ; G55 origin: E7
G55
G00 Z18.400       ; lift to travel Z
M200=1100         ; pressure 110.0kPa
F11.000
M110=760              ; progress 760%
G00 G55 X-1.800 Y-1.350    ; layer 1 start
M151                               ; engage tool
Z0.500                              ; lower to layer 1 Z
M160                               ; dispensing ON
G01 X1.800                       ; strand L1-1  (+X)
Y-0.450                              ; traverse to strand L1-2
X-1.800                          ; strand L1-2 (−X)
Y0.450                              ; traverse to strand L1-3
X1.800                           ; strand L1-3 (+X)
Y1.350                              ; traverse to strand L1-4
X-1.800                          ; strand L1-4 (−X)
M161                               ; dispensing OFF
G00 Z18.400                ; lift to travel Z
X-1.350 Y-1.800            ; layer 2 start position
Z0.850                               ; lower to layer 2 Z
M160                               ; dispensing ON
G01 Y1.800                        ; strand L2-1  (+Y)
X-0.450                              ; traverse to strand L2-2
Y-1.800                          ; strand L2-2 (−Y)
X0.450                              ; traverse to strand L2-3
Y1.800                           ; strand L2-3 (+Y)
X1.350                              ; traverse to strand L2-4
Y-1.800                          ; strand L2-4 (−Y)
M161                               ; dispensing OFF
M110=777  ; progress
G805[32.695, -32.680, 2.620]  ; G55 origin: F7
G55
G00 Z18.400       ; lift to travel Z
M200=1100         ; pressure 110.0kPa
F11.000
M110=778              ; progress 778%
G00 G55 X-1.800 Y-1.350    ; layer 1 start
M151                               ; engage tool
Z0.500                              ; lower to layer 1 Z
M160                               ; dispensing ON
G01 X1.800                       ; strand L1-1  (+X)
Y-0.450                              ; traverse to strand L1-2
X-1.800                          ; strand L1-2 (−X)
Y0.450                              ; traverse to strand L1-3
X1.800                           ; strand L1-3 (+X)
Y1.350                              ; traverse to strand L1-4
X-1.800                          ; strand L1-4 (−X)
M161                               ; dispensing OFF
G00 Z18.400                ; lift to travel Z
X-1.350 Y-1.800            ; layer 2 start position
Z0.850                               ; lower to layer 2 Z
M160                               ; dispensing ON
G01 Y1.800                        ; strand L2-1  (+Y)
X-0.450                              ; traverse to strand L2-2
Y-1.800                          ; strand L2-2 (−Y)
X0.450                              ; traverse to strand L2-3
Y1.800                           ; strand L2-3 (+Y)
X1.350                              ; traverse to strand L2-4
Y-1.800                          ; strand L2-4 (−Y)
M161                               ; dispensing OFF
M110=795  ; progress

; ── Col 8 | Sample 93 | P=120kPa  F=6.0mm/s  Z=0.500mm ──
G805[45.775, 32.720, 2.620]  ; G55 origin: A8
G55

; Changing tool to 'PSD 1'
#FLUSH WAIT
T1
G807[1, 0.002, 0.002]  ; time-based start/stop delays [s]
M200=1200         ; pressure 120.0kPa
F6.000               ; nozzle speed
M110=796              ; progress 796%
G00 G55 X-1.800 Y-1.350    ; layer 1 start
M151                               ; engage tool
Z0.500                              ; lower to layer 1 Z
M160                               ; dispensing ON
G01 X1.800                       ; strand L1-1  (+X)
Y-0.450                              ; traverse to strand L1-2
X-1.800                          ; strand L1-2 (−X)
Y0.450                              ; traverse to strand L1-3
X1.800                           ; strand L1-3 (+X)
Y1.350                              ; traverse to strand L1-4
X-1.800                          ; strand L1-4 (−X)
M161                               ; dispensing OFF
G00 Z18.400                ; lift to travel Z
X-1.350 Y-1.800            ; layer 2 start position
Z0.850                               ; lower to layer 2 Z
M160                               ; dispensing ON
G01 Y1.800                        ; strand L2-1  (+Y)
X-0.450                              ; traverse to strand L2-2
Y-1.800                          ; strand L2-2 (−Y)
X0.450                              ; traverse to strand L2-3
Y1.800                           ; strand L2-3 (+Y)
X1.350                              ; traverse to strand L2-4
Y-1.800                          ; strand L2-4 (−Y)
M161                               ; dispensing OFF
M110=813  ; progress
G805[45.775, 19.640, 2.620]  ; G55 origin: B8
G55
G00 Z18.400       ; lift to travel Z
M200=1200         ; pressure 120.0kPa
F6.000
M110=814              ; progress 814%
G00 G55 X-1.800 Y-1.350    ; layer 1 start
M151                               ; engage tool
Z0.500                              ; lower to layer 1 Z
M160                               ; dispensing ON
G01 X1.800                       ; strand L1-1  (+X)
Y-0.450                              ; traverse to strand L1-2
X-1.800                          ; strand L1-2 (−X)
Y0.450                              ; traverse to strand L1-3
X1.800                           ; strand L1-3 (+X)
Y1.350                              ; traverse to strand L1-4
X-1.800                          ; strand L1-4 (−X)
M161                               ; dispensing OFF
G00 Z18.400                ; lift to travel Z
X-1.350 Y-1.800            ; layer 2 start position
Z0.850                               ; lower to layer 2 Z
M160                               ; dispensing ON
G01 Y1.800                        ; strand L2-1  (+Y)
X-0.450                              ; traverse to strand L2-2
Y-1.800                          ; strand L2-2 (−Y)
X0.450                              ; traverse to strand L2-3
Y1.800                           ; strand L2-3 (+Y)
X1.350                              ; traverse to strand L2-4
Y-1.800                          ; strand L2-4 (−Y)
M161                               ; dispensing OFF
M110=831  ; progress
G805[45.775, 6.560, 2.620]  ; G55 origin: C8
G55
G00 Z18.400       ; lift to travel Z
M200=1200         ; pressure 120.0kPa
F6.000
M110=832              ; progress 832%
G00 G55 X-1.800 Y-1.350    ; layer 1 start
M151                               ; engage tool
Z0.500                              ; lower to layer 1 Z
M160                               ; dispensing ON
G01 X1.800                       ; strand L1-1  (+X)
Y-0.450                              ; traverse to strand L1-2
X-1.800                          ; strand L1-2 (−X)
Y0.450                              ; traverse to strand L1-3
X1.800                           ; strand L1-3 (+X)
Y1.350                              ; traverse to strand L1-4
X-1.800                          ; strand L1-4 (−X)
M161                               ; dispensing OFF
G00 Z18.400                ; lift to travel Z
X-1.350 Y-1.800            ; layer 2 start position
Z0.850                               ; lower to layer 2 Z
M160                               ; dispensing ON
G01 Y1.800                        ; strand L2-1  (+Y)
X-0.450                              ; traverse to strand L2-2
Y-1.800                          ; strand L2-2 (−Y)
X0.450                              ; traverse to strand L2-3
Y1.800                           ; strand L2-3 (+Y)
X1.350                              ; traverse to strand L2-4
Y-1.800                          ; strand L2-4 (−Y)
M161                               ; dispensing OFF
M110=849  ; progress
G805[45.775, -6.520, 2.620]  ; G55 origin: D8
G55
G00 Z18.400       ; lift to travel Z
M200=1200         ; pressure 120.0kPa
F6.000
M110=850              ; progress 850%
G00 G55 X-1.800 Y-1.350    ; layer 1 start
M151                               ; engage tool
Z0.500                              ; lower to layer 1 Z
M160                               ; dispensing ON
G01 X1.800                       ; strand L1-1  (+X)
Y-0.450                              ; traverse to strand L1-2
X-1.800                          ; strand L1-2 (−X)
Y0.450                              ; traverse to strand L1-3
X1.800                           ; strand L1-3 (+X)
Y1.350                              ; traverse to strand L1-4
X-1.800                          ; strand L1-4 (−X)
M161                               ; dispensing OFF
G00 Z18.400                ; lift to travel Z
X-1.350 Y-1.800            ; layer 2 start position
Z0.850                               ; lower to layer 2 Z
M160                               ; dispensing ON
G01 Y1.800                        ; strand L2-1  (+Y)
X-0.450                              ; traverse to strand L2-2
Y-1.800                          ; strand L2-2 (−Y)
X0.450                              ; traverse to strand L2-3
Y1.800                           ; strand L2-3 (+Y)
X1.350                              ; traverse to strand L2-4
Y-1.800                          ; strand L2-4 (−Y)
M161                               ; dispensing OFF
M110=867  ; progress
G805[45.775, -19.600, 2.620]  ; G55 origin: E8
G55
G00 Z18.400       ; lift to travel Z
M200=1200         ; pressure 120.0kPa
F6.000
M110=868              ; progress 868%
G00 G55 X-1.800 Y-1.350    ; layer 1 start
M151                               ; engage tool
Z0.500                              ; lower to layer 1 Z
M160                               ; dispensing ON
G01 X1.800                       ; strand L1-1  (+X)
Y-0.450                              ; traverse to strand L1-2
X-1.800                          ; strand L1-2 (−X)
Y0.450                              ; traverse to strand L1-3
X1.800                           ; strand L1-3 (+X)
Y1.350                              ; traverse to strand L1-4
X-1.800                          ; strand L1-4 (−X)
M161                               ; dispensing OFF
G00 Z18.400                ; lift to travel Z
X-1.350 Y-1.800            ; layer 2 start position
Z0.850                               ; lower to layer 2 Z
M160                               ; dispensing ON
G01 Y1.800                        ; strand L2-1  (+Y)
X-0.450                              ; traverse to strand L2-2
Y-1.800                          ; strand L2-2 (−Y)
X0.450                              ; traverse to strand L2-3
Y1.800                           ; strand L2-3 (+Y)
X1.350                              ; traverse to strand L2-4
Y-1.800                          ; strand L2-4 (−Y)
M161                               ; dispensing OFF
M110=885  ; progress
G805[45.775, -32.680, 2.620]  ; G55 origin: F8
G55
G00 Z18.400       ; lift to travel Z
M200=1200         ; pressure 120.0kPa
F6.000
M110=886              ; progress 886%
G00 G55 X-1.800 Y-1.350    ; layer 1 start
M151                               ; engage tool
Z0.500                              ; lower to layer 1 Z
M160                               ; dispensing ON
G01 X1.800                       ; strand L1-1  (+X)
Y-0.450                              ; traverse to strand L1-2
X-1.800                          ; strand L1-2 (−X)
Y0.450                              ; traverse to strand L1-3
X1.800                           ; strand L1-3 (+X)
Y1.350                              ; traverse to strand L1-4
X-1.800                          ; strand L1-4 (−X)
M161                               ; dispensing OFF
G00 Z18.400                ; lift to travel Z
X-1.350 Y-1.800            ; layer 2 start position
Z0.850                               ; lower to layer 2 Z
M160                               ; dispensing ON
G01 Y1.800                        ; strand L2-1  (+Y)
X-0.450                              ; traverse to strand L2-2
Y-1.800                          ; strand L2-2 (−Y)
X0.450                              ; traverse to strand L2-3
Y1.800                           ; strand L2-3 (+Y)
X1.350                              ; traverse to strand L2-4
Y-1.800                          ; strand L2-4 (−Y)
M161                               ; dispensing OFF
M110=903  ; progress

#FLUSH WAIT

; ============================================================
; CAMERA IMAGING POSITIONS
; Wells: A1, B1, C1, D1, E1, F1, A2, B2, C2, D2, E2, F2, A3, B3, C3, D3, E3, F3, A4, B4, C4, D4, E4, F4, A5, B5, C5, D5, E5, F5, A6, B6, C6, D6, E6, F6, A7, B7, C7, D7, E7, F7, A8, B8, C8, D8, E8, F8
; Column-major order: col1 (A1-F1) -> col2 (A2-F2) -> ...
; Slot 1 selected (T1) — camera physically at slot 5.
; Z safe travel = 22.34 mm  |  Z imaging = 2.24 mm
; ============================================================

#FLUSH WAIT
#CONTOUR MODE OFF          ; Exit tracking mode from printing
#FLUSH WAIT

T1                         ; Select slot 1 (coordinate frame reference)
G803                       ; Move to system safe height

; --- Well A1 ---
G00 G54 G90 Z22.340          ; Raise to safe Z first
G00 X-234.090 Y95.780              ; Move XY to A1
G00 Z2.240                ; Lower to imaging height
V.E.UserInteraction.Message = "Camera at A1 - trigger imaging, then click OK"
M121                       ; Pause for manual camera trigger

; --- Well B1 ---
G00 G54 G90 Z22.340          ; Raise to safe Z first
G00 X-234.090 Y82.750              ; Move XY to B1
G00 Z2.240                ; Lower to imaging height
V.E.UserInteraction.Message = "Camera at B1 - trigger imaging, then click OK"
M121                       ; Pause for manual camera trigger

; --- Well C1 ---
G00 G54 G90 Z22.340          ; Raise to safe Z first
G00 X-234.090 Y69.720              ; Move XY to C1
G00 Z2.240                ; Lower to imaging height
V.E.UserInteraction.Message = "Camera at C1 - trigger imaging, then click OK"
M121                       ; Pause for manual camera trigger

; --- Well D1 ---
G00 G54 G90 Z22.340          ; Raise to safe Z first
G00 X-234.090 Y56.690              ; Move XY to D1
G00 Z2.240                ; Lower to imaging height
V.E.UserInteraction.Message = "Camera at D1 - trigger imaging, then click OK"
M121                       ; Pause for manual camera trigger

; --- Well E1 ---
G00 G54 G90 Z22.340          ; Raise to safe Z first
G00 X-234.090 Y43.660              ; Move XY to E1
G00 Z2.240                ; Lower to imaging height
V.E.UserInteraction.Message = "Camera at E1 - trigger imaging, then click OK"
M121                       ; Pause for manual camera trigger

; --- Well F1 ---
G00 G54 G90 Z22.340          ; Raise to safe Z first
G00 X-234.090 Y30.630              ; Move XY to F1
G00 Z2.240                ; Lower to imaging height
V.E.UserInteraction.Message = "Camera at F1 - trigger imaging, then click OK"
M121                       ; Pause for manual camera trigger

; --- Well A2 ---
G00 G54 G90 Z22.340          ; Raise to safe Z first
G00 X-221.099 Y95.780              ; Move XY to A2
G00 Z2.240                ; Lower to imaging height
V.E.UserInteraction.Message = "Camera at A2 - trigger imaging, then click OK"
M121                       ; Pause for manual camera trigger

; --- Well B2 ---
G00 G54 G90 Z22.340          ; Raise to safe Z first
G00 X-221.099 Y82.750              ; Move XY to B2
G00 Z2.240                ; Lower to imaging height
V.E.UserInteraction.Message = "Camera at B2 - trigger imaging, then click OK"
M121                       ; Pause for manual camera trigger

; --- Well C2 ---
G00 G54 G90 Z22.340          ; Raise to safe Z first
G00 X-221.099 Y69.720              ; Move XY to C2
G00 Z2.240                ; Lower to imaging height
V.E.UserInteraction.Message = "Camera at C2 - trigger imaging, then click OK"
M121                       ; Pause for manual camera trigger

; --- Well D2 ---
G00 G54 G90 Z22.340          ; Raise to safe Z first
G00 X-221.099 Y56.690              ; Move XY to D2
G00 Z2.240                ; Lower to imaging height
V.E.UserInteraction.Message = "Camera at D2 - trigger imaging, then click OK"
M121                       ; Pause for manual camera trigger

; --- Well E2 ---
G00 G54 G90 Z22.340          ; Raise to safe Z first
G00 X-221.099 Y43.660              ; Move XY to E2
G00 Z2.240                ; Lower to imaging height
V.E.UserInteraction.Message = "Camera at E2 - trigger imaging, then click OK"
M121                       ; Pause for manual camera trigger

; --- Well F2 ---
G00 G54 G90 Z22.340          ; Raise to safe Z first
G00 X-221.099 Y30.630              ; Move XY to F2
G00 Z2.240                ; Lower to imaging height
V.E.UserInteraction.Message = "Camera at F2 - trigger imaging, then click OK"
M121                       ; Pause for manual camera trigger

; --- Well A3 ---
G00 G54 G90 Z22.340          ; Raise to safe Z first
G00 X-208.107 Y95.780              ; Move XY to A3
G00 Z2.240                ; Lower to imaging height
V.E.UserInteraction.Message = "Camera at A3 - trigger imaging, then click OK"
M121                       ; Pause for manual camera trigger

; --- Well B3 ---
G00 G54 G90 Z22.340          ; Raise to safe Z first
G00 X-208.107 Y82.750              ; Move XY to B3
G00 Z2.240                ; Lower to imaging height
V.E.UserInteraction.Message = "Camera at B3 - trigger imaging, then click OK"
M121                       ; Pause for manual camera trigger

; --- Well C3 ---
G00 G54 G90 Z22.340          ; Raise to safe Z first
G00 X-208.107 Y69.720              ; Move XY to C3
G00 Z2.240                ; Lower to imaging height
V.E.UserInteraction.Message = "Camera at C3 - trigger imaging, then click OK"
M121                       ; Pause for manual camera trigger

; --- Well D3 ---
G00 G54 G90 Z22.340          ; Raise to safe Z first
G00 X-208.107 Y56.690              ; Move XY to D3
G00 Z2.240                ; Lower to imaging height
V.E.UserInteraction.Message = "Camera at D3 - trigger imaging, then click OK"
M121                       ; Pause for manual camera trigger

; --- Well E3 ---
G00 G54 G90 Z22.340          ; Raise to safe Z first
G00 X-208.107 Y43.660              ; Move XY to E3
G00 Z2.240                ; Lower to imaging height
V.E.UserInteraction.Message = "Camera at E3 - trigger imaging, then click OK"
M121                       ; Pause for manual camera trigger

; --- Well F3 ---
G00 G54 G90 Z22.340          ; Raise to safe Z first
G00 X-208.107 Y30.630              ; Move XY to F3
G00 Z2.240                ; Lower to imaging height
V.E.UserInteraction.Message = "Camera at F3 - trigger imaging, then click OK"
M121                       ; Pause for manual camera trigger

; --- Well A4 ---
G00 G54 G90 Z22.340          ; Raise to safe Z first
G00 X-195.116 Y95.780              ; Move XY to A4
G00 Z2.240                ; Lower to imaging height
V.E.UserInteraction.Message = "Camera at A4 - trigger imaging, then click OK"
M121                       ; Pause for manual camera trigger

; --- Well B4 ---
G00 G54 G90 Z22.340          ; Raise to safe Z first
G00 X-195.116 Y82.750              ; Move XY to B4
G00 Z2.240                ; Lower to imaging height
V.E.UserInteraction.Message = "Camera at B4 - trigger imaging, then click OK"
M121                       ; Pause for manual camera trigger

; --- Well C4 ---
G00 G54 G90 Z22.340          ; Raise to safe Z first
G00 X-195.116 Y69.720              ; Move XY to C4
G00 Z2.240                ; Lower to imaging height
V.E.UserInteraction.Message = "Camera at C4 - trigger imaging, then click OK"
M121                       ; Pause for manual camera trigger

; --- Well D4 ---
G00 G54 G90 Z22.340          ; Raise to safe Z first
G00 X-195.116 Y56.690              ; Move XY to D4
G00 Z2.240                ; Lower to imaging height
V.E.UserInteraction.Message = "Camera at D4 - trigger imaging, then click OK"
M121                       ; Pause for manual camera trigger

; --- Well E4 ---
G00 G54 G90 Z22.340          ; Raise to safe Z first
G00 X-195.116 Y43.660              ; Move XY to E4
G00 Z2.240                ; Lower to imaging height
V.E.UserInteraction.Message = "Camera at E4 - trigger imaging, then click OK"
M121                       ; Pause for manual camera trigger

; --- Well F4 ---
G00 G54 G90 Z22.340          ; Raise to safe Z first
G00 X-195.116 Y30.630              ; Move XY to F4
G00 Z2.240                ; Lower to imaging height
V.E.UserInteraction.Message = "Camera at F4 - trigger imaging, then click OK"
M121                       ; Pause for manual camera trigger

; --- Well A5 ---
G00 G54 G90 Z22.340          ; Raise to safe Z first
G00 X-182.124 Y95.780              ; Move XY to A5
G00 Z2.240                ; Lower to imaging height
V.E.UserInteraction.Message = "Camera at A5 - trigger imaging, then click OK"
M121                       ; Pause for manual camera trigger

; --- Well B5 ---
G00 G54 G90 Z22.340          ; Raise to safe Z first
G00 X-182.124 Y82.750              ; Move XY to B5
G00 Z2.240                ; Lower to imaging height
V.E.UserInteraction.Message = "Camera at B5 - trigger imaging, then click OK"
M121                       ; Pause for manual camera trigger

; --- Well C5 ---
G00 G54 G90 Z22.340          ; Raise to safe Z first
G00 X-182.124 Y69.720              ; Move XY to C5
G00 Z2.240                ; Lower to imaging height
V.E.UserInteraction.Message = "Camera at C5 - trigger imaging, then click OK"
M121                       ; Pause for manual camera trigger

; --- Well D5 ---
G00 G54 G90 Z22.340          ; Raise to safe Z first
G00 X-182.124 Y56.690              ; Move XY to D5
G00 Z2.240                ; Lower to imaging height
V.E.UserInteraction.Message = "Camera at D5 - trigger imaging, then click OK"
M121                       ; Pause for manual camera trigger

; --- Well E5 ---
G00 G54 G90 Z22.340          ; Raise to safe Z first
G00 X-182.124 Y43.660              ; Move XY to E5
G00 Z2.240                ; Lower to imaging height
V.E.UserInteraction.Message = "Camera at E5 - trigger imaging, then click OK"
M121                       ; Pause for manual camera trigger

; --- Well F5 ---
G00 G54 G90 Z22.340          ; Raise to safe Z first
G00 X-182.124 Y30.630              ; Move XY to F5
G00 Z2.240                ; Lower to imaging height
V.E.UserInteraction.Message = "Camera at F5 - trigger imaging, then click OK"
M121                       ; Pause for manual camera trigger

; --- Well A6 ---
G00 G54 G90 Z22.340          ; Raise to safe Z first
G00 X-169.133 Y95.780              ; Move XY to A6
G00 Z2.240                ; Lower to imaging height
V.E.UserInteraction.Message = "Camera at A6 - trigger imaging, then click OK"
M121                       ; Pause for manual camera trigger

; --- Well B6 ---
G00 G54 G90 Z22.340          ; Raise to safe Z first
G00 X-169.133 Y82.750              ; Move XY to B6
G00 Z2.240                ; Lower to imaging height
V.E.UserInteraction.Message = "Camera at B6 - trigger imaging, then click OK"
M121                       ; Pause for manual camera trigger

; --- Well C6 ---
G00 G54 G90 Z22.340          ; Raise to safe Z first
G00 X-169.133 Y69.720              ; Move XY to C6
G00 Z2.240                ; Lower to imaging height
V.E.UserInteraction.Message = "Camera at C6 - trigger imaging, then click OK"
M121                       ; Pause for manual camera trigger

; --- Well D6 ---
G00 G54 G90 Z22.340          ; Raise to safe Z first
G00 X-169.133 Y56.690              ; Move XY to D6
G00 Z2.240                ; Lower to imaging height
V.E.UserInteraction.Message = "Camera at D6 - trigger imaging, then click OK"
M121                       ; Pause for manual camera trigger

; --- Well E6 ---
G00 G54 G90 Z22.340          ; Raise to safe Z first
G00 X-169.133 Y43.660              ; Move XY to E6
G00 Z2.240                ; Lower to imaging height
V.E.UserInteraction.Message = "Camera at E6 - trigger imaging, then click OK"
M121                       ; Pause for manual camera trigger

; --- Well F6 ---
G00 G54 G90 Z22.340          ; Raise to safe Z first
G00 X-169.133 Y30.630              ; Move XY to F6
G00 Z2.240                ; Lower to imaging height
V.E.UserInteraction.Message = "Camera at F6 - trigger imaging, then click OK"
M121                       ; Pause for manual camera trigger

; --- Well A7 ---
G00 G54 G90 Z22.340          ; Raise to safe Z first
G00 X-156.141 Y95.780              ; Move XY to A7
G00 Z2.240                ; Lower to imaging height
V.E.UserInteraction.Message = "Camera at A7 - trigger imaging, then click OK"
M121                       ; Pause for manual camera trigger

; --- Well B7 ---
G00 G54 G90 Z22.340          ; Raise to safe Z first
G00 X-156.141 Y82.750              ; Move XY to B7
G00 Z2.240                ; Lower to imaging height
V.E.UserInteraction.Message = "Camera at B7 - trigger imaging, then click OK"
M121                       ; Pause for manual camera trigger

; --- Well C7 ---
G00 G54 G90 Z22.340          ; Raise to safe Z first
G00 X-156.141 Y69.720              ; Move XY to C7
G00 Z2.240                ; Lower to imaging height
V.E.UserInteraction.Message = "Camera at C7 - trigger imaging, then click OK"
M121                       ; Pause for manual camera trigger

; --- Well D7 ---
G00 G54 G90 Z22.340          ; Raise to safe Z first
G00 X-156.141 Y56.690              ; Move XY to D7
G00 Z2.240                ; Lower to imaging height
V.E.UserInteraction.Message = "Camera at D7 - trigger imaging, then click OK"
M121                       ; Pause for manual camera trigger

; --- Well E7 ---
G00 G54 G90 Z22.340          ; Raise to safe Z first
G00 X-156.141 Y43.660              ; Move XY to E7
G00 Z2.240                ; Lower to imaging height
V.E.UserInteraction.Message = "Camera at E7 - trigger imaging, then click OK"
M121                       ; Pause for manual camera trigger

; --- Well F7 ---
G00 G54 G90 Z22.340          ; Raise to safe Z first
G00 X-156.141 Y30.630              ; Move XY to F7
G00 Z2.240                ; Lower to imaging height
V.E.UserInteraction.Message = "Camera at F7 - trigger imaging, then click OK"
M121                       ; Pause for manual camera trigger

; --- Well A8 ---
G00 G54 G90 Z22.340          ; Raise to safe Z first
G00 X-143.150 Y95.780              ; Move XY to A8
G00 Z2.240                ; Lower to imaging height
V.E.UserInteraction.Message = "Camera at A8 - trigger imaging, then click OK"
M121                       ; Pause for manual camera trigger

; --- Well B8 ---
G00 G54 G90 Z22.340          ; Raise to safe Z first
G00 X-143.150 Y82.750              ; Move XY to B8
G00 Z2.240                ; Lower to imaging height
V.E.UserInteraction.Message = "Camera at B8 - trigger imaging, then click OK"
M121                       ; Pause for manual camera trigger

; --- Well C8 ---
G00 G54 G90 Z22.340          ; Raise to safe Z first
G00 X-143.150 Y69.720              ; Move XY to C8
G00 Z2.240                ; Lower to imaging height
V.E.UserInteraction.Message = "Camera at C8 - trigger imaging, then click OK"
M121                       ; Pause for manual camera trigger

; --- Well D8 ---
G00 G54 G90 Z22.340          ; Raise to safe Z first
G00 X-143.150 Y56.690              ; Move XY to D8
G00 Z2.240                ; Lower to imaging height
V.E.UserInteraction.Message = "Camera at D8 - trigger imaging, then click OK"
M121                       ; Pause for manual camera trigger

; --- Well E8 ---
G00 G54 G90 Z22.340          ; Raise to safe Z first
G00 X-143.150 Y43.660              ; Move XY to E8
G00 Z2.240                ; Lower to imaging height
V.E.UserInteraction.Message = "Camera at E8 - trigger imaging, then click OK"
M121                       ; Pause for manual camera trigger

; --- Well F8 ---
G00 G54 G90 Z22.340          ; Raise to safe Z first
G00 X-143.150 Y30.630              ; Move XY to F8
G00 Z2.240                ; Lower to imaging height
V.E.UserInteraction.Message = "Camera at F8 - trigger imaging, then click OK"
M121                       ; Pause for manual camera trigger

; --- Return home ---
G00 G54 G90 Z22.340          ; Safe Z before going home
G800                       ; Go home
M110=1000
M30